/* XPM */
static char *east[] = {
/* columns rows colors chars-per-pixel */
"256 256 5 1 ",
"  c #4040BF",
". c #5E5EC9",
"X c #FFFFFF",
"o c #CFCFEF",
"O c #A5A5E1",
/* pixels */
"XXXXXXXXXXXXXXXXXXXXXXXXXXXXXXXXXXXXXXXXXXXXXXXXXXXXXXXXXXXXXXXXXXXXXXXXXXXXXXXXXXXXXXXXXXXXXXXXXXXXXXXXXXXXXXXXXXXXXXXXXXXXXXXXXXXXXXXXXXXXXXXXXXXXXXXXXXXXXXXXXXXXXXXXXXXXXXXXXXXXXXXXXXXXXXXXXXXXXXXXXXXXXXXXXXXXXXXXXXXXXXXXXXXXXXXXXXXXXXXXXXXXXXXXXXXXXXXX",
"XXXXXXXXXXXXXXXXXXXXXXXXXXXXXXXXXXXXXXXXXXXXXXXXXXXXXXXXXXXXXXXXXXXXXXXXXXXXXXXXXXXXXXXXXXXXXXXXXXXXXXXXXXXXXXXXXXXXXXXXXXXXXXXXXXXXXXXXXXXXXXXXXXXXXXXXXXXXXXXXXXXXXXXXXXXXXXXXXXXXXXXXXXXXXXXXXXXXXXXXXXXXXXXXXXXXXXXXXXXXXXXXXXXXXXXXXXXXXXXXXXXXXXXXXXXXXXXX",
"XXXXXXXXXXXXXXXXXXXXXXXXXXXXXXXXXXXXXXXXXXXXXXXXXXXXXXXXXXXXXXXXXXXXXXXXXXXXXXXXXXXXXXXXXXXXXXXXXXXXXXXXXXXXXXXXXXXXXXXXXXXXXXXXXXXXXXXXXXXXXXXXXXXXXXXXXXXXXXXXXXXXXXXXXXXXXXXXXXXXXXXXXXXXXXXXXXXXXXXXXXXXXXXXXXXXXXXXXXXXXXXXXXXXXXXXXXXXXXXXXXXXXXXXXXXXXXXX",
"XXXXXXXXXXXXXXXXXXXXXXXXXXXXXXXXXXXXXXXXXXXXXXXXXXXXXXXXXXXXXXXXXXXXXXXXXXXXXXXXXXXXXXXXXXXXXXXXXXXXXXXXXXXXXXXXXXXXXXXXXXXXXXXXXXXXXXXXXXXXXXXXXXXXXXXXXXXXXXXXXXXXXXXXXXXXXXXXXXXXXXXXXXXXXXXXXXXXXXXXXXXXXXXXXXXXXXXXXXXXXXXXXXXXXXXXXXXXXXXXXXXXXXXXXXXXXXXX",
"XXXXXXXXXXXXXXXXXXXXXXXXXXXXXXXXXXXXXXXXXXXXXXXXXXXXXXXXXXXXXXXXXXXXXXXXXXXXXXXXXXXXXXXXXXXXXXXXXXXXXXXXXXXXXXXXXXXXXXXXXXXXXXXXXXXXXXXXXXXXXXXXXXXXXXXXXXXXXXXXXXXXXXXXXXXXXXXXXXXXXXXXXXXXXXXXXXXXXXXXXXXXXXXXXXXXXXXXXXXXXXXXXXXXXXXXXXXXXXXXXXXXXXXXXXXXXXXX",
"XXXXXXXXXXXXXXXXXXXXXXXXXXXXXXXXXXXXXXXXXXXXXXXXXXXXXXXXXXXXXXXXXXXXXXXXXXXXXXXXXXXXXXXXXXXXXXXXXXXXXXXXXXXXXXXXXXXXXXXXXXXXXXXXXXXXXXXXXXXXXXXXXXXXXXXXXXXXXXXXXXXXXXXXXXXXXXXXXXXXXXXXXXXXXXXXXXXXXXXXXXXXXXXXXXXXXXXXXXXXXXXXXXXXXXXXXXXXXXXXXXXXXXXXXXXXXXXX",
"XXXXXXXXXXXXXXXXXXXXXXXXXXXXXXXXXXXXXXXXXXXXXXXXXXXXXXXXXXXXXXXXXXXXXXXXXXXXXXXXXXXXXXXXXXXXXXXXXXXXXXXXXXXXXXXXXXXXXXXXXXXXXXXXXXXXXXXXXXXXXXXXXXXXXXXXXXXXXXXXXXXXXXXXXXXXXXXXXXXXXXXXXXXXXXXXXXXXXXXXXXXXXXXXXXXXXXXXXXXXXXXXXXXXXXXXXXXXXXXXXXXXXXXXXXXXXXXX",
"XXXXXXXXXXXXXXXXXXXXXXXXXXXXXXXXXXXXXXXXXXXXXXXXXXXXXXXXXXXXXXXXXXXXXXXXXXXXXXXXXXXXXXXXXXXXXXXXXXXXXXXXXXXXXXXXXXXXXXXXXXXXXXXXXXXXXXXXXXXXXXXXXXXXXXXXXXXXXXXXXXXXXXXXXXXXXXXXXXXXXXXXXXXXXXXXXXXXXXXXXXXXXXXXXXXXXXXXXXXXXXXXXXXXXXXXXXXXXXXXXXXXXXXXXXXXXXXX",
"XXXXXXXXXXXXXXXXXXXXXXXXXXXXXXXXXXXXXXXXXXXXXXXXXXXXXXXXXXXXXXXXXXXXXXXXXXXXXXXXXXXXXXXXXXXXXXXXXXXXXXXXXXXXXXXXXXXXXXXXXXXXXXXXXXXXXXXXXXXXXXXXXXXXXXXXXXXXXXXXXXXXXXXXXXXXXXXXXXXXXXXXXXXXXXXXXXXXXXXXXXXXXXXXXXXXXXXXXXXXXXXXXXXXXXXXXXXXXXXXXXXXXXXXXXXXXXXX",
"XXXXXXXXX                                                                                                                                                                                                                                              XXXXXXXXX",
"XXXXXXXXX                                                                                                                                                                                                                                              XXXXXXXXX",
"XXXXXXXXX                                                                                                                                                                                                                                              XXXXXXXXX",
"XXXXXXXXX                                                                                                                                                                                                                                              XXXXXXXXX",
"XXXXXXXXX                                                                                                                                                                                                                                              XXXXXXXXX",
"XXXXXXXXX        XXXXXXXXXXXXXXXXo  OXXXo                                                                                                                                                                                                              XXXXXXXXX",
"XXXXXXXXX        XXXXXXXXXXXXXXXXo  OXXXo                                                                                                                                                                                                              XXXXXXXXX",
"XXXXXXXXX        XXXXXXXXXXXXXXXXo  OXXXo                                                                                                                                                                                                              XXXXXXXXX",
"XXXXXXXXX        OOOOOOXXXXoOOOOOO  OXXXo                                                                                                                                                                                                              XXXXXXXXX",
"XXXXXXXXX              oXXXO        OXXXo                                                                                                                                                                                                              XXXXXXXXX",
"XXXXXXXXX              oXXXO        OXXXo                                                                                                                                                                                                              XXXXXXXXX",
"XXXXXXXXX              oXXXO        OXXXo                                                                                                                                                                                                              XXXXXXXXX",
"XXXXXXXXX              oXXXO        OXXXo                                                                                                                                                                                                              XXXXXXXXX",
"XXXXXXXXX              oXXXO        OXXXo                                                                                                                                                                                                              XXXXXXXXX",
"XXXXXXXXX              oXXXO        OXXXo                                                                                                                                                                                                              XXXXXXXXX",
"XXXXXXXXX              oXXXO        OXXXo                                                                                                                                                                                                              XXXXXXXXX",
"XXXXXXXXX              oXXXO        OXXXo                                                                                                                                                                                                              XXXXXXXXX",
"XXXXXXXXX              oXXXO        OXXXo                                                                                                                                                                                                              XXXXXXXXX",
"XXXXXXXXX              oXXXO        OXXXo                                                                                                                                                                                                              XXXXXXXXX",
"XXXXXXXXX              oXXXO        OXXXo                                                                                                                                                                                                              XXXXXXXXX",
"XXXXXXXXX              oXXXO        OXXXo                                                                                                                                                                                                              XXXXXXXXX",
"XXXXXXXXX              oXXXO        OXXXo                                                                                                                                                                                                              XXXXXXXXX",
"XXXXXXXXX              oXXXO        OXXXXOOOOOOOO.                                                                                                                                                                                                     XXXXXXXXX",
"XXXXXXXXX              oXXXO        OXXXXXXXXXXXXO                                                                                                                                                                                                     XXXXXXXXX",
"XXXXXXXXX              oXXXO        OXXXXXXXXXXXXO                                                                                                                                                                                                     XXXXXXXXX",
"XXXXXXXXX              oXXXO        OXXXXXXXXXXXXO                                                                                                                                                                                                     XXXXXXXXX",
"XXXXXXXXX                                                                                                                                                                                                                                              XXXXXXXXX",
"XXXXXXXXX                                                                                                                                                                                                                                              XXXXXXXXX",
"XXXXXXXXX                                                                                                                                                                                                                                              XXXXXXXXX",
"XXXXXXXXX                                                                                                                                                                                                                                              XXXXXXXXX",
"XXXXXXXXX                                                                                                                                                                                                                                              XXXXXXXXX",
"XXXXXXXXX                                                                                                                                                                                                                                              XXXXXXXXX",
"XXXXXXXXX                                                                                                                                                                                                                                              XXXXXXXXX",
"XXXXXXXXX                                                                                                                                                                                                                                              XXXXXXXXX",
"XXXXXXXXX                                                                                                                                                                                                                                              XXXXXXXXX",
"XXXXXXXXX                                                                                                                                                                                                                                              XXXXXXXXX",
"XXXXXXXXX                                                                                                                                                                                                                                              XXXXXXXXX",
"XXXXXXXXX                                                                                                                                                                                                                                              XXXXXXXXX",
"XXXXXXXXX                                                                                                                                                                                                                                              XXXXXXXXX",
"XXXXXXXXX                                                                                                                                                                                                                                              XXXXXXXXX",
"XXXXXXXXX                                                                                                                                                                                                                                              XXXXXXXXX",
"XXXXXXXXX                                                                                                                                                                                                                                              XXXXXXXXX",
"XXXXXXXXX                                                                                                                                                                                                                                              XXXXXXXXX",
"XXXXXXXXX                                                                                                                                                                                                                                              XXXXXXXXX",
"XXXXXXXXX                                                                                                                                                                                                                                              XXXXXXXXX",
"XXXXXXXXX                                                                                                                                                                                                                                              XXXXXXXXX",
"XXXXXXXXX                                                                                                                                                                                                                                              XXXXXXXXX",
"XXXXXXXXX                                                                                                                                                                                                                                              XXXXXXXXX",
"XXXXXXXXX                                                                                                                                                                                                                                              XXXXXXXXX",
"XXXXXXXXX                                                                                                                                                                                                                                              XXXXXXXXX",
"XXXXXXXXX                                                                                                                                                                                                                                              XXXXXXXXX",
"XXXXXXXXX                                                                                                                                                                                                                                              XXXXXXXXX",
"XXXXXXXXX                                                                                                                                                                                                                                              XXXXXXXXX",
"XXXXXXXXX                                                                                                                                                                                                                                              XXXXXXXXX",
"XXXXXXXXX                                                                                                                                                                                                                                              XXXXXXXXX",
"XXXXXXXXX                                                                                                                                                                                                                                              XXXXXXXXX",
"XXXXXXXXX                                                                                                                                                                                                                                              XXXXXXXXX",
"XXXXXXXXX                                                                                                                                                                                                                                              XXXXXXXXX",
"XXXXXXXXX                                                                                                                                                                                                                                              XXXXXXXXX",
"XXXXXXXXX                                                                                                                                                                                                                                              XXXXXXXXX",
"XXXXXXXXX                                                                                                                                                                                                                                              XXXXXXXXX",
"XXXXXXXXX                                                                                                                                                                                                                                              XXXXXXXXX",
"XXXXXXXXX                                                                                                                                                                                                                                              XXXXXXXXX",
"XXXXXXXXX                                                                                                                                                                                                                                              XXXXXXXXX",
"XXXXXXXXX                                                                                                                                                                                                                                              XXXXXXXXX",
"XXXXXXXXX                                                                                                                                                                                                                                              XXXXXXXXX",
"XXXXXXXXX                                                                                                                                                                                                                                              XXXXXXXXX",
"XXXXXXXXX                                                                                                                                                                                                                                              XXXXXXXXX",
"XXXXXXXXX                                                                                                                                                                                                                                              XXXXXXXXX",
"XXXXXXXXX                                                                                                                                                                                                                                              XXXXXXXXX",
"XXXXXXXXX                                                                                                                                                                                                                                              XXXXXXXXX",
"XXXXXXXXX                                                                                                                                                                                                                                              XXXXXXXXX",
"XXXXXXXXX                                                                                                                                                                                                                                              XXXXXXXXX",
"XXXXXXXXX                                                                                                                                                                                                                                              XXXXXXXXX",
"XXXXXXXXX                                                                                                                                                                                                                                              XXXXXXXXX",
"XXXXXXXXX                                                                                                                                                                                                                                              XXXXXXXXX",
"XXXXXXXXX                                                                                                                                                                                                                                              XXXXXXXXX",
"XXXXXXXXX                                                                                                                                                                                                                                              XXXXXXXXX",
"XXXXXXXXX                                                                                                                                                                                                                                              XXXXXXXXX",
"XXXXXXXXX                                                                                                                                                                                                                                              XXXXXXXXX",
"XXXXXXXXX                                                                                                                                                                                                                                              XXXXXXXXX",
"XXXXXXXXX                                                                                                                                                                                                                                              XXXXXXXXX",
"XXXXXXXXX                                                                                                                                                                                                                                              XXXXXXXXX",
"XXXXXXXXX                                                                                                                                                                                                                                              XXXXXXXXX",
"XXXXXXXXX                                                                                                                                                                                                                                              XXXXXXXXX",
"XXXXXXXXX                                                                                                                                                                                                                                              XXXXXXXXX",
"XXXXXXXXX                                                                                                                                                                                                                                              XXXXXXXXX",
"XXXXXXXXX                                                                                                                                                                                                                                              XXXXXXXXX",
"XXXXXXXXX                                                                                                                                                                                                                                              XXXXXXXXX",
"XXXXXXXXX                                                                                                                                                                                                                                              XXXXXXXXX",
"XXXXXXXXX                                                                                                                                                                                                                                              XXXXXXXXX",
"XXXXXXXXX                                                                                                                                                                                                                                              XXXXXXXXX",
"XXXXXXXXX                                                                                                                                                                                                                                              XXXXXXXXX",
"XXXXXXXXX                                                                                                                                                                                                                                              XXXXXXXXX",
"XXXXXXXXX                                                                                                                                                                                                                                              XXXXXXXXX",
"XXXXXXXXX                                                                                                                                                                                                                                              XXXXXXXXX",
"XXXXXXXXX                                                                                                                                                                                                                                              XXXXXXXXX",
"XXXXXXXXX                                                                                                                                     ..OOOOO..                                                                                                XXXXXXXXX",
"XXXXXXXXX                                               .XXXXXXXXXXXXXXXXXXXXXXXXXXX                  XXXXXXXXXXXO                         .OoXXXXXXXXXXoO            oXXXXXXXXXXXXXXXXXXXXXXXXXXXXXXXXO                                               XXXXXXXXX",
"XXXXXXXXX                                               .XXXXXXXXXXXXXXXXXXXXXXXXXXX                 .XXXXXXXXXXXo                       .oXXXXXXXXXXXXXXXXO          oXXXXXXXXXXXXXXXXXXXXXXXXXXXXXXXXO                                               XXXXXXXXX",
"XXXXXXXXX                                               .XXXXXXXXXXXXXXXXXXXXXXXXXXX                 OXXXXXXXXXXXX.                     oXXXXXXXXXXXXXXXXXXXo.        oXXXXXXXXXXXXXXXXXXXXXXXXXXXXXXXXO                                               XXXXXXXXX",
"XXXXXXXXX                                               .XXXXXXXXXXXXXXXXXXXXXXXXXXX                 XXXXXXXXXXXXXO                   .oXXXXXXXXXXXXXXXXXXXXXX.       oXXXXXXXXXXXXXXXXXXXXXXXXXXXXXXXXO                                               XXXXXXXXX",
"XXXXXXXXX                                               .XXXXXXXXXXXXXXXXXXXXXXXXXXX                .XXXXXXXXXXXXXo                   oXXXXXXXXXXXXXXXXXXXXXXXX.      oXXXXXXXXXXXXXXXXXXXXXXXXXXXXXXXXO                                               XXXXXXXXX",
"XXXXXXXXX                                               .XXXXXXXXXXXXXXXXXXXXXXXXXXX                OXXXXXXXXXXXXXX.                 oXXXXXXXXXXXXXXXXXXXXXXXXXo      oXXXXXXXXXXXXXXXXXXXXXXXXXXXXXXXXO                                               XXXXXXXXX",
"XXXXXXXXX                                               .XXXXXXXXXXXXXXXXXXXXXXXXXXX                XXXXXXXXXXXXXXXO                .XXXXXXXXXXXooOOoXXXXXXXXXXXO     oXXXXXXXXXXXXXXXXXXXXXXXXXXXXXXXXO                                               XXXXXXXXX",
"XXXXXXXXX                                               .XXXXXXXX                                  .XXXXXXXOXXXXXXXo                oXXXXXXXXXO       .oXXXXXXXXX                 .XXXXXXXX.                                                           XXXXXXXXX",
"XXXXXXXXX                                               .XXXXXXXX                                  OXXXXXXX.oXXXXXXX.              .XXXXXXXXX.          oXXXXXXXX.                .XXXXXXXX.                                                           XXXXXXXXX",
"XXXXXXXXX                                               .XXXXXXXX                                  XXXXXXXX OXXXXXXXO              OXXXXXXXXO            XXXXXXXXO                .XXXXXXXX.                                                           XXXXXXXXX",
"XXXXXXXXX                                               .XXXXXXXX                                 .XXXXXXXo .XXXXXXXo              OXXXXXXXX             OXXXXXXXo                .XXXXXXXX.                                                           XXXXXXXXX",
"XXXXXXXXX                                               .XXXXXXXX                                 OXXXXXXXO  XXXXXXXX.             OXXXXXXXX             .oooooooO                .XXXXXXXX.                                                           XXXXXXXXX",
"XXXXXXXXX                                               .XXXXXXXX                                 XXXXXXXX.  oXXXXXXXO             OXXXXXXXX.                                     .XXXXXXXX.                                                           XXXXXXXXX",
"XXXXXXXXX                                               .XXXXXXXX                                .XXXXXXXX   OXXXXXXXX             OXXXXXXXXo                                     .XXXXXXXX.                                                           XXXXXXXXX",
"XXXXXXXXX                                               .XXXXXXXX                                oXXXXXXXo   .XXXXXXXX.            .XXXXXXXXXo                                    .XXXXXXXX.                                                           XXXXXXXXX",
"XXXXXXXXX                                               .XXXXXXXX                                XXXXXXXXO    XXXXXXXXO             XXXXXXXXXXXO.                                 .XXXXXXXX.                                                           XXXXXXXXX",
"XXXXXXXXX                                               .XXXXXXXX                               .XXXXXXXX.    oXXXXXXXX             OXXXXXXXXXXXXXO.                              .XXXXXXXX.                                                           XXXXXXXXX",
"XXXXXXXXX                                               .XXXXXXXXXXXXXXXXXXXXXXXXXO             oXXXXXXXX     OXXXXXXXX.             XXXXXXXXXXXXXXXXoO.                          .XXXXXXXX.                                                           XXXXXXXXX",
"XXXXXXXXX                                               .XXXXXXXXXXXXXXXXXXXXXXXXXO             XXXXXXXXO     .XXXXXXXXo             .XXXXXXXXXXXXXXXXXXXo.                       .XXXXXXXX.                                                           XXXXXXXXX",
"XXXXXXXXX                                               .XXXXXXXXXXXXXXXXXXXXXXXXXO            .XXXXXXXXO      oXXXXXXXX              .oXXXXXXXXXXXXXXXXXXXo.                     .XXXXXXXX.                                                           XXXXXXXXX",
"XXXXXXXXX                                               .XXXXXXXXXXXXXXXXXXXXXXXXXO            oXXXXXXXX       OXXXXXXXXO               OXXXXXXXXXXXXXXXXXXXXo                    .XXXXXXXX.                                                           XXXXXXXXX",
"XXXXXXXXX                                               .XXXXXXXXXXXXXXXXXXXXXXXXXO            XXXXXXXXo       .XXXXXXXXo                .OXXXXXXXXXXXXXXXXXXXo.                  .XXXXXXXX.                                                           XXXXXXXXX",
"XXXXXXXXX                                               .XXXXXXXXXXXXXXXXXXXXXXXXXO           OXXXXXXXXO        XXXXXXXXX                   OoXXXXXXXXXXXXXXXXXo.                 .XXXXXXXX.                                                           XXXXXXXXX",
"XXXXXXXXX                                               .XXXXXXXXoooooooooooooooooO           oXXXXXXXX.        OXXXXXXXXO                     .OoXXXXXXXXXXXXXXo                 .XXXXXXXX.                                                           XXXXXXXXX",
"XXXXXXXXX                                               .XXXXXXXX                             XXXXXXXXo         .XXXXXXXXo                         .OoXXXXXXXXXXX.                .XXXXXXXX.                                                           XXXXXXXXX",
"XXXXXXXXX                                               .XXXXXXXX                            OXXXXXXXXXXXXXXXXXXXXXXXXXXXX.                           .oXXXXXXXXXo                .XXXXXXXX.                                                           XXXXXXXXX",
"XXXXXXXXX                                               .XXXXXXXX                            oXXXXXXXXXXXXXXXXXXXXXXXXXXXXO                             OXXXXXXXXX                .XXXXXXXX.                                                           XXXXXXXXX",
"XXXXXXXXX                                               .XXXXXXXX                            XXXXXXXXXXXXXXXXXXXXXXXXXXXXXo                              OXXXXXXXX.               .XXXXXXXX.                                                           XXXXXXXXX",
"XXXXXXXXX                                               .XXXXXXXX                           OXXXXXXXXXXXXXXXXXXXXXXXXXXXXXX.      OoooooooO              .XXXXXXXX.               .XXXXXXXX.                                                           XXXXXXXXX",
"XXXXXXXXX                                               .XXXXXXXX                           oXXXXXXXXXXXXXXXXXXXXXXXXXXXXXXO      OXXXXXXXo              .XXXXXXXX.               .XXXXXXXX.                                                           XXXXXXXXX",
"XXXXXXXXX                                               .XXXXXXXX                          .XXXXXXXXXXXXXXXXXXXXXXXXXXXXXXXo      OXXXXXXXX              .XXXXXXXX.               .XXXXXXXX.                                                           XXXXXXXXX",
"XXXXXXXXX                                               .XXXXXXXX                          OXXXXXXXXXOOOOOOOOOOOOOOXXXXXXXXX.     .XXXXXXXXO             oXXXXXXXX.               .XXXXXXXX.                                                           XXXXXXXXX",
"XXXXXXXXX                                               .XXXXXXXX                          oXXXXXXXX.              OXXXXXXXXO      XXXXXXXXXO           OXXXXXXXXX                .XXXXXXXX.                                                           XXXXXXXXX",
"XXXXXXXXX                                               .XXXXXXXX                         .XXXXXXXXX               .XXXXXXXXo      oXXXXXXXXXo.       .oXXXXXXXXXO                .XXXXXXXX.                                                           XXXXXXXXX",
"XXXXXXXXX                                               .XXXXXXXXXXXXXXXXXXXXXXXXXXX      OXXXXXXXXo                XXXXXXXXX.     .XXXXXXXXXXXXooOooXXXXXXXXXXXX.                .XXXXXXXX.                                                           XXXXXXXXX",
"XXXXXXXXX                                               .XXXXXXXXXXXXXXXXXXXXXXXXXXX      oXXXXXXXX.                OXXXXXXXXO      OXXXXXXXXXXXXXXXXXXXXXXXXXXXO                 .XXXXXXXX.                                                           XXXXXXXXX",
"XXXXXXXXX                                               .XXXXXXXXXXXXXXXXXXXXXXXXXXX     .XXXXXXXXX                 .XXXXXXXXX       oXXXXXXXXXXXXXXXXXXXXXXXXXo                  .XXXXXXXX.                                                           XXXXXXXXX",
"XXXXXXXXX                                               .XXXXXXXXXXXXXXXXXXXXXXXXXXX     OXXXXXXXXo                  XXXXXXXXX.       oXXXXXXXXXXXXXXXXXXXXXXXo.                  .XXXXXXXX.                                                           XXXXXXXXX",
"XXXXXXXXX                                               .XXXXXXXXXXXXXXXXXXXXXXXXXXX     oXXXXXXXXO                  OXXXXXXXXO        OXXXXXXXXXXXXXXXXXXXXXo                    .XXXXXXXX.                                                           XXXXXXXXX",
"XXXXXXXXX                                               .XXXXXXXXXXXXXXXXXXXXXXXXXXX    .XXXXXXXXX                   .XXXXXXXXX         .oXXXXXXXXXXXXXXXXXo.                     .XXXXXXXX.                                                           XXXXXXXXX",
"XXXXXXXXX                                               .XXXXXXXXXXXXXXXXXXXXXXXXXXX    OXXXXXXXXo                    XXXXXXXXX.          .OoXXXXXXXXXXXoO.                       .XXXXXXXX.                                                           XXXXXXXXX",
"XXXXXXXXX                                                                                                                                     ..OOOOO..                                                                                                XXXXXXXXX",
"XXXXXXXXX                                                                                                                                                                                                                                              XXXXXXXXX",
"XXXXXXXXX                                                                                                                                                                                                                                              XXXXXXXXX",
"XXXXXXXXX                                                                                                                                                                                                                                              XXXXXXXXX",
"XXXXXXXXX                                                                                                                                                                                                                                              XXXXXXXXX",
"XXXXXXXXX                                                                                                                                                                                                                                              XXXXXXXXX",
"XXXXXXXXX                                                                                                                                                                                                                                              XXXXXXXXX",
"XXXXXXXXX                                                                                                                                                                                                                                              XXXXXXXXX",
"XXXXXXXXX                                                                                                                                                                                                                                              XXXXXXXXX",
"XXXXXXXXX                                                                                                                                                                                                                                              XXXXXXXXX",
"XXXXXXXXX                                                                                                                                                                                                                                              XXXXXXXXX",
"XXXXXXXXX                                                                                                                                                                                                                                              XXXXXXXXX",
"XXXXXXXXX                                                                                                                                                                                                                                              XXXXXXXXX",
"XXXXXXXXX                                                                                                                                                                                                                                              XXXXXXXXX",
"XXXXXXXXX                                                                                                                                                                                                                                              XXXXXXXXX",
"XXXXXXXXX                                                                                                                                                                                                                                              XXXXXXXXX",
"XXXXXXXXX                                                                                                                                                                                                                                              XXXXXXXXX",
"XXXXXXXXX                                                                                                                                                                                                                                              XXXXXXXXX",
"XXXXXXXXX                                                                                                                                                                                                                                              XXXXXXXXX",
"XXXXXXXXX                                                                                                                                                                                                                                              XXXXXXXXX",
"XXXXXXXXX                                                                                                                                                                                                                                              XXXXXXXXX",
"XXXXXXXXX                                                                                                                                                                                                                                              XXXXXXXXX",
"XXXXXXXXX                                                                                                                                                                                                                                              XXXXXXXXX",
"XXXXXXXXX                                                                                                                                                                                                                                              XXXXXXXXX",
"XXXXXXXXX                                                                                                                                                                                                                                              XXXXXXXXX",
"XXXXXXXXX                                                                                                                                                                                                                                              XXXXXXXXX",
"XXXXXXXXX                                                                                                                                                                                                                                              XXXXXXXXX",
"XXXXXXXXX                                                                                                                                                                                                                                              XXXXXXXXX",
"XXXXXXXXX                                                                                                                                                                                                                                              XXXXXXXXX",
"XXXXXXXXX                                                                                                                                                                                                                                              XXXXXXXXX",
"XXXXXXXXX                                                                                                                                                                                                                                              XXXXXXXXX",
"XXXXXXXXX                                                                                                                                                                                                                                              XXXXXXXXX",
"XXXXXXXXX                                                                                                                                                                                                                                              XXXXXXXXX",
"XXXXXXXXX                                                                                                                                                                                                                                              XXXXXXXXX",
"XXXXXXXXX                                                                                                                                                                                                                                              XXXXXXXXX",
"XXXXXXXXX                                                                                                                                                                                                                                              XXXXXXXXX",
"XXXXXXXXX                                                                                                                                                                                                                                              XXXXXXXXX",
"XXXXXXXXX                                                                                                                                                                                                                                              XXXXXXXXX",
"XXXXXXXXX                                                                                                                                                                                                                                              XXXXXXXXX",
"XXXXXXXXX                                                                                                                                                                                                                                              XXXXXXXXX",
"XXXXXXXXX                                                                                                                                                                                                                                              XXXXXXXXX",
"XXXXXXXXX                                                                                                                                                                                                                                              XXXXXXXXX",
"XXXXXXXXX                                                                                                                                                                                                                                              XXXXXXXXX",
"XXXXXXXXX                                                                                                                                                                                                                                              XXXXXXXXX",
"XXXXXXXXX                                                                                                                                                                                                                                              XXXXXXXXX",
"XXXXXXXXX                                                                                                                                                                                                                                              XXXXXXXXX",
"XXXXXXXXX                                                                                                                                                                                                                                              XXXXXXXXX",
"XXXXXXXXX                                                                                                                                                                                                                                              XXXXXXXXX",
"XXXXXXXXX                                                                                                                                                                                                                                              XXXXXXXXX",
"XXXXXXXXX                                                                                                                                                                                                                                              XXXXXXXXX",
"XXXXXXXXX                                                                                                                                                                                                                                              XXXXXXXXX",
"XXXXXXXXX                                                                                                                                                                                                                                              XXXXXXXXX",
"XXXXXXXXX                                                                                                                                                                                                                                              XXXXXXXXX",
"XXXXXXXXX                                                                                                                                                                                                                                              XXXXXXXXX",
"XXXXXXXXX                                                                                                                                                                                                                                              XXXXXXXXX",
"XXXXXXXXX                                                                                                                                                                                                                                              XXXXXXXXX",
"XXXXXXXXX                                                                                                                                                                                                                                              XXXXXXXXX",
"XXXXXXXXX                                                                                                                                                                                                                                              XXXXXXXXX",
"XXXXXXXXX                                                                                                                                                                                                                                              XXXXXXXXX",
"XXXXXXXXX                                                                                                                                                                                                                                              XXXXXXXXX",
"XXXXXXXXX                                                                                                                                                                                                                                              XXXXXXXXX",
"XXXXXXXXX                                                                                                                                                                                                                                              XXXXXXXXX",
"XXXXXXXXX                                                                                                                                                                                                                                              XXXXXXXXX",
"XXXXXXXXX                                                                                                                                                                                                                                              XXXXXXXXX",
"XXXXXXXXX                                                                                                                                                                                                                                              XXXXXXXXX",
"XXXXXXXXX                                                                                                                                                                                                                                              XXXXXXXXX",
"XXXXXXXXX                                                                                                                                                                                                  .XXXXXXXXXoo.      OXXXXXXXXXoO             XXXXXXXXX",
"XXXXXXXXX                                                                                                                                                                                                  .XXXXXXXXXXXXo     OXXXXXXXXXXXX.           XXXXXXXXX",
"XXXXXXXXX                                                                                                                                                                                                  .XXXXXXXXXXXXXo    OXXXXXXXXXXXXX.          XXXXXXXXX",
"XXXXXXXXX                                                                                                                                                                                                  .XXXXOOOOoXXXXX.   OXXXoOOOoXXXXXo          XXXXXXXXX",
"XXXXXXXXX                                                                                                                                                                                                  .XXXX     .XXXXO   OXXXO     OXXXX.         XXXXXXXXX",
"XXXXXXXXX                                                                                                                                                                                                  .XXXX      oXXXO   OXXXO      XXXXO         XXXXXXXXX",
"XXXXXXXXX                                                                                                                                                                                                  .XXXX      OXXXO   OXXXO      oXXXO         XXXXXXXXX",
"XXXXXXXXX                                                                                                                                                                                                  .XXXX      XXXX.   OXXXO      oXXXO         XXXXXXXXX",
"XXXXXXXXX                                                                                                                                                                                                  .XXXX    .oXXXO    OXXXO     .XXXXO         XXXXXXXXX",
"XXXXXXXXX                                                                                                                                                                                                  .XXXXXXXXXXXXO     OXXXO    .oXXXX.         XXXXXXXXX",
"XXXXXXXXX                                                                                                                                                                                                  .XXXXXXXXXXXO.     OXXXXXXXXXXXXXO          XXXXXXXXX",
"XXXXXXXXX                                                                                                                                                                                                  .XXXXXXXXXXXXXo    OXXXXXXXXXXXXo           XXXXXXXXX",
"XXXXXXXXX                                                                                                                                                                                                  .XXXX     OXXXXo   OXXXXXXXXXXXO            XXXXXXXXX",
"XXXXXXXXX                                                                                                                                                                                                  .XXXX      .XXXX.  OXXXXOOoXXXXO            XXXXXXXXX",
"XXXXXXXXX                                                                                                                                                                                                  .XXXX       XXXXO  OXXXO   oXXXX            XXXXXXXXX",
"XXXXXXXXX                                                                                                                                                                                                  .XXXX       XXXXO  OXXXO   .XXXXO           XXXXXXXXX",
"XXXXXXXXX                                                                                                                                                                                                  .XXXX      OXXXX.  OXXXO    OXXXX           XXXXXXXXX",
"XXXXXXXXX                                                                                                                                                                                                  .XXXXOOOOooXXXXX   OXXXO    .XXXXO          XXXXXXXXX",
"XXXXXXXXX                                                                                                                                                                                                  .XXXXXXXXXXXXXXO   OXXXO     OXXXX          XXXXXXXXX",
"XXXXXXXXX                                                                                                                                                                                                  .XXXXXXXXXXXXXO    OXXXO     .XXXXO         XXXXXXXXX",
"XXXXXXXXX                                                                                                                                                                                                  .XXXXXXXXXXoO.     OXXXO      OXXXX.        XXXXXXXXX",
"XXXXXXXXX                                                                                                                                                                                                                                              XXXXXXXXX",
"XXXXXXXXX                                                                                                                                                                                                                                              XXXXXXXXX",
"XXXXXXXXX                                                                                                                                                                                                                                              XXXXXXXXX",
"XXXXXXXXX                                                                                                                                                                                                                                              XXXXXXXXX",
"XXXXXXXXX                                                                                                                                                                                                                                              XXXXXXXXX",
"XXXXXXXXX                                                                                                                                                                                                                                              XXXXXXXXX",
"XXXXXXXXX                                                                                                                                                                                                                                              XXXXXXXXX",
"XXXXXXXXX                                                                                                                                                                                                                                              XXXXXXXXX",
"XXXXXXXXX                                                                                                                                                                                                                                              XXXXXXXXX",
"XXXXXXXXX                                                                                                                                                                                                                                              XXXXXXXXX",
"XXXXXXXXX                                                                                                                                                                                                                                              XXXXXXXXX",
"XXXXXXXXX                                                                                                                                                                                                                                              XXXXXXXXX",
"XXXXXXXXXXXXXXXXXXXXXXXXXXXXXXXXXXXXXXXXXXXXXXXXXXXXXXXXXXXXXXXXXXXXXXXXXXXXXXXXXXXXXXXXXXXXXXXXXXXXXXXXXXXXXXXXXXXXXXXXXXXXXXXXXXXXXXXXXXXXXXXXXXXXXXXXXXXXXXXXXXXXXXXXXXXXXXXXXXXXXXXXXXXXXXXXXXXXXXXXXXXXXXXXXXXXXXXXXXXXXXXXXXXXXXXXXXXXXXXXXXXXXXXXXXXXXXXX",
"XXXXXXXXXXXXXXXXXXXXXXXXXXXXXXXXXXXXXXXXXXXXXXXXXXXXXXXXXXXXXXXXXXXXXXXXXXXXXXXXXXXXXXXXXXXXXXXXXXXXXXXXXXXXXXXXXXXXXXXXXXXXXXXXXXXXXXXXXXXXXXXXXXXXXXXXXXXXXXXXXXXXXXXXXXXXXXXXXXXXXXXXXXXXXXXXXXXXXXXXXXXXXXXXXXXXXXXXXXXXXXXXXXXXXXXXXXXXXXXXXXXXXXXXXXXXXXXX",
"XXXXXXXXXXXXXXXXXXXXXXXXXXXXXXXXXXXXXXXXXXXXXXXXXXXXXXXXXXXXXXXXXXXXXXXXXXXXXXXXXXXXXXXXXXXXXXXXXXXXXXXXXXXXXXXXXXXXXXXXXXXXXXXXXXXXXXXXXXXXXXXXXXXXXXXXXXXXXXXXXXXXXXXXXXXXXXXXXXXXXXXXXXXXXXXXXXXXXXXXXXXXXXXXXXXXXXXXXXXXXXXXXXXXXXXXXXXXXXXXXXXXXXXXXXXXXXXX",
"XXXXXXXXXXXXXXXXXXXXXXXXXXXXXXXXXXXXXXXXXXXXXXXXXXXXXXXXXXXXXXXXXXXXXXXXXXXXXXXXXXXXXXXXXXXXXXXXXXXXXXXXXXXXXXXXXXXXXXXXXXXXXXXXXXXXXXXXXXXXXXXXXXXXXXXXXXXXXXXXXXXXXXXXXXXXXXXXXXXXXXXXXXXXXXXXXXXXXXXXXXXXXXXXXXXXXXXXXXXXXXXXXXXXXXXXXXXXXXXXXXXXXXXXXXXXXXXX",
"XXXXXXXXXXXXXXXXXXXXXXXXXXXXXXXXXXXXXXXXXXXXXXXXXXXXXXXXXXXXXXXXXXXXXXXXXXXXXXXXXXXXXXXXXXXXXXXXXXXXXXXXXXXXXXXXXXXXXXXXXXXXXXXXXXXXXXXXXXXXXXXXXXXXXXXXXXXXXXXXXXXXXXXXXXXXXXXXXXXXXXXXXXXXXXXXXXXXXXXXXXXXXXXXXXXXXXXXXXXXXXXXXXXXXXXXXXXXXXXXXXXXXXXXXXXXXXXX",
"XXXXXXXXXXXXXXXXXXXXXXXXXXXXXXXXXXXXXXXXXXXXXXXXXXXXXXXXXXXXXXXXXXXXXXXXXXXXXXXXXXXXXXXXXXXXXXXXXXXXXXXXXXXXXXXXXXXXXXXXXXXXXXXXXXXXXXXXXXXXXXXXXXXXXXXXXXXXXXXXXXXXXXXXXXXXXXXXXXXXXXXXXXXXXXXXXXXXXXXXXXXXXXXXXXXXXXXXXXXXXXXXXXXXXXXXXXXXXXXXXXXXXXXXXXXXXXXX",
"XXXXXXXXXXXXXXXXXXXXXXXXXXXXXXXXXXXXXXXXXXXXXXXXXXXXXXXXXXXXXXXXXXXXXXXXXXXXXXXXXXXXXXXXXXXXXXXXXXXXXXXXXXXXXXXXXXXXXXXXXXXXXXXXXXXXXXXXXXXXXXXXXXXXXXXXXXXXXXXXXXXXXXXXXXXXXXXXXXXXXXXXXXXXXXXXXXXXXXXXXXXXXXXXXXXXXXXXXXXXXXXXXXXXXXXXXXXXXXXXXXXXXXXXXXXXXXXX",
"XXXXXXXXXXXXXXXXXXXXXXXXXXXXXXXXXXXXXXXXXXXXXXXXXXXXXXXXXXXXXXXXXXXXXXXXXXXXXXXXXXXXXXXXXXXXXXXXXXXXXXXXXXXXXXXXXXXXXXXXXXXXXXXXXXXXXXXXXXXXXXXXXXXXXXXXXXXXXXXXXXXXXXXXXXXXXXXXXXXXXXXXXXXXXXXXXXXXXXXXXXXXXXXXXXXXXXXXXXXXXXXXXXXXXXXXXXXXXXXXXXXXXXXXXXXXXXXX",
"XXXXXXXXXXXXXXXXXXXXXXXXXXXXXXXXXXXXXXXXXXXXXXXXXXXXXXXXXXXXXXXXXXXXXXXXXXXXXXXXXXXXXXXXXXXXXXXXXXXXXXXXXXXXXXXXXXXXXXXXXXXXXXXXXXXXXXXXXXXXXXXXXXXXXXXXXXXXXXXXXXXXXXXXXXXXXXXXXXXXXXXXXXXXXXXXXXXXXXXXXXXXXXXXXXXXXXXXXXXXXXXXXXXXXXXXXXXXXXXXXXXXXXXXXXXXXXXX"
};
