/* XPM */
static char *north[] = {
/* columns rows colors chars-per-pixel */
"256 256 5 1 ",
"  c #BF4040",
". c #CA6161",
"X c #FFFFFF",
"o c #EFCECE",
"O c #E0A2A2",
/* pixels */
"XXXXXXXXXXXXXXXXXXXXXXXXXXXXXXXXXXXXXXXXXXXXXXXXXXXXXXXXXXXXXXXXXXXXXXXXXXXXXXXXXXXXXXXXXXXXXXXXXXXXXXXXXXXXXXXXXXXXXXXXXXXXXXXXXXXXXXXXXXXXXXXXXXXXXXXXXXXXXXXXXXXXXXXXXXXXXXXXXXXXXXXXXXXXXXXXXXXXXXXXXXXXXXXXXXXXXXXXXXXXXXXXXXXXXXXXXXXXXXXXXXXXXXXXXXXXXXXX",
"XXXXXXXXXXXXXXXXXXXXXXXXXXXXXXXXXXXXXXXXXXXXXXXXXXXXXXXXXXXXXXXXXXXXXXXXXXXXXXXXXXXXXXXXXXXXXXXXXXXXXXXXXXXXXXXXXXXXXXXXXXXXXXXXXXXXXXXXXXXXXXXXXXXXXXXXXXXXXXXXXXXXXXXXXXXXXXXXXXXXXXXXXXXXXXXXXXXXXXXXXXXXXXXXXXXXXXXXXXXXXXXXXXXXXXXXXXXXXXXXXXXXXXXXXXXXXXXX",
"XXXXXXXXXXXXXXXXXXXXXXXXXXXXXXXXXXXXXXXXXXXXXXXXXXXXXXXXXXXXXXXXXXXXXXXXXXXXXXXXXXXXXXXXXXXXXXXXXXXXXXXXXXXXXXXXXXXXXXXXXXXXXXXXXXXXXXXXXXXXXXXXXXXXXXXXXXXXXXXXXXXXXXXXXXXXXXXXXXXXXXXXXXXXXXXXXXXXXXXXXXXXXXXXXXXXXXXXXXXXXXXXXXXXXXXXXXXXXXXXXXXXXXXXXXXXXXXX",
"XXXXXXXXXXXXXXXXXXXXXXXXXXXXXXXXXXXXXXXXXXXXXXXXXXXXXXXXXXXXXXXXXXXXXXXXXXXXXXXXXXXXXXXXXXXXXXXXXXXXXXXXXXXXXXXXXXXXXXXXXXXXXXXXXXXXXXXXXXXXXXXXXXXXXXXXXXXXXXXXXXXXXXXXXXXXXXXXXXXXXXXXXXXXXXXXXXXXXXXXXXXXXXXXXXXXXXXXXXXXXXXXXXXXXXXXXXXXXXXXXXXXXXXXXXXXXXXX",
"XXXXXXXXXXXXXXXXXXXXXXXXXXXXXXXXXXXXXXXXXXXXXXXXXXXXXXXXXXXXXXXXXXXXXXXXXXXXXXXXXXXXXXXXXXXXXXXXXXXXXXXXXXXXXXXXXXXXXXXXXXXXXXXXXXXXXXXXXXXXXXXXXXXXXXXXXXXXXXXXXXXXXXXXXXXXXXXXXXXXXXXXXXXXXXXXXXXXXXXXXXXXXXXXXXXXXXXXXXXXXXXXXXXXXXXXXXXXXXXXXXXXXXXXXXXXXXXX",
"XXXXXXXXXXXXXXXXXXXXXXXXXXXXXXXXXXXXXXXXXXXXXXXXXXXXXXXXXXXXXXXXXXXXXXXXXXXXXXXXXXXXXXXXXXXXXXXXXXXXXXXXXXXXXXXXXXXXXXXXXXXXXXXXXXXXXXXXXXXXXXXXXXXXXXXXXXXXXXXXXXXXXXXXXXXXXXXXXXXXXXXXXXXXXXXXXXXXXXXXXXXXXXXXXXXXXXXXXXXXXXXXXXXXXXXXXXXXXXXXXXXXXXXXXXXXXXXX",
"XXXXXXXXXXXXXXXXXXXXXXXXXXXXXXXXXXXXXXXXXXXXXXXXXXXXXXXXXXXXXXXXXXXXXXXXXXXXXXXXXXXXXXXXXXXXXXXXXXXXXXXXXXXXXXXXXXXXXXXXXXXXXXXXXXXXXXXXXXXXXXXXXXXXXXXXXXXXXXXXXXXXXXXXXXXXXXXXXXXXXXXXXXXXXXXXXXXXXXXXXXXXXXXXXXXXXXXXXXXXXXXXXXXXXXXXXXXXXXXXXXXXXXXXXXXXXXXX",
"XXXXXXXXXXXXXXXXXXXXXXXXXXXXXXXXXXXXXXXXXXXXXXXXXXXXXXXXXXXXXXXXXXXXXXXXXXXXXXXXXXXXXXXXXXXXXXXXXXXXXXXXXXXXXXXXXXXXXXXXXXXXXXXXXXXXXXXXXXXXXXXXXXXXXXXXXXXXXXXXXXXXXXXXXXXXXXXXXXXXXXXXXXXXXXXXXXXXXXXXXXXXXXXXXXXXXXXXXXXXXXXXXXXXXXXXXXXXXXXXXXXXXXXXXXXXXXXX",
"XXXXXXXXXXXXXXXXXXXXXXXXXXXXXXXXXXXXXXXXXXXXXXXXXXXXXXXXXXXXXXXXXXXXXXXXXXXXXXXXXXXXXXXXXXXXXXXXXXXXXXXXXXXXXXXXXXXXXXXXXXXXXXXXXXXXXXXXXXXXXXXXXXXXXXXXXXXXXXXXXXXXXXXXXXXXXXXXXXXXXXXXXXXXXXXXXXXXXXXXXXXXXXXXXXXXXXXXXXXXXXXXXXXXXXXXXXXXXXXXXXXXXXXXXXXXXXXX",
"XXXXXXXXX                                                                                                                                                                                                                                              XXXXXXXXX",
"XXXXXXXXX                                                                                                                                                                                                                                              XXXXXXXXX",
"XXXXXXXXX                                                                                                                                                                                                                                              XXXXXXXXX",
"XXXXXXXXX                                                                                                                                                                                                                                              XXXXXXXXX",
"XXXXXXXXX                                                                                                                                                                                                                                              XXXXXXXXX",
"XXXXXXXXX        XXXXXXXXXXXXXXXXo  OXXXo                                                                                                                                                                                                              XXXXXXXXX",
"XXXXXXXXX        XXXXXXXXXXXXXXXXo  OXXXo                                                                                                                                                                                                              XXXXXXXXX",
"XXXXXXXXX        XXXXXXXXXXXXXXXXo  OXXXo                                                                                                                                                                                                              XXXXXXXXX",
"XXXXXXXXX        OOOOOOXXXXoOOOOOO  OXXXo                                                                                                                                                                                                              XXXXXXXXX",
"XXXXXXXXX              oXXXO        OXXXo                                                                                                                                                                                                              XXXXXXXXX",
"XXXXXXXXX              oXXXO        OXXXo                                                                                                                                                                                                              XXXXXXXXX",
"XXXXXXXXX              oXXXO        OXXXo                                                                                                                                                                                                              XXXXXXXXX",
"XXXXXXXXX              oXXXO        OXXXo                                                                                                                                                                                                              XXXXXXXXX",
"XXXXXXXXX              oXXXO        OXXXo                                                                                                                                                                                                              XXXXXXXXX",
"XXXXXXXXX              oXXXO        OXXXo                                                                                                                                                                                                              XXXXXXXXX",
"XXXXXXXXX              oXXXO        OXXXo                                                                                                                                                                                                              XXXXXXXXX",
"XXXXXXXXX              oXXXO        OXXXo                                                                                                                                                                                                              XXXXXXXXX",
"XXXXXXXXX              oXXXO        OXXXo                                                                                                                                                                                                              XXXXXXXXX",
"XXXXXXXXX              oXXXO        OXXXo                                                                                                                                                                                                              XXXXXXXXX",
"XXXXXXXXX              oXXXO        OXXXo                                                                                                                                                                                                              XXXXXXXXX",
"XXXXXXXXX              oXXXO        OXXXo                                                                                                                                                                                                              XXXXXXXXX",
"XXXXXXXXX              oXXXO        OXXXo                                                                                                                                                                                                              XXXXXXXXX",
"XXXXXXXXX              oXXXO        OXXXXOOOOOOOO.                                                                                                                                                                                                     XXXXXXXXX",
"XXXXXXXXX              oXXXO        OXXXXXXXXXXXXO                                                                                                                                                                                                     XXXXXXXXX",
"XXXXXXXXX              oXXXO        OXXXXXXXXXXXXO                                                                                                                                                                                                     XXXXXXXXX",
"XXXXXXXXX              oXXXO        OXXXXXXXXXXXXO                                                                                                                                                                                                     XXXXXXXXX",
"XXXXXXXXX                                                                                                                                                                                                                                              XXXXXXXXX",
"XXXXXXXXX                                                                                                                                                                                                                                              XXXXXXXXX",
"XXXXXXXXX                                                                                                                                                                                                                                              XXXXXXXXX",
"XXXXXXXXX                                                                                                                                                                                                                                              XXXXXXXXX",
"XXXXXXXXX                                                                                                                                                                                                                                              XXXXXXXXX",
"XXXXXXXXX                                                                                                                                                                                                                                              XXXXXXXXX",
"XXXXXXXXX                                                                                                                                                                                                                                              XXXXXXXXX",
"XXXXXXXXX                                                                                                                                                                                                                                              XXXXXXXXX",
"XXXXXXXXX                                                                                                                                                                                                                                              XXXXXXXXX",
"XXXXXXXXX                                                                                                                                                                                                                                              XXXXXXXXX",
"XXXXXXXXX                                                                                                                                                                                                                                              XXXXXXXXX",
"XXXXXXXXX                                                                                                                                                                                                                                              XXXXXXXXX",
"XXXXXXXXX                                                                                                                                                                                                                                              XXXXXXXXX",
"XXXXXXXXX                                                                                                                                                                                                                                              XXXXXXXXX",
"XXXXXXXXX                                                                                                                                                                                                                                              XXXXXXXXX",
"XXXXXXXXX                                                                                                                                                                                                                                              XXXXXXXXX",
"XXXXXXXXX                                                                                                                                                                                                                                              XXXXXXXXX",
"XXXXXXXXX                                                                                                                                                                                                                                              XXXXXXXXX",
"XXXXXXXXX                                                                                                                                                                                                                                              XXXXXXXXX",
"XXXXXXXXX                                                                                                                                                                                                                                              XXXXXXXXX",
"XXXXXXXXX                                                                                                                                                                                                                                              XXXXXXXXX",
"XXXXXXXXX                                                                                                                                                                                                                                              XXXXXXXXX",
"XXXXXXXXX                                                                                                                                                                                                                                              XXXXXXXXX",
"XXXXXXXXX                                                                                                                                                                                                                                              XXXXXXXXX",
"XXXXXXXXX                                                                                                                                                                                                                                              XXXXXXXXX",
"XXXXXXXXX                                                                                                                                                                                                                                              XXXXXXXXX",
"XXXXXXXXX                                                                                                                                                                                                                                              XXXXXXXXX",
"XXXXXXXXX                                                                                                                                                                                                                                              XXXXXXXXX",
"XXXXXXXXX                                                                                                                                                                                                                                              XXXXXXXXX",
"XXXXXXXXX                                                                                                                                                                                                                                              XXXXXXXXX",
"XXXXXXXXX                                                                                                                                                                                                                                              XXXXXXXXX",
"XXXXXXXXX                                                                                                                                                                                                                                              XXXXXXXXX",
"XXXXXXXXX                                                                                                                                                                                                                                              XXXXXXXXX",
"XXXXXXXXX                                                                                                                                                                                                                                              XXXXXXXXX",
"XXXXXXXXX                                                                                                                                                                                                                                              XXXXXXXXX",
"XXXXXXXXX                                                                                                                                                                                                                                              XXXXXXXXX",
"XXXXXXXXX                                                                                                                                                                                                                                              XXXXXXXXX",
"XXXXXXXXX                                                                                                                                                                                                                                              XXXXXXXXX",
"XXXXXXXXX                                                                                                                                                                                                                                              XXXXXXXXX",
"XXXXXXXXX                                                                                                                                                                                                                                              XXXXXXXXX",
"XXXXXXXXX                                                                                                                                                                                                                                              XXXXXXXXX",
"XXXXXXXXX                                                                                                                                                                                                                                              XXXXXXXXX",
"XXXXXXXXX                                                                                                                                                                                                                                              XXXXXXXXX",
"XXXXXXXXX                                                                                                                                                                                                                                              XXXXXXXXX",
"XXXXXXXXX                                                                                                                                                                                                                                              XXXXXXXXX",
"XXXXXXXXX                                                                                                                                                                                                                                              XXXXXXXXX",
"XXXXXXXXX                                                                                                                                                                                                                                              XXXXXXXXX",
"XXXXXXXXX                                                                                                                                                                                                                                              XXXXXXXXX",
"XXXXXXXXX                                                                                                                                                                                                                                              XXXXXXXXX",
"XXXXXXXXX                                                                                                                                                                                                                                              XXXXXXXXX",
"XXXXXXXXX                                                                                                                                                                                                                                              XXXXXXXXX",
"XXXXXXXXX                                                                                                                                                                                                                                              XXXXXXXXX",
"XXXXXXXXX                                                                                                                                                                                                                                              XXXXXXXXX",
"XXXXXXXXX                                                                                                                                                                                                                                              XXXXXXXXX",
"XXXXXXXXX                                                                                                                                                                                                                                              XXXXXXXXX",
"XXXXXXXXX                                                                                                                                                                                                                                              XXXXXXXXX",
"XXXXXXXXX                                                                                                                                                                                                                                              XXXXXXXXX",
"XXXXXXXXX                                                                                                                                                                                                                                              XXXXXXXXX",
"XXXXXXXXX                                                                                                                                                                                                                                              XXXXXXXXX",
"XXXXXXXXX                                                                                                                                                                                                                                              XXXXXXXXX",
"XXXXXXXXX                                                                                                                                                                                                                                              XXXXXXXXX",
"XXXXXXXXX                                                                                                                                                                                                                                              XXXXXXXXX",
"XXXXXXXXX                                                                                                                                                                                                                                              XXXXXXXXX",
"XXXXXXXXX                                                                                                                                                                                                                                              XXXXXXXXX",
"XXXXXXXXX                                                                                                                                                                                                                                              XXXXXXXXX",
"XXXXXXXXX                                                                                                                                                                                                                                              XXXXXXXXX",
"XXXXXXXXX                                                                                                                                                                                                                                              XXXXXXXXX",
"XXXXXXXXX                                                                                                                                                                                                                                              XXXXXXXXX",
"XXXXXXXXX                                                                                                                                                                                                                                              XXXXXXXXX",
"XXXXXXXXX                                                                                                                                                                                                                                              XXXXXXXXX",
"XXXXXXXXX                                                                                                                                                                                                                                              XXXXXXXXX",
"XXXXXXXXX                                                                              ..OOOOO.                                                                                                                                                        XXXXXXXXX",
"XXXXXXXXX                     .XXXXXXXXX.                OXXXXXXXX                  OoXXXXXXXXXXoO.                 OXXXXXXXXXXXXXXXXXXoOO             OXXXXXXXXXXXXXXXXXXXXXXXXXXXXXXXXX     .XXXXXXXX                 .XXXXXXXX.                     XXXXXXXXX",
"XXXXXXXXX                     .XXXXXXXXXX                OXXXXXXXX                OXXXXXXXXXXXXXXXXo.               OXXXXXXXXXXXXXXXXXXXXXXo.          OXXXXXXXXXXXXXXXXXXXXXXXXXXXXXXXXX     .XXXXXXXX                 .XXXXXXXX.                     XXXXXXXXX",
"XXXXXXXXX                     .XXXXXXXXXXO               OXXXXXXXX              .XXXXXXXXXXXXXXXXXXXXo              OXXXXXXXXXXXXXXXXXXXXXXXXO         OXXXXXXXXXXXXXXXXXXXXXXXXXXXXXXXXX     .XXXXXXXX                 .XXXXXXXX.                     XXXXXXXXX",
"XXXXXXXXX                     .XXXXXXXXXXX.              OXXXXXXXX             OXXXXXXXXXXXXXXXXXXXXXXX.            OXXXXXXXXXXXXXXXXXXXXXXXXXo.       OXXXXXXXXXXXXXXXXXXXXXXXXXXXXXXXXX     .XXXXXXXX                 .XXXXXXXX.                     XXXXXXXXX",
"XXXXXXXXX                     .XXXXXXXXXXXo              OXXXXXXXX            oXXXXXXXXXXXXXXXXXXXXXXXXX.           OXXXXXXXXXXXXXXXXXXXXXXXXXXo       OXXXXXXXXXXXXXXXXXXXXXXXXXXXXXXXXX     .XXXXXXXX                 .XXXXXXXX.                     XXXXXXXXX",
"XXXXXXXXX                     .XXXXXXXXXXXXO             OXXXXXXXX           oXXXXXXXXXXXXXXXXXXXXXXXXXXX.          OXXXXXXXXXXXXXXXXXXXXXXXXXXXo      OXXXXXXXXXXXXXXXXXXXXXXXXXXXXXXXXX     .XXXXXXXX                 .XXXXXXXX.                     XXXXXXXXX",
"XXXXXXXXX                     .XXXXXXXXXXXXX.            OXXXXXXXX          OXXXXXXXXXXXXXXXXXXXXXXXXXXXXX.         OXXXXXXXXXXXXXXXXXXXXXXXXXXXX.     .XXXXXXXXXXXXXXXXXXXXXXXXXXXXXXXXo     .XXXXXXXX                 .XXXXXXXX.                     XXXXXXXXX",
"XXXXXXXXX                     .XXXXXXXXXXXXXo            OXXXXXXXX         .XXXXXXXXXXXO.    .OoXXXXXXXXXXo         OXXXXXXXo        .OXXXXXXXXXXo                  XXXXXXXXO                 .XXXXXXXX                 .XXXXXXXX.                     XXXXXXXXX",
"XXXXXXXXX                     .XXXXXXXXXXXXXX.           OXXXXXXXX         oXXXXXXXXXo.         .XXXXXXXXXXO        OXXXXXXXo           oXXXXXXXXX.                 XXXXXXXXO                 .XXXXXXXX                 .XXXXXXXX.                     XXXXXXXXX",
"XXXXXXXXX                     .XXXXXXXXXXXXXXX           OXXXXXXXX        OXXXXXXXXXO            .oXXXXXXXXX        OXXXXXXXo            oXXXXXXXXO                 XXXXXXXXO                 .XXXXXXXX                 .XXXXXXXX.                     XXXXXXXXX",
"XXXXXXXXX                     .XXXXXXXXXXXXXXXO          OXXXXXXXX        oXXXXXXXXO              .XXXXXXXXXO       OXXXXXXXo            .XXXXXXXXo                 XXXXXXXXO                 .XXXXXXXX                 .XXXXXXXX.                     XXXXXXXXX",
"XXXXXXXXX                     .XXXXXXXooXXXXXXX.         OXXXXXXXX       .XXXXXXXXo                OXXXXXXXXo       OXXXXXXXo             XXXXXXXXo                 XXXXXXXXO                 .XXXXXXXX                 .XXXXXXXX.                     XXXXXXXXX",
"XXXXXXXXX                     .XXXXXXXoOXXXXXXXo         OXXXXXXXX       OXXXXXXXX.                 oXXXXXXXX.      OXXXXXXXo             oXXXXXXXX                 XXXXXXXXO                 .XXXXXXXX                 .XXXXXXXX.                     XXXXXXXXX",
"XXXXXXXXX                     .XXXXXXXo oXXXXXXXO        OXXXXXXXX       XXXXXXXXX                  OXXXXXXXXO      OXXXXXXXo             oXXXXXXXX                 XXXXXXXXO                 .XXXXXXXX                 .XXXXXXXX.                     XXXXXXXXX",
"XXXXXXXXX                     .XXXXXXXX OXXXXXXXX.       OXXXXXXXX      .XXXXXXXXO                   XXXXXXXXo      OXXXXXXXo             oXXXXXXXX                 XXXXXXXXO                 .XXXXXXXX                 .XXXXXXXX.                     XXXXXXXXX",
"XXXXXXXXX                     .XXXXXXXX  oXXXXXXXo       OXXXXXXXX      .XXXXXXXX.                   oXXXXXXXo      OXXXXXXXo             XXXXXXXXo                 XXXXXXXXO                 .XXXXXXXX                 .XXXXXXXX.                     XXXXXXXXX",
"XXXXXXXXX                     .XXXXXXXX  .XXXXXXXX.      OXXXXXXXX      OXXXXXXXX                    OXXXXXXXX      OXXXXXXXo            .XXXXXXXXo                 XXXXXXXXO                 .XXXXXXXX                 .XXXXXXXX.                     XXXXXXXXX",
"XXXXXXXXX                     .XXXXXXXX   oXXXXXXXX      OXXXXXXXX      OXXXXXXXX                    OXXXXXXXX.     OXXXXXXXo            oXXXXXXXXO                 XXXXXXXXO                 .XXXXXXXXXXXXXXXXXXXXXXXXXXXXXXXXXX.                     XXXXXXXXX",
"XXXXXXXXX                     .XXXXXXXX.  .XXXXXXXXO     OXXXXXXXX      oXXXXXXXo                    .XXXXXXXX.     OXXXXXXXo           oXXXXXXXXX.                 XXXXXXXXO                 .XXXXXXXXXXXXXXXXXXXXXXXXXXXXXXXXXX.                     XXXXXXXXX",
"XXXXXXXXX                     .XXXXXXXX.   oXXXXXXXX.    OXXXXXXXX      oXXXXXXXo                    .XXXXXXXX.     OXXXXXXXo       ..OXXXXXXXXXXo                  XXXXXXXXO                 .XXXXXXXXXXXXXXXXXXXXXXXXXXXXXXXXXX.                     XXXXXXXXX",
"XXXXXXXXX                     .XXXXXXXX.   .XXXXXXXXo    OXXXXXXXX      oXXXXXXXo                    .XXXXXXXX.     OXXXXXXXXXXXXXXXXXXXXXXXXXXXX.                  XXXXXXXXO                 .XXXXXXXXXXXXXXXXXXXXXXXXXXXXXXXXXX.                     XXXXXXXXX",
"XXXXXXXXX                     .XXXXXXXX.    OXXXXXXXXO   OXXXXXXXX      oXXXXXXXo                    .XXXXXXXX.     OXXXXXXXXXXXXXXXXXXXXXXXXXXXo                   XXXXXXXXO                 .XXXXXXXXXXXXXXXXXXXXXXXXXXXXXXXXXX.                     XXXXXXXXX",
"XXXXXXXXX                     .XXXXXXXX.     oXXXXXXXX   OXXXXXXXX      oXXXXXXXo                    .XXXXXXXX.     OXXXXXXXXXXXXXXXXXXXXXXXXXXo                    XXXXXXXXO                 .XXXXXXXXXXXXXXXXXXXXXXXXXXXXXXXXXX.                     XXXXXXXXX",
"XXXXXXXXX                     .XXXXXXXX.     .XXXXXXXXO  OXXXXXXXX      OXXXXXXXX                    OXXXXXXXX.     OXXXXXXXXXXXXXXXXXXXXXXXXXo                     XXXXXXXXO                 .XXXXXXXXXXXXXXXXXXXXXXXXXXXXXXXXXX.                     XXXXXXXXX",
"XXXXXXXXX                     .XXXXXXXX.      oXXXXXXXX. OXXXXXXXX      OXXXXXXXX                    OXXXXXXXX      OXXXXXXXXXXXXXXXXXXXXXXXXO                      XXXXXXXXO                 .XXXXXXXX                 .XXXXXXXX.                     XXXXXXXXX",
"XXXXXXXXX                     .XXXXXXXX.       XXXXXXXXO .XXXXXXXX      .XXXXXXXX.                   oXXXXXXXo      OXXXXXXXXXXXXXXXXXXXXXXX                        XXXXXXXXO                 .XXXXXXXX                 .XXXXXXXX.                     XXXXXXXXX",
"XXXXXXXXX                     .XXXXXXXX.       OXXXXXXXX..XXXXXXXX      .XXXXXXXXO                   XXXXXXXXo      OXXXXXXXXooooooXXXXXXXXXO                       XXXXXXXXO                 .XXXXXXXX                 .XXXXXXXX.                     XXXXXXXXX",
"XXXXXXXXX                     .XXXXXXXX.        oXXXXXXXO.XXXXXXXX       XXXXXXXXX                  OXXXXXXXXO      OXXXXXXXo      .XXXXXXXXX                       XXXXXXXXO                 .XXXXXXXX                 .XXXXXXXX.                     XXXXXXXXX",
"XXXXXXXXX                     .XXXXXXXX.        .XXXXXXXX.XXXXXXXX       OXXXXXXXX.                 oXXXXXXXX.      OXXXXXXXo       oXXXXXXXXO                      XXXXXXXXO                 .XXXXXXXX                 .XXXXXXXX.                     XXXXXXXXX",
"XXXXXXXXX                     .XXXXXXXX.         OXXXXXXXOXXXXXXXX       .XXXXXXXXo                OXXXXXXXXo       OXXXXXXXo       .XXXXXXXXX.                     XXXXXXXXO                 .XXXXXXXX                 .XXXXXXXX.                     XXXXXXXXX",
"XXXXXXXXX                     .XXXXXXXX.          oXXXXXXXXXXXXXXX        oXXXXXXXXO              .XXXXXXXXXO       OXXXXXXXo        OXXXXXXXXO                     XXXXXXXXO                 .XXXXXXXX                 .XXXXXXXX.                     XXXXXXXXX",
"XXXXXXXXX                     .XXXXXXXX.          .XXXXXXXXXXXXXXX        OXXXXXXXXXO            .oXXXXXXXXX        OXXXXXXXo         XXXXXXXXX.                    XXXXXXXXO                 .XXXXXXXX                 .XXXXXXXX.                     XXXXXXXXX",
"XXXXXXXXX                     .XXXXXXXX.           oXXXXXXXXXXXXXX         oXXXXXXXXXo.         .XXXXXXXXXXO        OXXXXXXXo         OXXXXXXXXo                    XXXXXXXXO                 .XXXXXXXX                 .XXXXXXXX.                     XXXXXXXXX",
"XXXXXXXXX                     .XXXXXXXX.            XXXXXXXXXXXXXX         .XXXXXXXXXXXO.    .OoXXXXXXXXXXo         OXXXXXXXo          XXXXXXXXX.                   XXXXXXXXO                 .XXXXXXXX                 .XXXXXXXX.                     XXXXXXXXX",
"XXXXXXXXX                     .XXXXXXXX.            OXXXXXXXXXXXXX          OXXXXXXXXXXXXXXXXXXXXXXXXXXXXX.         OXXXXXXXo          OXXXXXXXXo                   XXXXXXXXO                 .XXXXXXXX                 .XXXXXXXX.                     XXXXXXXXX",
"XXXXXXXXX                     .XXXXXXXX.             oXXXXXXXXXXXX           oXXXXXXXXXXXXXXXXXXXXXXXXXXX.          OXXXXXXXo           oXXXXXXXXO                  XXXXXXXXO                 .XXXXXXXX                 .XXXXXXXX.                     XXXXXXXXX",
"XXXXXXXXX                     .XXXXXXXX.             .XXXXXXXXXXXX            oXXXXXXXXXXXXXXXXXXXXXXXXX.           OXXXXXXXo           .XXXXXXXXX                  XXXXXXXXO                 .XXXXXXXX                 .XXXXXXXX.                     XXXXXXXXX",
"XXXXXXXXX                     .XXXXXXXX.              OXXXXXXXXXXX             OXXXXXXXXXXXXXXXXXXXXXXX.            OXXXXXXXo            oXXXXXXXXO                 XXXXXXXXO                 .XXXXXXXX                 .XXXXXXXX.                     XXXXXXXXX",
"XXXXXXXXX                     .XXXXXXXX.               oXXXXXXXXXX              .XXXXXXXXXXXXXXXXXXXXo              OXXXXXXXo            .XXXXXXXXX.                XXXXXXXXO                 .XXXXXXXX                 .XXXXXXXX.                     XXXXXXXXX",
"XXXXXXXXX                     .XXXXXXXX.               .XXXXXXXXXX                OXXXXXXXXXXXXXXXXo.               OXXXXXXXo             oXXXXXXXXO                XXXXXXXXO                 .XXXXXXXX                 .XXXXXXXX.                     XXXXXXXXX",
"XXXXXXXXX                     .XXXXXXXX.                oXXXXXXXXX                  OoXXXXXXXXXXoO.                 OXXXXXXXo             .XXXXXXXXX.               XXXXXXXXO                 .XXXXXXXX                 .XXXXXXXX.                     XXXXXXXXX",
"XXXXXXXXX                                                                              ..OOOOO.                                                                                                                                                        XXXXXXXXX",
"XXXXXXXXX                                                                                                                                                                                                                                              XXXXXXXXX",
"XXXXXXXXX                                                                                                                                                                                                                                              XXXXXXXXX",
"XXXXXXXXX                                                                                                                                                                                                                                              XXXXXXXXX",
"XXXXXXXXX                                                                                                                                                                                                                                              XXXXXXXXX",
"XXXXXXXXX                                                                                                                                                                                                                                              XXXXXXXXX",
"XXXXXXXXX                                                                                                                                                                                                                                              XXXXXXXXX",
"XXXXXXXXX                                                                                                                                                                                                                                              XXXXXXXXX",
"XXXXXXXXX                                                                                                                                                                                                                                              XXXXXXXXX",
"XXXXXXXXX                                                                                                                                                                                                                                              XXXXXXXXX",
"XXXXXXXXX                                                                                                                                                                                                                                              XXXXXXXXX",
"XXXXXXXXX                                                                                                                                                                                                                                              XXXXXXXXX",
"XXXXXXXXX                                                                                                                                                                                                                                              XXXXXXXXX",
"XXXXXXXXX                                                                                                                                                                                                                                              XXXXXXXXX",
"XXXXXXXXX                                                                                                                                                                                                                                              XXXXXXXXX",
"XXXXXXXXX                                                                                                                                                                                                                                              XXXXXXXXX",
"XXXXXXXXX                                                                                                                                                                                                                                              XXXXXXXXX",
"XXXXXXXXX                                                                                                                                                                                                                                              XXXXXXXXX",
"XXXXXXXXX                                                                                                                                                                                                                                              XXXXXXXXX",
"XXXXXXXXX                                                                                                                                                                                                                                              XXXXXXXXX",
"XXXXXXXXX                                                                                                                                                                                                                                              XXXXXXXXX",
"XXXXXXXXX                                                                                                                                                                                                                                              XXXXXXXXX",
"XXXXXXXXX                                                                                                                                                                                                                                              XXXXXXXXX",
"XXXXXXXXX                                                                                                                                                                                                                                              XXXXXXXXX",
"XXXXXXXXX                                                                                                                                                                                                                                              XXXXXXXXX",
"XXXXXXXXX                                                                                                                                                                                                                                              XXXXXXXXX",
"XXXXXXXXX                                                                                                                                                                                                                                              XXXXXXXXX",
"XXXXXXXXX                                                                                                                                                                                                                                              XXXXXXXXX",
"XXXXXXXXX                                                                                                                                                                                                                                              XXXXXXXXX",
"XXXXXXXXX                                                                                                                                                                                                                                              XXXXXXXXX",
"XXXXXXXXX                                                                                                                                                                                                                                              XXXXXXXXX",
"XXXXXXXXX                                                                                                                                                                                                                                              XXXXXXXXX",
"XXXXXXXXX                                                                                                                                                                                                                                              XXXXXXXXX",
"XXXXXXXXX                                                                                                                                                                                                                                              XXXXXXXXX",
"XXXXXXXXX                                                                                                                                                                                                                                              XXXXXXXXX",
"XXXXXXXXX                                                                                                                                                                                                                                              XXXXXXXXX",
"XXXXXXXXX                                                                                                                                                                                                                                              XXXXXXXXX",
"XXXXXXXXX                                                                                                                                                                                                                                              XXXXXXXXX",
"XXXXXXXXX                                                                                                                                                                                                                                              XXXXXXXXX",
"XXXXXXXXX                                                                                                                                                                                                                                              XXXXXXXXX",
"XXXXXXXXX                                                                                                                                                                                                                                              XXXXXXXXX",
"XXXXXXXXX                                                                                                                                                                                                                                              XXXXXXXXX",
"XXXXXXXXX                                                                                                                                                                                                                                              XXXXXXXXX",
"XXXXXXXXX                                                                                                                                                                                                                                              XXXXXXXXX",
"XXXXXXXXX                                                                                                                                                                                                                                              XXXXXXXXX",
"XXXXXXXXX                                                                                                                                                                                                                                              XXXXXXXXX",
"XXXXXXXXX                                                                                                                                                                                                                                              XXXXXXXXX",
"XXXXXXXXX                                                                                                                                                                                                                                              XXXXXXXXX",
"XXXXXXXXX                                                                                                                                                                                                                                              XXXXXXXXX",
"XXXXXXXXX                                                                                                                                                                                                                                              XXXXXXXXX",
"XXXXXXXXX                                                                                                                                                                                                                                              XXXXXXXXX",
"XXXXXXXXX                                                                                                                                                                                                                                              XXXXXXXXX",
"XXXXXXXXX                                                                                                                                                                                                                                              XXXXXXXXX",
"XXXXXXXXX                                                                                                                                                                                                                                              XXXXXXXXX",
"XXXXXXXXX                                                                                                                                                                                                                                              XXXXXXXXX",
"XXXXXXXXX                                                                                                                                                                                                                                              XXXXXXXXX",
"XXXXXXXXX                                                                                                                                                                                                                                              XXXXXXXXX",
"XXXXXXXXX                                                                                                                                                                                                                                              XXXXXXXXX",
"XXXXXXXXX                                                                                                                                                                                                                                              XXXXXXXXX",
"XXXXXXXXX                                                                                                                                                                                                                                              XXXXXXXXX",
"XXXXXXXXX                                                                                                                                                                                                                                              XXXXXXXXX",
"XXXXXXXXX                                                                                                                                                                                                                                              XXXXXXXXX",
"XXXXXXXXX                                                                                                                                                                                                                                              XXXXXXXXX",
"XXXXXXXXX                                                                                                                                                                                                                                              XXXXXXXXX",
"XXXXXXXXX                                                                                                                                                                                                                                              XXXXXXXXX",
"XXXXXXXXX                                                                                                                                                                                                                                              XXXXXXXXX",
"XXXXXXXXX                                                                                                                                                                                                  .XXXXXXXXXoo.      OXXXXXXXXXoO             XXXXXXXXX",
"XXXXXXXXX                                                                                                                                                                                                  .XXXXXXXXXXXXo     OXXXXXXXXXXXX.           XXXXXXXXX",
"XXXXXXXXX                                                                                                                                                                                                  .XXXXXXXXXXXXXo    OXXXXXXXXXXXXX.          XXXXXXXXX",
"XXXXXXXXX                                                                                                                                                                                                  .XXXXOOOOoXXXXX.   OXXXoOOOoXXXXXo          XXXXXXXXX",
"XXXXXXXXX                                                                                                                                                                                                  .XXXX     .XXXXO   OXXXO     OXXXX.         XXXXXXXXX",
"XXXXXXXXX                                                                                                                                                                                                  .XXXX      oXXXO   OXXXO      XXXXO         XXXXXXXXX",
"XXXXXXXXX                                                                                                                                                                                                  .XXXX      OXXXO   OXXXO      oXXXO         XXXXXXXXX",
"XXXXXXXXX                                                                                                                                                                                                  .XXXX      XXXX.   OXXXO      oXXXO         XXXXXXXXX",
"XXXXXXXXX                                                                                                                                                                                                  .XXXX    .oXXXO    OXXXO     .XXXXO         XXXXXXXXX",
"XXXXXXXXX                                                                                                                                                                                                  .XXXXXXXXXXXXO     OXXXO    .oXXXX.         XXXXXXXXX",
"XXXXXXXXX                                                                                                                                                                                                  .XXXXXXXXXXXO.     OXXXXXXXXXXXXXO          XXXXXXXXX",
"XXXXXXXXX                                                                                                                                                                                                  .XXXXXXXXXXXXXo    OXXXXXXXXXXXXo           XXXXXXXXX",
"XXXXXXXXX                                                                                                                                                                                                  .XXXX     OXXXXo   OXXXXXXXXXXXO            XXXXXXXXX",
"XXXXXXXXX                                                                                                                                                                                                  .XXXX      .XXXX.  OXXXXOOoXXXXO            XXXXXXXXX",
"XXXXXXXXX                                                                                                                                                                                                  .XXXX       XXXXO  OXXXO   oXXXX            XXXXXXXXX",
"XXXXXXXXX                                                                                                                                                                                                  .XXXX       XXXXO  OXXXO   .XXXXO           XXXXXXXXX",
"XXXXXXXXX                                                                                                                                                                                                  .XXXX      OXXXX.  OXXXO    OXXXX           XXXXXXXXX",
"XXXXXXXXX                                                                                                                                                                                                  .XXXXOOOOooXXXXX   OXXXO    .XXXXO          XXXXXXXXX",
"XXXXXXXXX                                                                                                                                                                                                  .XXXXXXXXXXXXXXO   OXXXO     OXXXX          XXXXXXXXX",
"XXXXXXXXX                                                                                                                                                                                                  .XXXXXXXXXXXXXO    OXXXO     .XXXXO         XXXXXXXXX",
"XXXXXXXXX                                                                                                                                                                                                  .XXXXXXXXXXoO.     OXXXO      OXXXX.        XXXXXXXXX",
"XXXXXXXXX                                                                                                                                                                                                                                              XXXXXXXXX",
"XXXXXXXXX                                                                                                                                                                                                                                              XXXXXXXXX",
"XXXXXXXXX                                                                                                                                                                                                                                              XXXXXXXXX",
"XXXXXXXXX                                                                                                                                                                                                                                              XXXXXXXXX",
"XXXXXXXXX                                                                                                                                                                                                                                              XXXXXXXXX",
"XXXXXXXXX                                                                                                                                                                                                                                              XXXXXXXXX",
"XXXXXXXXX                                                                                                                                                                                                                                              XXXXXXXXX",
"XXXXXXXXX                                                                                                                                                                                                                                              XXXXXXXXX",
"XXXXXXXXX                                                                                                                                                                                                                                              XXXXXXXXX",
"XXXXXXXXX                                                                                                                                                                                                                                              XXXXXXXXX",
"XXXXXXXXX                                                                                                                                                                                                                                              XXXXXXXXX",
"XXXXXXXXX                                                                                                                                                                                                                                              XXXXXXXXX",
"XXXXXXXXXXXXXXXXXXXXXXXXXXXXXXXXXXXXXXXXXXXXXXXXXXXXXXXXXXXXXXXXXXXXXXXXXXXXXXXXXXXXXXXXXXXXXXXXXXXXXXXXXXXXXXXXXXXXXXXXXXXXXXXXXXXXXXXXXXXXXXXXXXXXXXXXXXXXXXXXXXXXXXXXXXXXXXXXXXXXXXXXXXXXXXXXXXXXXXXXXXXXXXXXXXXXXXXXXXXXXXXXXXXXXXXXXXXXXXXXXXXXXXXXXXXXXXXX",
"XXXXXXXXXXXXXXXXXXXXXXXXXXXXXXXXXXXXXXXXXXXXXXXXXXXXXXXXXXXXXXXXXXXXXXXXXXXXXXXXXXXXXXXXXXXXXXXXXXXXXXXXXXXXXXXXXXXXXXXXXXXXXXXXXXXXXXXXXXXXXXXXXXXXXXXXXXXXXXXXXXXXXXXXXXXXXXXXXXXXXXXXXXXXXXXXXXXXXXXXXXXXXXXXXXXXXXXXXXXXXXXXXXXXXXXXXXXXXXXXXXXXXXXXXXXXXXXX",
"XXXXXXXXXXXXXXXXXXXXXXXXXXXXXXXXXXXXXXXXXXXXXXXXXXXXXXXXXXXXXXXXXXXXXXXXXXXXXXXXXXXXXXXXXXXXXXXXXXXXXXXXXXXXXXXXXXXXXXXXXXXXXXXXXXXXXXXXXXXXXXXXXXXXXXXXXXXXXXXXXXXXXXXXXXXXXXXXXXXXXXXXXXXXXXXXXXXXXXXXXXXXXXXXXXXXXXXXXXXXXXXXXXXXXXXXXXXXXXXXXXXXXXXXXXXXXXXX",
"XXXXXXXXXXXXXXXXXXXXXXXXXXXXXXXXXXXXXXXXXXXXXXXXXXXXXXXXXXXXXXXXXXXXXXXXXXXXXXXXXXXXXXXXXXXXXXXXXXXXXXXXXXXXXXXXXXXXXXXXXXXXXXXXXXXXXXXXXXXXXXXXXXXXXXXXXXXXXXXXXXXXXXXXXXXXXXXXXXXXXXXXXXXXXXXXXXXXXXXXXXXXXXXXXXXXXXXXXXXXXXXXXXXXXXXXXXXXXXXXXXXXXXXXXXXXXXXX",
"XXXXXXXXXXXXXXXXXXXXXXXXXXXXXXXXXXXXXXXXXXXXXXXXXXXXXXXXXXXXXXXXXXXXXXXXXXXXXXXXXXXXXXXXXXXXXXXXXXXXXXXXXXXXXXXXXXXXXXXXXXXXXXXXXXXXXXXXXXXXXXXXXXXXXXXXXXXXXXXXXXXXXXXXXXXXXXXXXXXXXXXXXXXXXXXXXXXXXXXXXXXXXXXXXXXXXXXXXXXXXXXXXXXXXXXXXXXXXXXXXXXXXXXXXXXXXXXX",
"XXXXXXXXXXXXXXXXXXXXXXXXXXXXXXXXXXXXXXXXXXXXXXXXXXXXXXXXXXXXXXXXXXXXXXXXXXXXXXXXXXXXXXXXXXXXXXXXXXXXXXXXXXXXXXXXXXXXXXXXXXXXXXXXXXXXXXXXXXXXXXXXXXXXXXXXXXXXXXXXXXXXXXXXXXXXXXXXXXXXXXXXXXXXXXXXXXXXXXXXXXXXXXXXXXXXXXXXXXXXXXXXXXXXXXXXXXXXXXXXXXXXXXXXXXXXXXXX",
"XXXXXXXXXXXXXXXXXXXXXXXXXXXXXXXXXXXXXXXXXXXXXXXXXXXXXXXXXXXXXXXXXXXXXXXXXXXXXXXXXXXXXXXXXXXXXXXXXXXXXXXXXXXXXXXXXXXXXXXXXXXXXXXXXXXXXXXXXXXXXXXXXXXXXXXXXXXXXXXXXXXXXXXXXXXXXXXXXXXXXXXXXXXXXXXXXXXXXXXXXXXXXXXXXXXXXXXXXXXXXXXXXXXXXXXXXXXXXXXXXXXXXXXXXXXXXXXX",
"XXXXXXXXXXXXXXXXXXXXXXXXXXXXXXXXXXXXXXXXXXXXXXXXXXXXXXXXXXXXXXXXXXXXXXXXXXXXXXXXXXXXXXXXXXXXXXXXXXXXXXXXXXXXXXXXXXXXXXXXXXXXXXXXXXXXXXXXXXXXXXXXXXXXXXXXXXXXXXXXXXXXXXXXXXXXXXXXXXXXXXXXXXXXXXXXXXXXXXXXXXXXXXXXXXXXXXXXXXXXXXXXXXXXXXXXXXXXXXXXXXXXXXXXXXXXXXXX",
"XXXXXXXXXXXXXXXXXXXXXXXXXXXXXXXXXXXXXXXXXXXXXXXXXXXXXXXXXXXXXXXXXXXXXXXXXXXXXXXXXXXXXXXXXXXXXXXXXXXXXXXXXXXXXXXXXXXXXXXXXXXXXXXXXXXXXXXXXXXXXXXXXXXXXXXXXXXXXXXXXXXXXXXXXXXXXXXXXXXXXXXXXXXXXXXXXXXXXXXXXXXXXXXXXXXXXXXXXXXXXXXXXXXXXXXXXXXXXXXXXXXXXXXXXXXXXXXX"
};
