/* XPM */
static char *south[] = {
/* columns rows colors chars-per-pixel */
"256 256 5 1 ",
"  c #40BF40",
". c #5BC85B",
"X c #FFFFFF",
"o c #CAEDCA",
"O c #9EDF9E",
/* pixels */
"XXXXXXXXXXXXXXXXXXXXXXXXXXXXXXXXXXXXXXXXXXXXXXXXXXXXXXXXXXXXXXXXXXXXXXXXXXXXXXXXXXXXXXXXXXXXXXXXXXXXXXXXXXXXXXXXXXXXXXXXXXXXXXXXXXXXXXXXXXXXXXXXXXXXXXXXXXXXXXXXXXXXXXXXXXXXXXXXXXXXXXXXXXXXXXXXXXXXXXXXXXXXXXXXXXXXXXXXXXXXXXXXXXXXXXXXXXXXXXXXXXXXXXXXXXXXXXXX",
"XXXXXXXXXXXXXXXXXXXXXXXXXXXXXXXXXXXXXXXXXXXXXXXXXXXXXXXXXXXXXXXXXXXXXXXXXXXXXXXXXXXXXXXXXXXXXXXXXXXXXXXXXXXXXXXXXXXXXXXXXXXXXXXXXXXXXXXXXXXXXXXXXXXXXXXXXXXXXXXXXXXXXXXXXXXXXXXXXXXXXXXXXXXXXXXXXXXXXXXXXXXXXXXXXXXXXXXXXXXXXXXXXXXXXXXXXXXXXXXXXXXXXXXXXXXXXXXX",
"XXXXXXXXXXXXXXXXXXXXXXXXXXXXXXXXXXXXXXXXXXXXXXXXXXXXXXXXXXXXXXXXXXXXXXXXXXXXXXXXXXXXXXXXXXXXXXXXXXXXXXXXXXXXXXXXXXXXXXXXXXXXXXXXXXXXXXXXXXXXXXXXXXXXXXXXXXXXXXXXXXXXXXXXXXXXXXXXXXXXXXXXXXXXXXXXXXXXXXXXXXXXXXXXXXXXXXXXXXXXXXXXXXXXXXXXXXXXXXXXXXXXXXXXXXXXXXXX",
"XXXXXXXXXXXXXXXXXXXXXXXXXXXXXXXXXXXXXXXXXXXXXXXXXXXXXXXXXXXXXXXXXXXXXXXXXXXXXXXXXXXXXXXXXXXXXXXXXXXXXXXXXXXXXXXXXXXXXXXXXXXXXXXXXXXXXXXXXXXXXXXXXXXXXXXXXXXXXXXXXXXXXXXXXXXXXXXXXXXXXXXXXXXXXXXXXXXXXXXXXXXXXXXXXXXXXXXXXXXXXXXXXXXXXXXXXXXXXXXXXXXXXXXXXXXXXXXX",
"XXXXXXXXXXXXXXXXXXXXXXXXXXXXXXXXXXXXXXXXXXXXXXXXXXXXXXXXXXXXXXXXXXXXXXXXXXXXXXXXXXXXXXXXXXXXXXXXXXXXXXXXXXXXXXXXXXXXXXXXXXXXXXXXXXXXXXXXXXXXXXXXXXXXXXXXXXXXXXXXXXXXXXXXXXXXXXXXXXXXXXXXXXXXXXXXXXXXXXXXXXXXXXXXXXXXXXXXXXXXXXXXXXXXXXXXXXXXXXXXXXXXXXXXXXXXXXXX",
"XXXXXXXXXXXXXXXXXXXXXXXXXXXXXXXXXXXXXXXXXXXXXXXXXXXXXXXXXXXXXXXXXXXXXXXXXXXXXXXXXXXXXXXXXXXXXXXXXXXXXXXXXXXXXXXXXXXXXXXXXXXXXXXXXXXXXXXXXXXXXXXXXXXXXXXXXXXXXXXXXXXXXXXXXXXXXXXXXXXXXXXXXXXXXXXXXXXXXXXXXXXXXXXXXXXXXXXXXXXXXXXXXXXXXXXXXXXXXXXXXXXXXXXXXXXXXXXX",
"XXXXXXXXXXXXXXXXXXXXXXXXXXXXXXXXXXXXXXXXXXXXXXXXXXXXXXXXXXXXXXXXXXXXXXXXXXXXXXXXXXXXXXXXXXXXXXXXXXXXXXXXXXXXXXXXXXXXXXXXXXXXXXXXXXXXXXXXXXXXXXXXXXXXXXXXXXXXXXXXXXXXXXXXXXXXXXXXXXXXXXXXXXXXXXXXXXXXXXXXXXXXXXXXXXXXXXXXXXXXXXXXXXXXXXXXXXXXXXXXXXXXXXXXXXXXXXXX",
"XXXXXXXXXXXXXXXXXXXXXXXXXXXXXXXXXXXXXXXXXXXXXXXXXXXXXXXXXXXXXXXXXXXXXXXXXXXXXXXXXXXXXXXXXXXXXXXXXXXXXXXXXXXXXXXXXXXXXXXXXXXXXXXXXXXXXXXXXXXXXXXXXXXXXXXXXXXXXXXXXXXXXXXXXXXXXXXXXXXXXXXXXXXXXXXXXXXXXXXXXXXXXXXXXXXXXXXXXXXXXXXXXXXXXXXXXXXXXXXXXXXXXXXXXXXXXXXX",
"XXXXXXXXXXXXXXXXXXXXXXXXXXXXXXXXXXXXXXXXXXXXXXXXXXXXXXXXXXXXXXXXXXXXXXXXXXXXXXXXXXXXXXXXXXXXXXXXXXXXXXXXXXXXXXXXXXXXXXXXXXXXXXXXXXXXXXXXXXXXXXXXXXXXXXXXXXXXXXXXXXXXXXXXXXXXXXXXXXXXXXXXXXXXXXXXXXXXXXXXXXXXXXXXXXXXXXXXXXXXXXXXXXXXXXXXXXXXXXXXXXXXXXXXXXXXXXXX",
"XXXXXXXXX                                                                                                                                                                                                                                              XXXXXXXXX",
"XXXXXXXXX                                                                                                                                                                                                                                              XXXXXXXXX",
"XXXXXXXXX                                                                                                                                                                                                                                              XXXXXXXXX",
"XXXXXXXXX                                                                                                                                                                                                                                              XXXXXXXXX",
"XXXXXXXXX                                                                                                                                                                                                                                              XXXXXXXXX",
"XXXXXXXXX        XXXXXXXXXXXXXXXXo  OXXXo                                                                                                                                                                                                              XXXXXXXXX",
"XXXXXXXXX        XXXXXXXXXXXXXXXXo  OXXXo                                                                                                                                                                                                              XXXXXXXXX",
"XXXXXXXXX        XXXXXXXXXXXXXXXXo  OXXXo                                                                                                                                                                                                              XXXXXXXXX",
"XXXXXXXXX        OOOOOOXXXXoOOOOOO  OXXXo                                                                                                                                                                                                              XXXXXXXXX",
"XXXXXXXXX              oXXXO        OXXXo                                                                                                                                                                                                              XXXXXXXXX",
"XXXXXXXXX              oXXXO        OXXXo                                                                                                                                                                                                              XXXXXXXXX",
"XXXXXXXXX              oXXXO        OXXXo                                                                                                                                                                                                              XXXXXXXXX",
"XXXXXXXXX              oXXXO        OXXXo                                                                                                                                                                                                              XXXXXXXXX",
"XXXXXXXXX              oXXXO        OXXXo                                                                                                                                                                                                              XXXXXXXXX",
"XXXXXXXXX              oXXXO        OXXXo                                                                                                                                                                                                              XXXXXXXXX",
"XXXXXXXXX              oXXXO        OXXXo                                                                                                                                                                                                              XXXXXXXXX",
"XXXXXXXXX              oXXXO        OXXXo                                                                                                                                                                                                              XXXXXXXXX",
"XXXXXXXXX              oXXXO        OXXXo                                                                                                                                                                                                              XXXXXXXXX",
"XXXXXXXXX              oXXXO        OXXXo                                                                                                                                                                                                              XXXXXXXXX",
"XXXXXXXXX              oXXXO        OXXXo                                                                                                                                                                                                              XXXXXXXXX",
"XXXXXXXXX              oXXXO        OXXXo                                                                                                                                                                                                              XXXXXXXXX",
"XXXXXXXXX              oXXXO        OXXXo                                                                                                                                                                                                              XXXXXXXXX",
"XXXXXXXXX              oXXXO        OXXXXOOOOOOOO.                                                                                                                                                                                                     XXXXXXXXX",
"XXXXXXXXX              oXXXO        OXXXXXXXXXXXXO                                                                                                                                                                                                     XXXXXXXXX",
"XXXXXXXXX              oXXXO        OXXXXXXXXXXXXO                                                                                                                                                                                                     XXXXXXXXX",
"XXXXXXXXX              oXXXO        OXXXXXXXXXXXXO                                                                                                                                                                                                     XXXXXXXXX",
"XXXXXXXXX                                                                                                                                                                                                                                              XXXXXXXXX",
"XXXXXXXXX                                                                                                                                                                                                                                              XXXXXXXXX",
"XXXXXXXXX                                                                                                                                                                                                                                              XXXXXXXXX",
"XXXXXXXXX                                                                                                                                                                                                                                              XXXXXXXXX",
"XXXXXXXXX                                                                                                                                                                                                                                              XXXXXXXXX",
"XXXXXXXXX                                                                                                                                                                                                                                              XXXXXXXXX",
"XXXXXXXXX                                                                                                                                                                                                                                              XXXXXXXXX",
"XXXXXXXXX                                                                                                                                                                                                                                              XXXXXXXXX",
"XXXXXXXXX                                                                                                                                                                                                                                              XXXXXXXXX",
"XXXXXXXXX                                                                                                                                                                                                                                              XXXXXXXXX",
"XXXXXXXXX                                                                                                                                                                                                                                              XXXXXXXXX",
"XXXXXXXXX                                                                                                                                                                                                                                              XXXXXXXXX",
"XXXXXXXXX                                                                                                                                                                                                                                              XXXXXXXXX",
"XXXXXXXXX                                                                                                                                                                                                                                              XXXXXXXXX",
"XXXXXXXXX                                                                                                                                                                                                                                              XXXXXXXXX",
"XXXXXXXXX                                                                                                                                                                                                                                              XXXXXXXXX",
"XXXXXXXXX                                                                                                                                                                                                                                              XXXXXXXXX",
"XXXXXXXXX                                                                                                                                                                                                                                              XXXXXXXXX",
"XXXXXXXXX                                                                                                                                                                                                                                              XXXXXXXXX",
"XXXXXXXXX                                                                                                                                                                                                                                              XXXXXXXXX",
"XXXXXXXXX                                                                                                                                                                                                                                              XXXXXXXXX",
"XXXXXXXXX                                                                                                                                                                                                                                              XXXXXXXXX",
"XXXXXXXXX                                                                                                                                                                                                                                              XXXXXXXXX",
"XXXXXXXXX                                                                                                                                                                                                                                              XXXXXXXXX",
"XXXXXXXXX                                                                                                                                                                                                                                              XXXXXXXXX",
"XXXXXXXXX                                                                                                                                                                                                                                              XXXXXXXXX",
"XXXXXXXXX                                                                                                                                                                                                                                              XXXXXXXXX",
"XXXXXXXXX                                                                                                                                                                                                                                              XXXXXXXXX",
"XXXXXXXXX                                                                                                                                                                                                                                              XXXXXXXXX",
"XXXXXXXXX                                                                                                                                                                                                                                              XXXXXXXXX",
"XXXXXXXXX                                                                                                                                                                                                                                              XXXXXXXXX",
"XXXXXXXXX                                                                                                                                                                                                                                              XXXXXXXXX",
"XXXXXXXXX                                                                                                                                                                                                                                              XXXXXXXXX",
"XXXXXXXXX                                                                                                                                                                                                                                              XXXXXXXXX",
"XXXXXXXXX                                                                                                                                                                                                                                              XXXXXXXXX",
"XXXXXXXXX                                                                                                                                                                                                                                              XXXXXXXXX",
"XXXXXXXXX                                                                                                                                                                                                                                              XXXXXXXXX",
"XXXXXXXXX                                                                                                                                                                                                                                              XXXXXXXXX",
"XXXXXXXXX                                                                                                                                                                                                                                              XXXXXXXXX",
"XXXXXXXXX                                                                                                                                                                                                                                              XXXXXXXXX",
"XXXXXXXXX                                                                                                                                                                                                                                              XXXXXXXXX",
"XXXXXXXXX                                                                                                                                                                                                                                              XXXXXXXXX",
"XXXXXXXXX                                                                                                                                                                                                                                              XXXXXXXXX",
"XXXXXXXXX                                                                                                                                                                                                                                              XXXXXXXXX",
"XXXXXXXXX                                                                                                                                                                                                                                              XXXXXXXXX",
"XXXXXXXXX                                                                                                                                                                                                                                              XXXXXXXXX",
"XXXXXXXXX                                                                                                                                                                                                                                              XXXXXXXXX",
"XXXXXXXXX                                                                                                                                                                                                                                              XXXXXXXXX",
"XXXXXXXXX                                                                                                                                                                                                                                              XXXXXXXXX",
"XXXXXXXXX                                                                                                                                                                                                                                              XXXXXXXXX",
"XXXXXXXXX                                                                                                                                                                                                                                              XXXXXXXXX",
"XXXXXXXXX                                                                                                                                                                                                                                              XXXXXXXXX",
"XXXXXXXXX                                                                                                                                                                                                                                              XXXXXXXXX",
"XXXXXXXXX                                                                                                                                                                                                                                              XXXXXXXXX",
"XXXXXXXXX                                                                                                                                                                                                                                              XXXXXXXXX",
"XXXXXXXXX                                                                                                                                                                                                                                              XXXXXXXXX",
"XXXXXXXXX                                                                                                                                                                                                                                              XXXXXXXXX",
"XXXXXXXXX                                                                                                                                                                                                                                              XXXXXXXXX",
"XXXXXXXXX                                                                                                                                                                                                                                              XXXXXXXXX",
"XXXXXXXXX                                                                                                                                                                                                                                              XXXXXXXXX",
"XXXXXXXXX                                                                                                                                                                                                                                              XXXXXXXXX",
"XXXXXXXXX                                                                                                                                                                                                                                              XXXXXXXXX",
"XXXXXXXXX                                                                                                                                                                                                                                              XXXXXXXXX",
"XXXXXXXXX                                                                                                                                                                                                                                              XXXXXXXXX",
"XXXXXXXXX                                                                                                                                                                                                                                              XXXXXXXXX",
"XXXXXXXXX                                                                                                                                                                                                                                              XXXXXXXXX",
"XXXXXXXXX                                                                                                                                                                                                                                              XXXXXXXXX",
"XXXXXXXXX                                                                                                                                                                                                                                              XXXXXXXXX",
"XXXXXXXXX                                                                                                                                                                                                                                              XXXXXXXXX",
"XXXXXXXXX                                                                                                                                                                                                                                              XXXXXXXXX",
"XXXXXXXXX                                                                                                                                                                                                                                              XXXXXXXXX",
"XXXXXXXXX                                ..OOOOO..                               ..OOOOO.                                                                                                                                                              XXXXXXXXX",
"XXXXXXXXX                             .OoXXXXXXXXXXoO                         OoXXXXXXXXXXoO.                 OXXXXXXXo                .XXXXXXXX.    .XXXXXXXXXXXXXXXXXXXXXXXXXXXXXXXXX.    .XXXXXXXX.                 XXXXXXXXO                       XXXXXXXXX",
"XXXXXXXXX                           .oXXXXXXXXXXXXXXXXO                     OXXXXXXXXXXXXXXXXo.               OXXXXXXXo                .XXXXXXXX.    .XXXXXXXXXXXXXXXXXXXXXXXXXXXXXXXXX.    .XXXXXXXX.                 XXXXXXXXO                       XXXXXXXXX",
"XXXXXXXXX                          oXXXXXXXXXXXXXXXXXXXo.                 .XXXXXXXXXXXXXXXXXXXXo              OXXXXXXXo                .XXXXXXXX.    .XXXXXXXXXXXXXXXXXXXXXXXXXXXXXXXXX.    .XXXXXXXX.                 XXXXXXXXO                       XXXXXXXXX",
"XXXXXXXXX                        .oXXXXXXXXXXXXXXXXXXXXXX.               OXXXXXXXXXXXXXXXXXXXXXXX.            OXXXXXXXo                .XXXXXXXX.    .XXXXXXXXXXXXXXXXXXXXXXXXXXXXXXXXX.    .XXXXXXXX.                 XXXXXXXXO                       XXXXXXXXX",
"XXXXXXXXX                        oXXXXXXXXXXXXXXXXXXXXXXXX.             oXXXXXXXXXXXXXXXXXXXXXXXXX.           OXXXXXXXo                .XXXXXXXX.    .XXXXXXXXXXXXXXXXXXXXXXXXXXXXXXXXX.    .XXXXXXXX.                 XXXXXXXXO                       XXXXXXXXX",
"XXXXXXXXX                       oXXXXXXXXXXXXXXXXXXXXXXXXXX            oXXXXXXXXXXXXXXXXXXXXXXXXXXX.          OXXXXXXXo                .XXXXXXXX.    .XXXXXXXXXXXXXXXXXXXXXXXXXXXXXXXXX.    .XXXXXXXX.                 XXXXXXXXO                       XXXXXXXXX",
"XXXXXXXXX                      .XXXXXXXXXXXooOOoXXXXXXXXXXXO          OXXXXXXXXXXXXXXXXXXXXXXXXXXXXX.         OXXXXXXXo                .XXXXXXXX.    .XXXXXXXXXXXXXXXXXXXXXXXXXXXXXXXXX.    .XXXXXXXX.                 XXXXXXXXO                       XXXXXXXXX",
"XXXXXXXXX                      oXXXXXXXXXO       .oXXXXXXXXX         .XXXXXXXXXXXo..   .OoXXXXXXXXXXo         OXXXXXXXo                .XXXXXXXX.                 oXXXXXXXo                 .XXXXXXXX.                 XXXXXXXXO                       XXXXXXXXX",
"XXXXXXXXX                     .XXXXXXXXX.          oXXXXXXXX.        oXXXXXXXXXo.         OXXXXXXXXXXO        OXXXXXXXo                .XXXXXXXX.                 oXXXXXXXo                 .XXXXXXXX.                 XXXXXXXXO                       XXXXXXXXX",
"XXXXXXXXX                     OXXXXXXXXO            XXXXXXXXO       OXXXXXXXXXO            .XXXXXXXXXX        OXXXXXXXo                .XXXXXXXX.                 oXXXXXXXo                 .XXXXXXXX.                 XXXXXXXXO                       XXXXXXXXX",
"XXXXXXXXX                     OXXXXXXXX.            OXXXXXXXo       oXXXXXXXXO              .XXXXXXXXXO       OXXXXXXXo                .XXXXXXXX.                 oXXXXXXXo                 .XXXXXXXX.                 XXXXXXXXO                       XXXXXXXXX",
"XXXXXXXXX                     OXXXXXXXX             .oooooooO      .XXXXXXXXo                OXXXXXXXXo       OXXXXXXXo                .XXXXXXXX.                 oXXXXXXXo                 .XXXXXXXX.                 XXXXXXXXO                       XXXXXXXXX",
"XXXXXXXXX                     OXXXXXXXX.                           OXXXXXXXXO                 oXXXXXXXX.      OXXXXXXXo                .XXXXXXXX.                 oXXXXXXXo                 .XXXXXXXX.                 XXXXXXXXO                       XXXXXXXXX",
"XXXXXXXXX                     OXXXXXXXXo                           XXXXXXXXX                  OXXXXXXXXO      OXXXXXXXo                .XXXXXXXX.                 oXXXXXXXo                 .XXXXXXXX.                 XXXXXXXXO                       XXXXXXXXX",
"XXXXXXXXX                     .XXXXXXXXXo.                        .XXXXXXXXO                   XXXXXXXXo      OXXXXXXXo                .XXXXXXXX.                 oXXXXXXXo                 .XXXXXXXX.                 XXXXXXXXO                       XXXXXXXXX",
"XXXXXXXXX                      XXXXXXXXXXXO.                      .XXXXXXXX.                   oXXXXXXXo      OXXXXXXXo                .XXXXXXXX.                 oXXXXXXXo                 .XXXXXXXX.                 XXXXXXXXO                       XXXXXXXXX",
"XXXXXXXXX                      OXXXXXXXXXXXXXO..                  OXXXXXXXX                    OXXXXXXXX      OXXXXXXXo                .XXXXXXXX.                 oXXXXXXXo                 .XXXXXXXX.                 XXXXXXXXO                       XXXXXXXXX",
"XXXXXXXXX                       oXXXXXXXXXXXXXXXoO.               OXXXXXXXX                    OXXXXXXXX.     OXXXXXXXo                .XXXXXXXX.                 oXXXXXXXo                 .XXXXXXXXXXXXXXXXXXXXXXXXXXXXXXXXXXO                       XXXXXXXXX",
"XXXXXXXXX                       .XXXXXXXXXXXXXXXXXXXo.            oXXXXXXXo                    .XXXXXXXX.     OXXXXXXXo                .XXXXXXXX.                 oXXXXXXXo                 .XXXXXXXXXXXXXXXXXXXXXXXXXXXXXXXXXXO                       XXXXXXXXX",
"XXXXXXXXX                        .oXXXXXXXXXXXXXXXXXXXo.          oXXXXXXXo                    .XXXXXXXX.     OXXXXXXXo                .XXXXXXXX.                 oXXXXXXXo                 .XXXXXXXXXXXXXXXXXXXXXXXXXXXXXXXXXXO                       XXXXXXXXX",
"XXXXXXXXX                          OXXXXXXXXXXXXXXXXXXXXo         oXXXXXXXo                    .XXXXXXXX.     OXXXXXXXo                .XXXXXXXX.                 oXXXXXXXo                 .XXXXXXXXXXXXXXXXXXXXXXXXXXXXXXXXXXO                       XXXXXXXXX",
"XXXXXXXXX                           .OXXXXXXXXXXXXXXXXXXXX.       oXXXXXXXo                    .XXXXXXXX.     OXXXXXXXo                .XXXXXXXX.                 oXXXXXXXo                 .XXXXXXXXXXXXXXXXXXXXXXXXXXXXXXXXXXO                       XXXXXXXXX",
"XXXXXXXXX                              OoXXXXXXXXXXXXXXXXXX.      oXXXXXXXo                    .XXXXXXXX.     OXXXXXXXo                .XXXXXXXX.                 oXXXXXXXo                 .XXXXXXXXXXXXXXXXXXXXXXXXXXXXXXXXXXO                       XXXXXXXXX",
"XXXXXXXXX                                 .OoXXXXXXXXXXXXXXo      OXXXXXXXX                    OXXXXXXXX.     OXXXXXXXo                .XXXXXXXX.                 oXXXXXXXo                 .XXXXXXXXXXXXXXXXXXXXXXXXXXXXXXXXXXO                       XXXXXXXXX",
"XXXXXXXXX                                     .OoXXXXXXXXXXX.     OXXXXXXXX                    OXXXXXXXX      OXXXXXXXo                .XXXXXXXX.                 oXXXXXXXo                 .XXXXXXXX.                 XXXXXXXXO                       XXXXXXXXX",
"XXXXXXXXX                                        .oXXXXXXXXXo     .XXXXXXXX.                   oXXXXXXXo      OXXXXXXXo                .XXXXXXXX.                 oXXXXXXXo                 .XXXXXXXX.                 XXXXXXXXO                       XXXXXXXXX",
"XXXXXXXXX                                          OXXXXXXXXX     .XXXXXXXXO                   XXXXXXXXo      OXXXXXXXX                .XXXXXXXX.                 oXXXXXXXo                 .XXXXXXXX.                 XXXXXXXXO                       XXXXXXXXX",
"XXXXXXXXX                                           OXXXXXXXX.     XXXXXXXXX                  OXXXXXXXXO      OXXXXXXXX                OXXXXXXXX.                 oXXXXXXXo                 .XXXXXXXX.                 XXXXXXXXO                       XXXXXXXXX",
"XXXXXXXXX                    OoooooooO              .XXXXXXXX.     oXXXXXXXX.                 oXXXXXXXX.      OXXXXXXXX.               oXXXXXXXX                  oXXXXXXXo                 .XXXXXXXX.                 XXXXXXXXO                       XXXXXXXXX",
"XXXXXXXXX                    OXXXXXXXo              .XXXXXXXX.     .XXXXXXXXo                OXXXXXXXXo       .XXXXXXXXO               XXXXXXXXo                  oXXXXXXXo                 .XXXXXXXX.                 XXXXXXXXO                       XXXXXXXXX",
"XXXXXXXXX                    OXXXXXXXX.             .XXXXXXXX.      oXXXXXXXXO              .XXXXXXXXXO        XXXXXXXXX.             OXXXXXXXXo                  oXXXXXXXo                 .XXXXXXXX.                 XXXXXXXXO                       XXXXXXXXX",
"XXXXXXXXX                    .XXXXXXXXO             oXXXXXXXX.      OXXXXXXXXXO            .oXXXXXXXXX         oXXXXXXXXX.           .XXXXXXXXXO                  oXXXXXXXo                 .XXXXXXXX.                 XXXXXXXXO                       XXXXXXXXX",
"XXXXXXXXX                     XXXXXXXXXO           OXXXXXXXXX        oXXXXXXXXXo.         .XXXXXXXXXXO         OXXXXXXXXXX.         OXXXXXXXXXX                   oXXXXXXXo                 .XXXXXXXX.                 XXXXXXXXO                       XXXXXXXXX",
"XXXXXXXXX                     oXXXXXXXXXo.       .oXXXXXXXXXO        .XXXXXXXXXXXO..   .OoXXXXXXXXXXo           oXXXXXXXXXXo.    .OoXXXXXXXXXXO                   oXXXXXXXo                 .XXXXXXXX.                 XXXXXXXXO                       XXXXXXXXX",
"XXXXXXXXX                     .XXXXXXXXXXXXooOooXXXXXXXXXXXX.         OXXXXXXXXXXXXXXXXXXXXXXXXXXXXX.           .XXXXXXXXXXXXXXXXXXXXXXXXXXXXX                    oXXXXXXXo                 .XXXXXXXX.                 XXXXXXXXO                       XXXXXXXXX",
"XXXXXXXXX                      OXXXXXXXXXXXXXXXXXXXXXXXXXXXo           oXXXXXXXXXXXXXXXXXXXXXXXXXXX.             OXXXXXXXXXXXXXXXXXXXXXXXXXXX.                    oXXXXXXXo                 .XXXXXXXX.                 XXXXXXXXO                       XXXXXXXXX",
"XXXXXXXXX                       oXXXXXXXXXXXXXXXXXXXXXXXXXo             oXXXXXXXXXXXXXXXXXXXXXXXXX.               oXXXXXXXXXXXXXXXXXXXXXXXXXO                     oXXXXXXXo                 .XXXXXXXX.                 XXXXXXXXO                       XXXXXXXXX",
"XXXXXXXXX                        oXXXXXXXXXXXXXXXXXXXXXXXo.              oXXXXXXXXXXXXXXXXXXXXXXX.                 oXXXXXXXXXXXXXXXXXXXXXXXO                      oXXXXXXXo                 .XXXXXXXX.                 XXXXXXXXO                       XXXXXXXXX",
"XXXXXXXXX                         OXXXXXXXXXXXXXXXXXXXXXo                 .XXXXXXXXXXXXXXXXXXXXo.                   OXXXXXXXXXXXXXXXXXXXXo.                       oXXXXXXXo                 .XXXXXXXX.                 XXXXXXXXO                       XXXXXXXXX",
"XXXXXXXXX                          .oXXXXXXXXXXXXXXXXXo.                    OXXXXXXXXXXXXXXXXo.                      .oXXXXXXXXXXXXXXXXXO                         oXXXXXXXo                 .XXXXXXXX.                 XXXXXXXXO                       XXXXXXXXX",
"XXXXXXXXX                            .OoXXXXXXXXXXXoO.                        OoXXXXXXXXXXoO.                          .OoXXXXXXXXXXXo.                           oXXXXXXXo                 .XXXXXXXX.                 XXXXXXXXO                       XXXXXXXXX",
"XXXXXXXXX                                ..OOOOOO.                               ..OOOOO.                                  ..OOOOO..                                                                                                                   XXXXXXXXX",
"XXXXXXXXX                                                                                                                                                                                                                                              XXXXXXXXX",
"XXXXXXXXX                                                                                                                                                                                                                                              XXXXXXXXX",
"XXXXXXXXX                                                                                                                                                                                                                                              XXXXXXXXX",
"XXXXXXXXX                                                                                                                                                                                                                                              XXXXXXXXX",
"XXXXXXXXX                                                                                                                                                                                                                                              XXXXXXXXX",
"XXXXXXXXX                                                                                                                                                                                                                                              XXXXXXXXX",
"XXXXXXXXX                                                                                                                                                                                                                                              XXXXXXXXX",
"XXXXXXXXX                                                                                                                                                                                                                                              XXXXXXXXX",
"XXXXXXXXX                                                                                                                                                                                                                                              XXXXXXXXX",
"XXXXXXXXX                                                                                                                                                                                                                                              XXXXXXXXX",
"XXXXXXXXX                                                                                                                                                                                                                                              XXXXXXXXX",
"XXXXXXXXX                                                                                                                                                                                                                                              XXXXXXXXX",
"XXXXXXXXX                                                                                                                                                                                                                                              XXXXXXXXX",
"XXXXXXXXX                                                                                                                                                                                                                                              XXXXXXXXX",
"XXXXXXXXX                                                                                                                                                                                                                                              XXXXXXXXX",
"XXXXXXXXX                                                                                                                                                                                                                                              XXXXXXXXX",
"XXXXXXXXX                                                                                                                                                                                                                                              XXXXXXXXX",
"XXXXXXXXX                                                                                                                                                                                                                                              XXXXXXXXX",
"XXXXXXXXX                                                                                                                                                                                                                                              XXXXXXXXX",
"XXXXXXXXX                                                                                                                                                                                                                                              XXXXXXXXX",
"XXXXXXXXX                                                                                                                                                                                                                                              XXXXXXXXX",
"XXXXXXXXX                                                                                                                                                                                                                                              XXXXXXXXX",
"XXXXXXXXX                                                                                                                                                                                                                                              XXXXXXXXX",
"XXXXXXXXX                                                                                                                                                                                                                                              XXXXXXXXX",
"XXXXXXXXX                                                                                                                                                                                                                                              XXXXXXXXX",
"XXXXXXXXX                                                                                                                                                                                                                                              XXXXXXXXX",
"XXXXXXXXX                                                                                                                                                                                                                                              XXXXXXXXX",
"XXXXXXXXX                                                                                                                                                                                                                                              XXXXXXXXX",
"XXXXXXXXX                                                                                                                                                                                                                                              XXXXXXXXX",
"XXXXXXXXX                                                                                                                                                                                                                                              XXXXXXXXX",
"XXXXXXXXX                                                                                                                                                                                                                                              XXXXXXXXX",
"XXXXXXXXX                                                                                                                                                                                                                                              XXXXXXXXX",
"XXXXXXXXX                                                                                                                                                                                                                                              XXXXXXXXX",
"XXXXXXXXX                                                                                                                                                                                                                                              XXXXXXXXX",
"XXXXXXXXX                                                                                                                                                                                                                                              XXXXXXXXX",
"XXXXXXXXX                                                                                                                                                                                                                                              XXXXXXXXX",
"XXXXXXXXX                                                                                                                                                                                                                                              XXXXXXXXX",
"XXXXXXXXX                                                                                                                                                                                                                                              XXXXXXXXX",
"XXXXXXXXX                                                                                                                                                                                                                                              XXXXXXXXX",
"XXXXXXXXX                                                                                                                                                                                                                                              XXXXXXXXX",
"XXXXXXXXX                                                                                                                                                                                                                                              XXXXXXXXX",
"XXXXXXXXX                                                                                                                                                                                                                                              XXXXXXXXX",
"XXXXXXXXX                                                                                                                                                                                                                                              XXXXXXXXX",
"XXXXXXXXX                                                                                                                                                                                                                                              XXXXXXXXX",
"XXXXXXXXX                                                                                                                                                                                                                                              XXXXXXXXX",
"XXXXXXXXX                                                                                                                                                                                                                                              XXXXXXXXX",
"XXXXXXXXX                                                                                                                                                                                                                                              XXXXXXXXX",
"XXXXXXXXX                                                                                                                                                                                                                                              XXXXXXXXX",
"XXXXXXXXX                                                                                                                                                                                                                                              XXXXXXXXX",
"XXXXXXXXX                                                                                                                                                                                                                                              XXXXXXXXX",
"XXXXXXXXX                                                                                                                                                                                                                                              XXXXXXXXX",
"XXXXXXXXX                                                                                                                                                                                                                                              XXXXXXXXX",
"XXXXXXXXX                                                                                                                                                                                                                                              XXXXXXXXX",
"XXXXXXXXX                                                                                                                                                                                                                                              XXXXXXXXX",
"XXXXXXXXX                                                                                                                                                                                                                                              XXXXXXXXX",
"XXXXXXXXX                                                                                                                                                                                                                                              XXXXXXXXX",
"XXXXXXXXX                                                                                                                                                                                                                                              XXXXXXXXX",
"XXXXXXXXX                                                                                                                                                                                                                                              XXXXXXXXX",
"XXXXXXXXX                                                                                                                                                                                                                                              XXXXXXXXX",
"XXXXXXXXX                                                                                                                                                                                                                                              XXXXXXXXX",
"XXXXXXXXX                                                                                                                                                                                                                                              XXXXXXXXX",
"XXXXXXXXX                                                                                                                                                                                                                                              XXXXXXXXX",
"XXXXXXXXX                                                                                                                                                                                                                                              XXXXXXXXX",
"XXXXXXXXX                                                                                                                                                                                                                                              XXXXXXXXX",
"XXXXXXXXX                                                                                                                                                                                                                                              XXXXXXXXX",
"XXXXXXXXX                                                                                                                                                                                                  .XXXXXXXXXXo.      oXXXXXXXXXoO.            XXXXXXXXX",
"XXXXXXXXX                                                                                                                                                                                                  .XXXXXXXXXXXXo.    oXXXXXXXXXXXX.           XXXXXXXXX",
"XXXXXXXXX                                                                                                                                                                                                  .XXXXXXXXXXXXXo    oXXXXXXXXXXXXX.          XXXXXXXXX",
"XXXXXXXXX                                                                                                                                                                                                  .XXXXOOOOoXXXXX.   oXXXoOOOoXXXXXo          XXXXXXXXX",
"XXXXXXXXX                                                                                                                                                                                                  .XXXX     .XXXXO   oXXXO     OXXXX.         XXXXXXXXX",
"XXXXXXXXX                                                                                                                                                                                                  .XXXX      oXXXo   oXXXO      XXXXO         XXXXXXXXX",
"XXXXXXXXX                                                                                                                                                                                                  .XXXX      oXXXO   oXXXO      oXXXO         XXXXXXXXX",
"XXXXXXXXX                                                                                                                                                                                                  .XXXX      XXXX.   oXXXO      oXXXO         XXXXXXXXX",
"XXXXXXXXX                                                                                                                                                                                                  .XXXX    .oXXXo    oXXXO     .XXXXO         XXXXXXXXX",
"XXXXXXXXX                                                                                                                                                                                                  .XXXXXXXXXXXXO     oXXXO   .OXXXXX.         XXXXXXXXX",
"XXXXXXXXX                                                                                                                                                                                                  .XXXXXXXXXXXo.     oXXXXXXXXXXXXXo          XXXXXXXXX",
"XXXXXXXXX                                                                                                                                                                                                  .XXXXXXXXXXXXXo    oXXXXXXXXXXXXo           XXXXXXXXX",
"XXXXXXXXX                                                                                                                                                                                                  .XXXX     OXXXXo   oXXXXXXXXXXXO            XXXXXXXXX",
"XXXXXXXXX                                                                                                                                                                                                  .XXXX      .XXXX.  oXXXXOOoXXXXO            XXXXXXXXX",
"XXXXXXXXX                                                                                                                                                                                                  .XXXX       XXXXO  oXXXO   oXXXX            XXXXXXXXX",
"XXXXXXXXX                                                                                                                                                                                                  .XXXX       XXXXO  oXXXO   .XXXXO           XXXXXXXXX",
"XXXXXXXXX                                                                                                                                                                                                  .XXXX      OXXXX.  oXXXO    oXXXX           XXXXXXXXX",
"XXXXXXXXX                                                                                                                                                                                                  .XXXXOOOOoXXXXXX   oXXXO    .XXXXO          XXXXXXXXX",
"XXXXXXXXX                                                                                                                                                                                                  .XXXXXXXXXXXXXXO   oXXXO     OXXXX.         XXXXXXXXX",
"XXXXXXXXX                                                                                                                                                                                                  .XXXXXXXXXXXXXO    oXXXO     .XXXXO         XXXXXXXXX",
"XXXXXXXXX                                                                                                                                                                                                  .XXXXXXXXXXoO.     oXXXO      OXXXX.        XXXXXXXXX",
"XXXXXXXXX                                                                                                                                                                                                                                              XXXXXXXXX",
"XXXXXXXXX                                                                                                                                                                                                                                              XXXXXXXXX",
"XXXXXXXXX                                                                                                                                                                                                                                              XXXXXXXXX",
"XXXXXXXXX                                                                                                                                                                                                                                              XXXXXXXXX",
"XXXXXXXXX                                                                                                                                                                                                                                              XXXXXXXXX",
"XXXXXXXXX                                                                                                                                                                                                                                              XXXXXXXXX",
"XXXXXXXXX                                                                                                                                                                                                                                              XXXXXXXXX",
"XXXXXXXXX                                                                                                                                                                                                                                              XXXXXXXXX",
"XXXXXXXXX                                                                                                                                                                                                                                              XXXXXXXXX",
"XXXXXXXXX                                                                                                                                                                                                                                              XXXXXXXXX",
"XXXXXXXXX                                                                                                                                                                                                                                              XXXXXXXXX",
"XXXXXXXXX                                                                                                                                                                                                                                              XXXXXXXXX",
"XXXXXXXXXXXXXXXXXXXXXXXXXXXXXXXXXXXXXXXXXXXXXXXXXXXXXXXXXXXXXXXXXXXXXXXXXXXXXXXXXXXXXXXXXXXXXXXXXXXXXXXXXXXXXXXXXXXXXXXXXXXXXXXXXXXXXXXXXXXXXXXXXXXXXXXXXXXXXXXXXXXXXXXXXXXXXXXXXXXXXXXXXXXXXXXXXXXXXXXXXXXXXXXXXXXXXXXXXXXXXXXXXXXXXXXXXXXXXXXXXXXXXXXXXXXXXXXX",
"XXXXXXXXXXXXXXXXXXXXXXXXXXXXXXXXXXXXXXXXXXXXXXXXXXXXXXXXXXXXXXXXXXXXXXXXXXXXXXXXXXXXXXXXXXXXXXXXXXXXXXXXXXXXXXXXXXXXXXXXXXXXXXXXXXXXXXXXXXXXXXXXXXXXXXXXXXXXXXXXXXXXXXXXXXXXXXXXXXXXXXXXXXXXXXXXXXXXXXXXXXXXXXXXXXXXXXXXXXXXXXXXXXXXXXXXXXXXXXXXXXXXXXXXXXXXXXXX",
"XXXXXXXXXXXXXXXXXXXXXXXXXXXXXXXXXXXXXXXXXXXXXXXXXXXXXXXXXXXXXXXXXXXXXXXXXXXXXXXXXXXXXXXXXXXXXXXXXXXXXXXXXXXXXXXXXXXXXXXXXXXXXXXXXXXXXXXXXXXXXXXXXXXXXXXXXXXXXXXXXXXXXXXXXXXXXXXXXXXXXXXXXXXXXXXXXXXXXXXXXXXXXXXXXXXXXXXXXXXXXXXXXXXXXXXXXXXXXXXXXXXXXXXXXXXXXXXX",
"XXXXXXXXXXXXXXXXXXXXXXXXXXXXXXXXXXXXXXXXXXXXXXXXXXXXXXXXXXXXXXXXXXXXXXXXXXXXXXXXXXXXXXXXXXXXXXXXXXXXXXXXXXXXXXXXXXXXXXXXXXXXXXXXXXXXXXXXXXXXXXXXXXXXXXXXXXXXXXXXXXXXXXXXXXXXXXXXXXXXXXXXXXXXXXXXXXXXXXXXXXXXXXXXXXXXXXXXXXXXXXXXXXXXXXXXXXXXXXXXXXXXXXXXXXXXXXXX",
"XXXXXXXXXXXXXXXXXXXXXXXXXXXXXXXXXXXXXXXXXXXXXXXXXXXXXXXXXXXXXXXXXXXXXXXXXXXXXXXXXXXXXXXXXXXXXXXXXXXXXXXXXXXXXXXXXXXXXXXXXXXXXXXXXXXXXXXXXXXXXXXXXXXXXXXXXXXXXXXXXXXXXXXXXXXXXXXXXXXXXXXXXXXXXXXXXXXXXXXXXXXXXXXXXXXXXXXXXXXXXXXXXXXXXXXXXXXXXXXXXXXXXXXXXXXXXXXX",
"XXXXXXXXXXXXXXXXXXXXXXXXXXXXXXXXXXXXXXXXXXXXXXXXXXXXXXXXXXXXXXXXXXXXXXXXXXXXXXXXXXXXXXXXXXXXXXXXXXXXXXXXXXXXXXXXXXXXXXXXXXXXXXXXXXXXXXXXXXXXXXXXXXXXXXXXXXXXXXXXXXXXXXXXXXXXXXXXXXXXXXXXXXXXXXXXXXXXXXXXXXXXXXXXXXXXXXXXXXXXXXXXXXXXXXXXXXXXXXXXXXXXXXXXXXXXXXXX",
"XXXXXXXXXXXXXXXXXXXXXXXXXXXXXXXXXXXXXXXXXXXXXXXXXXXXXXXXXXXXXXXXXXXXXXXXXXXXXXXXXXXXXXXXXXXXXXXXXXXXXXXXXXXXXXXXXXXXXXXXXXXXXXXXXXXXXXXXXXXXXXXXXXXXXXXXXXXXXXXXXXXXXXXXXXXXXXXXXXXXXXXXXXXXXXXXXXXXXXXXXXXXXXXXXXXXXXXXXXXXXXXXXXXXXXXXXXXXXXXXXXXXXXXXXXXXXXXX",
"XXXXXXXXXXXXXXXXXXXXXXXXXXXXXXXXXXXXXXXXXXXXXXXXXXXXXXXXXXXXXXXXXXXXXXXXXXXXXXXXXXXXXXXXXXXXXXXXXXXXXXXXXXXXXXXXXXXXXXXXXXXXXXXXXXXXXXXXXXXXXXXXXXXXXXXXXXXXXXXXXXXXXXXXXXXXXXXXXXXXXXXXXXXXXXXXXXXXXXXXXXXXXXXXXXXXXXXXXXXXXXXXXXXXXXXXXXXXXXXXXXXXXXXXXXXXXXXX",
"XXXXXXXXXXXXXXXXXXXXXXXXXXXXXXXXXXXXXXXXXXXXXXXXXXXXXXXXXXXXXXXXXXXXXXXXXXXXXXXXXXXXXXXXXXXXXXXXXXXXXXXXXXXXXXXXXXXXXXXXXXXXXXXXXXXXXXXXXXXXXXXXXXXXXXXXXXXXXXXXXXXXXXXXXXXXXXXXXXXXXXXXXXXXXXXXXXXXXXXXXXXXXXXXXXXXXXXXXXXXXXXXXXXXXXXXXXXXXXXXXXXXXXXXXXXXXXXX"
};
