/* XPM */
static char *west[] = {
/* columns rows colors chars-per-pixel */
"256 256 5 1 ",
"  c #BFBF40",
". c #C9C95D",
"X c #FFFFFF",
"o c #EFEFCF",
"O c #E0E0A3",
/* pixels */
"XXXXXXXXXXXXXXXXXXXXXXXXXXXXXXXXXXXXXXXXXXXXXXXXXXXXXXXXXXXXXXXXXXXXXXXXXXXXXXXXXXXXXXXXXXXXXXXXXXXXXXXXXXXXXXXXXXXXXXXXXXXXXXXXXXXXXXXXXXXXXXXXXXXXXXXXXXXXXXXXXXXXXXXXXXXXXXXXXXXXXXXXXXXXXXXXXXXXXXXXXXXXXXXXXXXXXXXXXXXXXXXXXXXXXXXXXXXXXXXXXXXXXXXXXXXXXXXX",
"XXXXXXXXXXXXXXXXXXXXXXXXXXXXXXXXXXXXXXXXXXXXXXXXXXXXXXXXXXXXXXXXXXXXXXXXXXXXXXXXXXXXXXXXXXXXXXXXXXXXXXXXXXXXXXXXXXXXXXXXXXXXXXXXXXXXXXXXXXXXXXXXXXXXXXXXXXXXXXXXXXXXXXXXXXXXXXXXXXXXXXXXXXXXXXXXXXXXXXXXXXXXXXXXXXXXXXXXXXXXXXXXXXXXXXXXXXXXXXXXXXXXXXXXXXXXXXXX",
"XXXXXXXXXXXXXXXXXXXXXXXXXXXXXXXXXXXXXXXXXXXXXXXXXXXXXXXXXXXXXXXXXXXXXXXXXXXXXXXXXXXXXXXXXXXXXXXXXXXXXXXXXXXXXXXXXXXXXXXXXXXXXXXXXXXXXXXXXXXXXXXXXXXXXXXXXXXXXXXXXXXXXXXXXXXXXXXXXXXXXXXXXXXXXXXXXXXXXXXXXXXXXXXXXXXXXXXXXXXXXXXXXXXXXXXXXXXXXXXXXXXXXXXXXXXXXXXX",
"XXXXXXXXXXXXXXXXXXXXXXXXXXXXXXXXXXXXXXXXXXXXXXXXXXXXXXXXXXXXXXXXXXXXXXXXXXXXXXXXXXXXXXXXXXXXXXXXXXXXXXXXXXXXXXXXXXXXXXXXXXXXXXXXXXXXXXXXXXXXXXXXXXXXXXXXXXXXXXXXXXXXXXXXXXXXXXXXXXXXXXXXXXXXXXXXXXXXXXXXXXXXXXXXXXXXXXXXXXXXXXXXXXXXXXXXXXXXXXXXXXXXXXXXXXXXXXXX",
"XXXXXXXXXXXXXXXXXXXXXXXXXXXXXXXXXXXXXXXXXXXXXXXXXXXXXXXXXXXXXXXXXXXXXXXXXXXXXXXXXXXXXXXXXXXXXXXXXXXXXXXXXXXXXXXXXXXXXXXXXXXXXXXXXXXXXXXXXXXXXXXXXXXXXXXXXXXXXXXXXXXXXXXXXXXXXXXXXXXXXXXXXXXXXXXXXXXXXXXXXXXXXXXXXXXXXXXXXXXXXXXXXXXXXXXXXXXXXXXXXXXXXXXXXXXXXXXX",
"XXXXXXXXXXXXXXXXXXXXXXXXXXXXXXXXXXXXXXXXXXXXXXXXXXXXXXXXXXXXXXXXXXXXXXXXXXXXXXXXXXXXXXXXXXXXXXXXXXXXXXXXXXXXXXXXXXXXXXXXXXXXXXXXXXXXXXXXXXXXXXXXXXXXXXXXXXXXXXXXXXXXXXXXXXXXXXXXXXXXXXXXXXXXXXXXXXXXXXXXXXXXXXXXXXXXXXXXXXXXXXXXXXXXXXXXXXXXXXXXXXXXXXXXXXXXXXXX",
"XXXXXXXXXXXXXXXXXXXXXXXXXXXXXXXXXXXXXXXXXXXXXXXXXXXXXXXXXXXXXXXXXXXXXXXXXXXXXXXXXXXXXXXXXXXXXXXXXXXXXXXXXXXXXXXXXXXXXXXXXXXXXXXXXXXXXXXXXXXXXXXXXXXXXXXXXXXXXXXXXXXXXXXXXXXXXXXXXXXXXXXXXXXXXXXXXXXXXXXXXXXXXXXXXXXXXXXXXXXXXXXXXXXXXXXXXXXXXXXXXXXXXXXXXXXXXXXX",
"XXXXXXXXXXXXXXXXXXXXXXXXXXXXXXXXXXXXXXXXXXXXXXXXXXXXXXXXXXXXXXXXXXXXXXXXXXXXXXXXXXXXXXXXXXXXXXXXXXXXXXXXXXXXXXXXXXXXXXXXXXXXXXXXXXXXXXXXXXXXXXXXXXXXXXXXXXXXXXXXXXXXXXXXXXXXXXXXXXXXXXXXXXXXXXXXXXXXXXXXXXXXXXXXXXXXXXXXXXXXXXXXXXXXXXXXXXXXXXXXXXXXXXXXXXXXXXXX",
"XXXXXXXXXXXXXXXXXXXXXXXXXXXXXXXXXXXXXXXXXXXXXXXXXXXXXXXXXXXXXXXXXXXXXXXXXXXXXXXXXXXXXXXXXXXXXXXXXXXXXXXXXXXXXXXXXXXXXXXXXXXXXXXXXXXXXXXXXXXXXXXXXXXXXXXXXXXXXXXXXXXXXXXXXXXXXXXXXXXXXXXXXXXXXXXXXXXXXXXXXXXXXXXXXXXXXXXXXXXXXXXXXXXXXXXXXXXXXXXXXXXXXXXXXXXXXXXX",
"XXXXXXXXX                                                                                                                                                                                                                                              XXXXXXXXX",
"XXXXXXXXX                                                                                                                                                                                                                                              XXXXXXXXX",
"XXXXXXXXX                                                                                                                                                                                                                                              XXXXXXXXX",
"XXXXXXXXX                                                                                                                                                                                                                                              XXXXXXXXX",
"XXXXXXXXX                                                                                                                                                                                                                                              XXXXXXXXX",
"XXXXXXXXX        XXXXXXXXXXXXXXXXo  OXXXo                                                                                                                                                                                                              XXXXXXXXX",
"XXXXXXXXX        XXXXXXXXXXXXXXXXo  OXXXo                                                                                                                                                                                                              XXXXXXXXX",
"XXXXXXXXX        XXXXXXXXXXXXXXXXo  OXXXo                                                                                                                                                                                                              XXXXXXXXX",
"XXXXXXXXX        OOOOOOXXXXoOOOOOO  OXXXo                                                                                                                                                                                                              XXXXXXXXX",
"XXXXXXXXX              oXXXO        OXXXo                                                                                                                                                                                                              XXXXXXXXX",
"XXXXXXXXX              oXXXO        OXXXo                                                                                                                                                                                                              XXXXXXXXX",
"XXXXXXXXX              oXXXO        OXXXo                                                                                                                                                                                                              XXXXXXXXX",
"XXXXXXXXX              oXXXO        OXXXo                                                                                                                                                                                                              XXXXXXXXX",
"XXXXXXXXX              oXXXO        OXXXo                                                                                                                                                                                                              XXXXXXXXX",
"XXXXXXXXX              oXXXO        OXXXo                                                                                                                                                                                                              XXXXXXXXX",
"XXXXXXXXX              oXXXO        OXXXo                                                                                                                                                                                                              XXXXXXXXX",
"XXXXXXXXX              oXXXO        OXXXo                                                                                                                                                                                                              XXXXXXXXX",
"XXXXXXXXX              oXXXO        OXXXo                                                                                                                                                                                                              XXXXXXXXX",
"XXXXXXXXX              oXXXO        OXXXo                                                                                                                                                                                                              XXXXXXXXX",
"XXXXXXXXX              oXXXO        OXXXo                                                                                                                                                                                                              XXXXXXXXX",
"XXXXXXXXX              oXXXO        OXXXo                                                                                                                                                                                                              XXXXXXXXX",
"XXXXXXXXX              oXXXO        OXXXo                                                                                                                                                                                                              XXXXXXXXX",
"XXXXXXXXX              oXXXO        OXXXXOOOOOOOO.                                                                                                                                                                                                     XXXXXXXXX",
"XXXXXXXXX              oXXXO        OXXXXXXXXXXXXO                                                                                                                                                                                                     XXXXXXXXX",
"XXXXXXXXX              oXXXO        OXXXXXXXXXXXXO                                                                                                                                                                                                     XXXXXXXXX",
"XXXXXXXXX              oXXXO        OXXXXXXXXXXXXO                                                                                                                                                                                                     XXXXXXXXX",
"XXXXXXXXX                                                                                                                                                                                                                                              XXXXXXXXX",
"XXXXXXXXX                                                                                                                                                                                                                                              XXXXXXXXX",
"XXXXXXXXX                                                                                                                                                                                                                                              XXXXXXXXX",
"XXXXXXXXX                                                                                                                                                                                                                                              XXXXXXXXX",
"XXXXXXXXX                                                                                                                                                                                                                                              XXXXXXXXX",
"XXXXXXXXX                                                                                                                                                                                                                                              XXXXXXXXX",
"XXXXXXXXX                                                                                                                                                                                                                                              XXXXXXXXX",
"XXXXXXXXX                                                                                                                                                                                                                                              XXXXXXXXX",
"XXXXXXXXX                                                                                                                                                                                                                                              XXXXXXXXX",
"XXXXXXXXX                                                                                                                                                                                                                                              XXXXXXXXX",
"XXXXXXXXX                                                                                                                                                                                                                                              XXXXXXXXX",
"XXXXXXXXX                                                                                                                                                                                                                                              XXXXXXXXX",
"XXXXXXXXX                                                                                                                                                                                                                                              XXXXXXXXX",
"XXXXXXXXX                                                                                                                                                                                                                                              XXXXXXXXX",
"XXXXXXXXX                                                                                                                                                                                                                                              XXXXXXXXX",
"XXXXXXXXX                                                                                                                                                                                                                                              XXXXXXXXX",
"XXXXXXXXX                                                                                                                                                                                                                                              XXXXXXXXX",
"XXXXXXXXX                                                                                                                                                                                                                                              XXXXXXXXX",
"XXXXXXXXX                                                                                                                                                                                                                                              XXXXXXXXX",
"XXXXXXXXX                                                                                                                                                                                                                                              XXXXXXXXX",
"XXXXXXXXX                                                                                                                                                                                                                                              XXXXXXXXX",
"XXXXXXXXX                                                                                                                                                                                                                                              XXXXXXXXX",
"XXXXXXXXX                                                                                                                                                                                                                                              XXXXXXXXX",
"XXXXXXXXX                                                                                                                                                                                                                                              XXXXXXXXX",
"XXXXXXXXX                                                                                                                                                                                                                                              XXXXXXXXX",
"XXXXXXXXX                                                                                                                                                                                                                                              XXXXXXXXX",
"XXXXXXXXX                                                                                                                                                                                                                                              XXXXXXXXX",
"XXXXXXXXX                                                                                                                                                                                                                                              XXXXXXXXX",
"XXXXXXXXX                                                                                                                                                                                                                                              XXXXXXXXX",
"XXXXXXXXX                                                                                                                                                                                                                                              XXXXXXXXX",
"XXXXXXXXX                                                                                                                                                                                                                                              XXXXXXXXX",
"XXXXXXXXX                                                                                                                                                                                                                                              XXXXXXXXX",
"XXXXXXXXX                                                                                                                                                                                                                                              XXXXXXXXX",
"XXXXXXXXX                                                                                                                                                                                                                                              XXXXXXXXX",
"XXXXXXXXX                                                                                                                                                                                                                                              XXXXXXXXX",
"XXXXXXXXX                                                                                                                                                                                                                                              XXXXXXXXX",
"XXXXXXXXX                                                                                                                                                                                                                                              XXXXXXXXX",
"XXXXXXXXX                                                                                                                                                                                                                                              XXXXXXXXX",
"XXXXXXXXX                                                                                                                                                                                                                                              XXXXXXXXX",
"XXXXXXXXX                                                                                                                                                                                                                                              XXXXXXXXX",
"XXXXXXXXX                                                                                                                                                                                                                                              XXXXXXXXX",
"XXXXXXXXX                                                                                                                                                                                                                                              XXXXXXXXX",
"XXXXXXXXX                                                                                                                                                                                                                                              XXXXXXXXX",
"XXXXXXXXX                                                                                                                                                                                                                                              XXXXXXXXX",
"XXXXXXXXX                                                                                                                                                                                                                                              XXXXXXXXX",
"XXXXXXXXX                                                                                                                                                                                                                                              XXXXXXXXX",
"XXXXXXXXX                                                                                                                                                                                                                                              XXXXXXXXX",
"XXXXXXXXX                                                                                                                                                                                                                                              XXXXXXXXX",
"XXXXXXXXX                                                                                                                                                                                                                                              XXXXXXXXX",
"XXXXXXXXX                                                                                                                                                                                                                                              XXXXXXXXX",
"XXXXXXXXX                                                                                                                                                                                                                                              XXXXXXXXX",
"XXXXXXXXX                                                                                                                                                                                                                                              XXXXXXXXX",
"XXXXXXXXX                                                                                                                                                                                                                                              XXXXXXXXX",
"XXXXXXXXX                                                                                                                                                                                                                                              XXXXXXXXX",
"XXXXXXXXX                                                                                                                                                                                                                                              XXXXXXXXX",
"XXXXXXXXX                                                                                                                                                                                                                                              XXXXXXXXX",
"XXXXXXXXX                                                                                                                                                                                                                                              XXXXXXXXX",
"XXXXXXXXX                                                                                                                                                                                                                                              XXXXXXXXX",
"XXXXXXXXX                                                                                                                                                                                                                                              XXXXXXXXX",
"XXXXXXXXX                                                                                                                                                                                                                                              XXXXXXXXX",
"XXXXXXXXX                                                                                                                                                                                                                                              XXXXXXXXX",
"XXXXXXXXX                                                                                                                                                                                                                                              XXXXXXXXX",
"XXXXXXXXX                                                                                                                                                                                                                                              XXXXXXXXX",
"XXXXXXXXX                                                                                                                                                                                                                                              XXXXXXXXX",
"XXXXXXXXX                                                                                                                                                                                                                                              XXXXXXXXX",
"XXXXXXXXX                                                                                                                                                                                                                                              XXXXXXXXX",
"XXXXXXXXX                                                                                                                                                                                                                                              XXXXXXXXX",
"XXXXXXXXX                                                                                                                                                                                                                                              XXXXXXXXX",
"XXXXXXXXX                                                                                                                                                                                                                                              XXXXXXXXX",
"XXXXXXXXX                                                                                                                                                                                                                                              XXXXXXXXX",
"XXXXXXXXX                                                                                                                                                                                                                                              XXXXXXXXX",
"XXXXXXXXX                                                                                                                                               .OOOOOO.                                                                                       XXXXXXXXX",
"XXXXXXXXX                                     OXXXXXXXXO             OXXXXXXXXO             OXXXXXXXXO    .XXXXXXXXXXXXXXXXXXXXXXXXXXX              .OoXXXXXXXXXXoO            OXXXXXXXXXXXXXXXXXXXXXXXXXXXXXXXXo                                      XXXXXXXXX",
"XXXXXXXXX                                     .XXXXXXXXo             oXXXXXXXXo             oXXXXXXXXO    .XXXXXXXXXXXXXXXXXXXXXXXXXXX            .oXXXXXXXXXXXXXXXXO          OXXXXXXXXXXXXXXXXXXXXXXXXXXXXXXXXo                                      XXXXXXXXX",
"XXXXXXXXX                                      XXXXXXXXX             XXXXXXXXXX             XXXXXXXXX.    .XXXXXXXXXXXXXXXXXXXXXXXXXXX           OXXXXXXXXXXXXXXXXXXXX.        OXXXXXXXXXXXXXXXXXXXXXXXXXXXXXXXXo                                      XXXXXXXXX",
"XXXXXXXXX                                      oXXXXXXXX.           .XXXXXXXXXX.           .XXXXXXXXo     .XXXXXXXXXXXXXXXXXXXXXXXXXXX          oXXXXXXXXXXXXXXXXXXXXXXO       OXXXXXXXXXXXXXXXXXXXXXXXXXXXXXXXXo                                      XXXXXXXXX",
"XXXXXXXXX                                      OXXXXXXXXO           OXXXXXXXXXXO           OXXXXXXXXO     .XXXXXXXXXXXXXXXXXXXXXXXXXXX         oXXXXXXXXXXXXXXXXXXXXXXXX.      OXXXXXXXXXXXXXXXXXXXXXXXXXXXXXXXXo                                      XXXXXXXXX",
"XXXXXXXXX                                      .XXXXXXXXo           oXXXXXXXXXXo           oXXXXXXXX.     .XXXXXXXXXXXXXXXXXXXXXXXXXXX        OXXXXXXXXXXXXXXXXXXXXXXXXXX.     OXXXXXXXXXXXXXXXXXXXXXXXXXXXXXXXXo                                      XXXXXXXXX",
"XXXXXXXXX                                       XXXXXXXXX           XXXXXXXXXXXX           XXXXXXXXX      .XXXXXXXXXXXXXXXXXXXXXXXXXXX       .XXXXXXXXXXXooOOoXXXXXXXXXXXo     OXXXXXXXXXXXXXXXXXXXXXXXXXXXXXXXXo                                      XXXXXXXXX",
"XXXXXXXXX                                       oXXXXXXXX.         .XXXXXXXXXXXX.         .XXXXXXXXo      .XXXXXXXX.                         OXXXXXXXXXO       .oXXXXXXXXX.                .XXXXXXXX.                                                  XXXXXXXXX",
"XXXXXXXXX                                       OXXXXXXXXO         OXXXXXXXXXXXXO         OXXXXXXXXO      .XXXXXXXX.                         XXXXXXXXX.          OXXXXXXXXO                .XXXXXXXX.                                                  XXXXXXXXX",
"XXXXXXXXX                                       .XXXXXXXXo         OXXXXXXXXXXXXo         OXXXXXXXX.      .XXXXXXXX.                        .XXXXXXXXO            oXXXXXXXo                .XXXXXXXX.                                                  XXXXXXXXX",
"XXXXXXXXX                                        oXXXXXXXX         oXXXXXXXXXXXXX         oXXXXXXXX       .XXXXXXXX.                        OXXXXXXXX.            OXXXXXXXo                .XXXXXXXX.                                                  XXXXXXXXX",
"XXXXXXXXX                                        OXXXXXXXX.       .XXXXXXooXXXXXX.        XXXXXXXXo       .XXXXXXXX.                        OXXXXXXXX.            .oooooooO                .XXXXXXXX.                                                  XXXXXXXXX",
"XXXXXXXXX                                        .XXXXXXXXO       OXXXXXXoOXXXXXXO       .XXXXXXXXO       .XXXXXXXX.                        OXXXXXXXXO                                     .XXXXXXXX.                                                  XXXXXXXXX",
"XXXXXXXXX                                         XXXXXXXXO       OXXXXXXOOXXXXXXo       OXXXXXXXX.       .XXXXXXXX.                        .XXXXXXXXo                                     .XXXXXXXX.                                                  XXXXXXXXX",
"XXXXXXXXX                                         oXXXXXXXo       oXXXXXXO.XXXXXXX       oXXXXXXXX        .XXXXXXXX.                        .XXXXXXXXXo.                                   .XXXXXXXX.                                                  XXXXXXXXX",
"XXXXXXXXX                                         OXXXXXXXX.     .XXXXXXX..XXXXXXX.      XXXXXXXXO        .XXXXXXXX.                         oXXXXXXXXXXO.                                 .XXXXXXXX.                                                  XXXXXXXXX",
"XXXXXXXXX                                         .XXXXXXXX.     OXXXXXXX  XXXXXXXO     .XXXXXXXXO        .XXXXXXXX.                         OXXXXXXXXXXXXXOO.                             .XXXXXXXX.                                                  XXXXXXXXX",
"XXXXXXXXX                                          XXXXXXXXO     OXXXXXXo  oXXXXXXo     OXXXXXXXX.        .XXXXXXXXXXXXXXXXXXXXXXXXXo         oXXXXXXXXXXXXXXXoOO                          .XXXXXXXX.                                                  XXXXXXXXX",
"XXXXXXXXX                                          oXXXXXXXo     oXXXXXXO  OXXXXXXX     oXXXXXXXo         .XXXXXXXXXXXXXXXXXXXXXXXXXo         .oXXXXXXXXXXXXXXXXXXo.                       .XXXXXXXX.                                                  XXXXXXXXX",
"XXXXXXXXX                                          OXXXXXXXX    .XXXXXXX.  .XXXXXXX.    XXXXXXXXO         .XXXXXXXXXXXXXXXXXXXXXXXXXo          .oXXXXXXXXXXXXXXXXXXXoO                     .XXXXXXXX.                                                  XXXXXXXXX",
"XXXXXXXXX                                          .XXXXXXXX.   .XXXXXXX.   XXXXXXXO   .XXXXXXXX.         .XXXXXXXXXXXXXXXXXXXXXXXXXo            OXXXXXXXXXXXXXXXXXXXXo.                   .XXXXXXXX.                                                  XXXXXXXXX",
"XXXXXXXXX                                           XXXXXXXXO   OXXXXXXo    oXXXXXXo   OXXXXXXXX          .XXXXXXXXXXXXXXXXXXXXXXXXXo             .OXXXXXXXXXXXXXXXXXXXX.                  .XXXXXXXX.                                                  XXXXXXXXX",
"XXXXXXXXX                                           oXXXXXXXo   oXXXXXXO    OXXXXXXX   OXXXXXXXo          .XXXXXXXXXXXXXXXXXXXXXXXXXo                .OXXXXXXXXXXXXXXXXXX.                 .XXXXXXXX.                                                  XXXXXXXXX",
"XXXXXXXXX                                           OXXXXXXXo   XXXXXXX.    .XXXXXXX.  oXXXXXXXO          .XXXXXXXXoooooooooooooooooO                   .OoXXXXXXXXXXXXXXo                 .XXXXXXXX.                                                  XXXXXXXXX",
"XXXXXXXXX                                           .XXXXXXXX  .XXXXXXX      XXXXXXX.  XXXXXXXX.          .XXXXXXXX.                                        .OoXXXXXXXXXXXO                .XXXXXXXX.                                                  XXXXXXXXX",
"XXXXXXXXX                                            oXXXXXXX. OXXXXXXo      oXXXXXXO .XXXXXXXX           .XXXXXXXX.                                           .OXXXXXXXXXo                .XXXXXXXX.                                                  XXXXXXXXX",
"XXXXXXXXX                                            OXXXXXXXO OXXXXXXO      OXXXXXXo .XXXXXXXo           .XXXXXXXX.                                             .XXXXXXXXX.               .XXXXXXXX.                                                  XXXXXXXXX",
"XXXXXXXXX                                            .XXXXXXXO oXXXXXX.      .XXXXXXo OXXXXXXXO           .XXXXXXXX.                                              OXXXXXXXX.               .XXXXXXXX.                                                  XXXXXXXXX",
"XXXXXXXXX                                             XXXXXXXo XXXXXXX        XXXXXXX oXXXXXXX.           .XXXXXXXX.                       OoooooooO               XXXXXXXXO               .XXXXXXXX.                                                  XXXXXXXXX",
"XXXXXXXXX                                             oXXXXXXo.XXXXXXo        oXXXXXX.oXXXXXXX            .XXXXXXXX.                       OXXXXXXXo               XXXXXXXXO               .XXXXXXXX.                                                  XXXXXXXXX",
"XXXXXXXXX                                             OXXXXXXX.XXXXXXO        OXXXXXXOXXXXXXXO            .XXXXXXXX.                       .XXXXXXXX.             .XXXXXXXXO               .XXXXXXXX.                                                  XXXXXXXXX",
"XXXXXXXXX                                             .XXXXXXXoXXXXXX.        .XXXXXXoXXXXXXXO            .XXXXXXXX.                       .XXXXXXXXo             OXXXXXXXX.               .XXXXXXXX.                                                  XXXXXXXXX",
"XXXXXXXXX                                              XXXXXXXXXXXXXX          XXXXXXXXXXXXXX             .XXXXXXXX.                        oXXXXXXXXO           OXXXXXXXXX                .XXXXXXXX.                                                  XXXXXXXXX",
"XXXXXXXXX                                              oXXXXXXXXXXXXo          oXXXXXXXXXXXXo             .XXXXXXXX.                        OXXXXXXXXXoO       .oXXXXXXXXXo                .XXXXXXXX.                                                  XXXXXXXXX",
"XXXXXXXXX                                              OXXXXXXXXXXXXO          OXXXXXXXXXXXXO             .XXXXXXXXXXXXXXXXXXXXXXXXXXX.      XXXXXXXXXXXXooOooXXXXXXXXXXXX.                .XXXXXXXX.                                                  XXXXXXXXX",
"XXXXXXXXX                                              .XXXXXXXXXXXX.          .XXXXXXXXXXXX.             .XXXXXXXXXXXXXXXXXXXXXXXXXXX.      OXXXXXXXXXXXXXXXXXXXXXXXXXXXo                 .XXXXXXXX.                                                  XXXXXXXXX",
"XXXXXXXXX                                               XXXXXXXXXXXX            XXXXXXXXXXXX              .XXXXXXXXXXXXXXXXXXXXXXXXXXX.       oXXXXXXXXXXXXXXXXXXXXXXXXXX.                 .XXXXXXXX.                                                  XXXXXXXXX",
"XXXXXXXXX                                               oXXXXXXXXXXo            OXXXXXXXXXXo              .XXXXXXXXXXXXXXXXXXXXXXXXXXX.        oXXXXXXXXXXXXXXXXXXXXXXXX.                  .XXXXXXXX.                                                  XXXXXXXXX",
"XXXXXXXXX                                               OXXXXXXXXXXO            OXXXXXXXXXXO              .XXXXXXXXXXXXXXXXXXXXXXXXXXX.         OXXXXXXXXXXXXXXXXXXXXXo.                   .XXXXXXXX.                                                  XXXXXXXXX",
"XXXXXXXXX                                               .XXXXXXXXXX.            .XXXXXXXXXX.              .XXXXXXXXXXXXXXXXXXXXXXXXXXX.          .oXXXXXXXXXXXXXXXXXoO                     .XXXXXXXX.                                                  XXXXXXXXX",
"XXXXXXXXX                                                oXXXXXXXXX              oXXXXXXXXX               .XXXXXXXXXXXXXXXXXXXXXXXXXXX.            .OoXXXXXXXXXXXoO.                       .XXXXXXXX.                                                  XXXXXXXXX",
"XXXXXXXXX                                                                                                                                              ..OOOOOO..                                                                                      XXXXXXXXX",
"XXXXXXXXX                                                                                                                                                                                                                                              XXXXXXXXX",
"XXXXXXXXX                                                                                                                                                                                                                                              XXXXXXXXX",
"XXXXXXXXX                                                                                                                                                                                                                                              XXXXXXXXX",
"XXXXXXXXX                                                                                                                                                                                                                                              XXXXXXXXX",
"XXXXXXXXX                                                                                                                                                                                                                                              XXXXXXXXX",
"XXXXXXXXX                                                                                                                                                                                                                                              XXXXXXXXX",
"XXXXXXXXX                                                                                                                                                                                                                                              XXXXXXXXX",
"XXXXXXXXX                                                                                                                                                                                                                                              XXXXXXXXX",
"XXXXXXXXX                                                                                                                                                                                                                                              XXXXXXXXX",
"XXXXXXXXX                                                                                                                                                                                                                                              XXXXXXXXX",
"XXXXXXXXX                                                                                                                                                                                                                                              XXXXXXXXX",
"XXXXXXXXX                                                                                                                                                                                                                                              XXXXXXXXX",
"XXXXXXXXX                                                                                                                                                                                                                                              XXXXXXXXX",
"XXXXXXXXX                                                                                                                                                                                                                                              XXXXXXXXX",
"XXXXXXXXX                                                                                                                                                                                                                                              XXXXXXXXX",
"XXXXXXXXX                                                                                                                                                                                                                                              XXXXXXXXX",
"XXXXXXXXX                                                                                                                                                                                                                                              XXXXXXXXX",
"XXXXXXXXX                                                                                                                                                                                                                                              XXXXXXXXX",
"XXXXXXXXX                                                                                                                                                                                                                                              XXXXXXXXX",
"XXXXXXXXX                                                                                                                                                                                                                                              XXXXXXXXX",
"XXXXXXXXX                                                                                                                                                                                                                                              XXXXXXXXX",
"XXXXXXXXX                                                                                                                                                                                                                                              XXXXXXXXX",
"XXXXXXXXX                                                                                                                                                                                                                                              XXXXXXXXX",
"XXXXXXXXX                                                                                                                                                                                                                                              XXXXXXXXX",
"XXXXXXXXX                                                                                                                                                                                                                                              XXXXXXXXX",
"XXXXXXXXX                                                                                                                                                                                                                                              XXXXXXXXX",
"XXXXXXXXX                                                                                                                                                                                                                                              XXXXXXXXX",
"XXXXXXXXX                                                                                                                                                                                                                                              XXXXXXXXX",
"XXXXXXXXX                                                                                                                                                                                                                                              XXXXXXXXX",
"XXXXXXXXX                                                                                                                                                                                                                                              XXXXXXXXX",
"XXXXXXXXX                                                                                                                                                                                                                                              XXXXXXXXX",
"XXXXXXXXX                                                                                                                                                                                                                                              XXXXXXXXX",
"XXXXXXXXX                                                                                                                                                                                                                                              XXXXXXXXX",
"XXXXXXXXX                                                                                                                                                                                                                                              XXXXXXXXX",
"XXXXXXXXX                                                                                                                                                                                                                                              XXXXXXXXX",
"XXXXXXXXX                                                                                                                                                                                                                                              XXXXXXXXX",
"XXXXXXXXX                                                                                                                                                                                                                                              XXXXXXXXX",
"XXXXXXXXX                                                                                                                                                                                                                                              XXXXXXXXX",
"XXXXXXXXX                                                                                                                                                                                                                                              XXXXXXXXX",
"XXXXXXXXX                                                                                                                                                                                                                                              XXXXXXXXX",
"XXXXXXXXX                                                                                                                                                                                                                                              XXXXXXXXX",
"XXXXXXXXX                                                                                                                                                                                                                                              XXXXXXXXX",
"XXXXXXXXX                                                                                                                                                                                                                                              XXXXXXXXX",
"XXXXXXXXX                                                                                                                                                                                                                                              XXXXXXXXX",
"XXXXXXXXX                                                                                                                                                                                                                                              XXXXXXXXX",
"XXXXXXXXX                                                                                                                                                                                                                                              XXXXXXXXX",
"XXXXXXXXX                                                                                                                                                                                                                                              XXXXXXXXX",
"XXXXXXXXX                                                                                                                                                                                                                                              XXXXXXXXX",
"XXXXXXXXX                                                                                                                                                                                                                                              XXXXXXXXX",
"XXXXXXXXX                                                                                                                                                                                                                                              XXXXXXXXX",
"XXXXXXXXX                                                                                                                                                                                                                                              XXXXXXXXX",
"XXXXXXXXX                                                                                                                                                                                                                                              XXXXXXXXX",
"XXXXXXXXX                                                                                                                                                                                                                                              XXXXXXXXX",
"XXXXXXXXX                                                                                                                                                                                                                                              XXXXXXXXX",
"XXXXXXXXX                                                                                                                                                                                                                                              XXXXXXXXX",
"XXXXXXXXX                                                                                                                                                                                                                                              XXXXXXXXX",
"XXXXXXXXX                                                                                                                                                                                                                                              XXXXXXXXX",
"XXXXXXXXX                                                                                                                                                                                                                                              XXXXXXXXX",
"XXXXXXXXX                                                                                                                                                                                                                                              XXXXXXXXX",
"XXXXXXXXX                                                                                                                                                                                                                                              XXXXXXXXX",
"XXXXXXXXX                                                                                                                                                                                                                                              XXXXXXXXX",
"XXXXXXXXX                                                                                                                                                                                                                                              XXXXXXXXX",
"XXXXXXXXX                                                                                                                                                                                                                                              XXXXXXXXX",
"XXXXXXXXX                                                                                                                                                                                                                                              XXXXXXXXX",
"XXXXXXXXX                                                                                                                                                                                                                                              XXXXXXXXX",
"XXXXXXXXX                                                                                                                                                                                                  .XXXXXXXXXoo.      OXXXXXXXXXoO             XXXXXXXXX",
"XXXXXXXXX                                                                                                                                                                                                  .XXXXXXXXXXXXo     OXXXXXXXXXXXX.           XXXXXXXXX",
"XXXXXXXXX                                                                                                                                                                                                  .XXXXXXXXXXXXXo    OXXXXXXXXXXXXX.          XXXXXXXXX",
"XXXXXXXXX                                                                                                                                                                                                  .XXXXOOOOoXXXXX.   OXXXoOOOoXXXXXo          XXXXXXXXX",
"XXXXXXXXX                                                                                                                                                                                                  .XXXX     .XXXXO   OXXXO     OXXXX.         XXXXXXXXX",
"XXXXXXXXX                                                                                                                                                                                                  .XXXX      oXXXO   OXXXO      XXXXO         XXXXXXXXX",
"XXXXXXXXX                                                                                                                                                                                                  .XXXX      OXXXO   OXXXO      oXXXO         XXXXXXXXX",
"XXXXXXXXX                                                                                                                                                                                                  .XXXX      XXXX.   OXXXO      oXXXO         XXXXXXXXX",
"XXXXXXXXX                                                                                                                                                                                                  .XXXX    .oXXXO    OXXXO     .XXXXO         XXXXXXXXX",
"XXXXXXXXX                                                                                                                                                                                                  .XXXXXXXXXXXXO     OXXXO   .OoXXXX.         XXXXXXXXX",
"XXXXXXXXX                                                                                                                                                                                                  .XXXXXXXXXXXO.     OXXXXXXXXXXXXXO          XXXXXXXXX",
"XXXXXXXXX                                                                                                                                                                                                  .XXXXXXXXXXXXXo    OXXXXXXXXXXXXo           XXXXXXXXX",
"XXXXXXXXX                                                                                                                                                                                                  .XXXX     OXXXXo   OXXXXXXXXXXXO            XXXXXXXXX",
"XXXXXXXXX                                                                                                                                                                                                  .XXXX      .XXXX.  OXXXXOOoXXXXO            XXXXXXXXX",
"XXXXXXXXX                                                                                                                                                                                                  .XXXX       XXXXO  OXXXO   oXXXX            XXXXXXXXX",
"XXXXXXXXX                                                                                                                                                                                                  .XXXX       XXXXO  OXXXO   .XXXXO           XXXXXXXXX",
"XXXXXXXXX                                                                                                                                                                                                  .XXXX      OXXXX.  OXXXO    OXXXX           XXXXXXXXX",
"XXXXXXXXX                                                                                                                                                                                                  .XXXXOOOOooXXXXX   OXXXO    .XXXXO          XXXXXXXXX",
"XXXXXXXXX                                                                                                                                                                                                  .XXXXXXXXXXXXXXO   OXXXO     OXXXX          XXXXXXXXX",
"XXXXXXXXX                                                                                                                                                                                                  .XXXXXXXXXXXXXO    OXXXO     .XXXXO         XXXXXXXXX",
"XXXXXXXXX                                                                                                                                                                                                  .XXXXXXXXXXoO.     OXXXO      OXXXX.        XXXXXXXXX",
"XXXXXXXXX                                                                                                                                                                                                                                              XXXXXXXXX",
"XXXXXXXXX                                                                                                                                                                                                                                              XXXXXXXXX",
"XXXXXXXXX                                                                                                                                                                                                                                              XXXXXXXXX",
"XXXXXXXXX                                                                                                                                                                                                                                              XXXXXXXXX",
"XXXXXXXXX                                                                                                                                                                                                                                              XXXXXXXXX",
"XXXXXXXXX                                                                                                                                                                                                                                              XXXXXXXXX",
"XXXXXXXXX                                                                                                                                                                                                                                              XXXXXXXXX",
"XXXXXXXXX                                                                                                                                                                                                                                              XXXXXXXXX",
"XXXXXXXXX                                                                                                                                                                                                                                              XXXXXXXXX",
"XXXXXXXXX                                                                                                                                                                                                                                              XXXXXXXXX",
"XXXXXXXXX                                                                                                                                                                                                                                              XXXXXXXXX",
"XXXXXXXXX                                                                                                                                                                                                                                              XXXXXXXXX",
"XXXXXXXXXXXXXXXXXXXXXXXXXXXXXXXXXXXXXXXXXXXXXXXXXXXXXXXXXXXXXXXXXXXXXXXXXXXXXXXXXXXXXXXXXXXXXXXXXXXXXXXXXXXXXXXXXXXXXXXXXXXXXXXXXXXXXXXXXXXXXXXXXXXXXXXXXXXXXXXXXXXXXXXXXXXXXXXXXXXXXXXXXXXXXXXXXXXXXXXXXXXXXXXXXXXXXXXXXXXXXXXXXXXXXXXXXXXXXXXXXXXXXXXXXXXXXXXX",
"XXXXXXXXXXXXXXXXXXXXXXXXXXXXXXXXXXXXXXXXXXXXXXXXXXXXXXXXXXXXXXXXXXXXXXXXXXXXXXXXXXXXXXXXXXXXXXXXXXXXXXXXXXXXXXXXXXXXXXXXXXXXXXXXXXXXXXXXXXXXXXXXXXXXXXXXXXXXXXXXXXXXXXXXXXXXXXXXXXXXXXXXXXXXXXXXXXXXXXXXXXXXXXXXXXXXXXXXXXXXXXXXXXXXXXXXXXXXXXXXXXXXXXXXXXXXXXXX",
"XXXXXXXXXXXXXXXXXXXXXXXXXXXXXXXXXXXXXXXXXXXXXXXXXXXXXXXXXXXXXXXXXXXXXXXXXXXXXXXXXXXXXXXXXXXXXXXXXXXXXXXXXXXXXXXXXXXXXXXXXXXXXXXXXXXXXXXXXXXXXXXXXXXXXXXXXXXXXXXXXXXXXXXXXXXXXXXXXXXXXXXXXXXXXXXXXXXXXXXXXXXXXXXXXXXXXXXXXXXXXXXXXXXXXXXXXXXXXXXXXXXXXXXXXXXXXXXX",
"XXXXXXXXXXXXXXXXXXXXXXXXXXXXXXXXXXXXXXXXXXXXXXXXXXXXXXXXXXXXXXXXXXXXXXXXXXXXXXXXXXXXXXXXXXXXXXXXXXXXXXXXXXXXXXXXXXXXXXXXXXXXXXXXXXXXXXXXXXXXXXXXXXXXXXXXXXXXXXXXXXXXXXXXXXXXXXXXXXXXXXXXXXXXXXXXXXXXXXXXXXXXXXXXXXXXXXXXXXXXXXXXXXXXXXXXXXXXXXXXXXXXXXXXXXXXXXXX",
"XXXXXXXXXXXXXXXXXXXXXXXXXXXXXXXXXXXXXXXXXXXXXXXXXXXXXXXXXXXXXXXXXXXXXXXXXXXXXXXXXXXXXXXXXXXXXXXXXXXXXXXXXXXXXXXXXXXXXXXXXXXXXXXXXXXXXXXXXXXXXXXXXXXXXXXXXXXXXXXXXXXXXXXXXXXXXXXXXXXXXXXXXXXXXXXXXXXXXXXXXXXXXXXXXXXXXXXXXXXXXXXXXXXXXXXXXXXXXXXXXXXXXXXXXXXXXXXX",
"XXXXXXXXXXXXXXXXXXXXXXXXXXXXXXXXXXXXXXXXXXXXXXXXXXXXXXXXXXXXXXXXXXXXXXXXXXXXXXXXXXXXXXXXXXXXXXXXXXXXXXXXXXXXXXXXXXXXXXXXXXXXXXXXXXXXXXXXXXXXXXXXXXXXXXXXXXXXXXXXXXXXXXXXXXXXXXXXXXXXXXXXXXXXXXXXXXXXXXXXXXXXXXXXXXXXXXXXXXXXXXXXXXXXXXXXXXXXXXXXXXXXXXXXXXXXXXXX",
"XXXXXXXXXXXXXXXXXXXXXXXXXXXXXXXXXXXXXXXXXXXXXXXXXXXXXXXXXXXXXXXXXXXXXXXXXXXXXXXXXXXXXXXXXXXXXXXXXXXXXXXXXXXXXXXXXXXXXXXXXXXXXXXXXXXXXXXXXXXXXXXXXXXXXXXXXXXXXXXXXXXXXXXXXXXXXXXXXXXXXXXXXXXXXXXXXXXXXXXXXXXXXXXXXXXXXXXXXXXXXXXXXXXXXXXXXXXXXXXXXXXXXXXXXXXXXXXX",
"XXXXXXXXXXXXXXXXXXXXXXXXXXXXXXXXXXXXXXXXXXXXXXXXXXXXXXXXXXXXXXXXXXXXXXXXXXXXXXXXXXXXXXXXXXXXXXXXXXXXXXXXXXXXXXXXXXXXXXXXXXXXXXXXXXXXXXXXXXXXXXXXXXXXXXXXXXXXXXXXXXXXXXXXXXXXXXXXXXXXXXXXXXXXXXXXXXXXXXXXXXXXXXXXXXXXXXXXXXXXXXXXXXXXXXXXXXXXXXXXXXXXXXXXXXXXXXXX",
"XXXXXXXXXXXXXXXXXXXXXXXXXXXXXXXXXXXXXXXXXXXXXXXXXXXXXXXXXXXXXXXXXXXXXXXXXXXXXXXXXXXXXXXXXXXXXXXXXXXXXXXXXXXXXXXXXXXXXXXXXXXXXXXXXXXXXXXXXXXXXXXXXXXXXXXXXXXXXXXXXXXXXXXXXXXXXXXXXXXXXXXXXXXXXXXXXXXXXXXXXXXXXXXXXXXXXXXXXXXXXXXXXXXXXXXXXXXXXXXXXXXXXXXXXXXXXXXX"
};
