/* XPM */
static char *brick[] = {
/* columns rows colors chars-per-pixel */
"128 128 48 1 ",
"a c #DBCFBE",
"b c #CEC4B3",
"c c #C7BDAD",
"d c #C3B9AA",
"e c #BFB5A5",
"f c #BAB0A1",
"g c #B5AB9D",
"h c #B0A799",
"i c #AAA193",
"j c #B08373",
"k c #C6533B",
"l c #C04D39",
"m c #B74C38",
"n c #AF4B35",
"o c #B44735",
"p c #AD4634",
"q c #A94733",
"r c #A94332",
"s c #A44632",
"t c #A4412F",
"u c #9F4430",
"v c #9F402F",
"w c #9B412F",
"x c #96402D",
"y c #9E3D2E",
"z c #9A3D2D",
"A c #963D2D",
"B c #963B2C",
"C c #923D2D",
"D c #923B2D",
"E c #91392B",
"F c #8D3B2C",
"G c #893A2A",
"H c #8A372A",
"I c #89352A",
"J c #843427",
"K c #813526",
"L c #7D3525",
"M c #803326",
"N c #7A3325",
"O c #7C3026",
"P c #782F24",
"Q c #753023",
"R c #702F22",
"S c #702C21",
"T c #682B1F",
"U c #65271F",
"V c #5B241B",
/* pixels */
"iiiiiiiiihhgggfffedccbbbbaaaaaaaaaaaaaabbbbcddefffgggfffeeddcbbaaabbbbccccccccccdddeefffgghhiiiiiiihhhhgggghhhhhhiiihhhhhiiiiiii",
"iiiiiiiiihhgggffeedccbbbbaaaaaaaaaaaaaabbbbcdeefffffffffeeddcbbaaabbbbbccccccccddddeeeffgghhiiiiiiiihhhgggghhhhhhhhhhhhhhiiiiiii",
"iissqqqqnnnmmmmlllkkkkkkkkkkkkkkaalllmmmmonpqqssuussssssssqpnommaaooppppppppppqrsssssuuvwwRCDDTFiitrrrrpppppprpppppppppprrrtttvv",
"iiussqqnnnmmmmllkkkxkkkkkkkukkkkaammFmmmmnnpqqssssssssNssqqpnmmmabooppppppKppMqrsssssssvvwADDFFFiittrrrrrrrpppppppppppppprrttvyy",
"iiuuGFFCxxwwuuuNssqqLqnnnnnnGmGGbbmGwwwwxACCCFFFFTFFCFFFFFCCxwNNabooACCDDDDCDSDFFFFFFFHHIJMOOPVViivtHHHEEEEEEBBBSBBSBBBSEEEHJJTV",
"iiuuGFFCxxwwuussssqqqLqqnnnnnnGGbbmmwwwxxACCCCCCCCCCCCCFFCCAxwNNaaooAAAAACCCCDDFFFFFFFHHIJMOOPVViiQtHHHHHEEEBBBzzzzzBBBBEEEHJJUU",
"iiuuGFFCxxwwuuussLsssqqqqqqqqqGGcbnmwQxxRAACCCCCCCCAACCCCCAxwwVNaaooAAAAAAAACDDDFFFFFFHHIJKVOPVViiyvJHHHHHEEBBzzzzzzzBBEEEHHJUUU",
"iiuuGFFRCxxwuuuussssssssqqqqqqKKccnnxxxxxxAAAAxxxxxxxxACCCAxwwNNaamoAAAAAAAADDDDDFFFFHHIIJKMOPVViizyJJHHHHEEBzzyyzQzzBBEEEHHJJUU",
"iiuuGFFCCxxwuuuusssNssssLsssssKKddpnAAxxxxRAxRwwwwwwwxACRAxwwwNNaaIoAARwwAAACDDDDFFFHHHIJJUMONVViizzJJHHHEEBBzyyyyyzzBBEEEHHJJUU",
"iiuuGFFCxxwwuuuussssssssssssssLLedppCCAAAAAAxxwwwwwwwwxRAxxwwwNNaammAAwwwwAARDDDDFFFHHHIUJKMONVViizyJJHHHEESBzyvvvyyzzBBEEHHJJUU",
"iiuuGFCCxxwwuussssssssssssssssLLeeqpCCCCCCARRxwwwwwwwwxxxwwwwuNLaammwwwwwwAACDDDDFFFFHHIIJKMOPVViizQJHTHEEEBzQvtttvyQzBBEEEHJJTU",
"iiusGFCCxxwuuussssssNssNssssssLLeeqqCCCCCRCAxxwwwwwwxwwwwwwQwuLLaammwwwwwwAAADDDFFFFFHHHIJKMOPVViiyvHHHEEEBBzyvttttvzzBBEEEHHJTT",
"iiusFFCxxxwQuusssssssssssssssuLLeesqCCCCCCCARxwwwwwxxxwwwwwwwuLLaammwwwwwwAAACDDFFFFFHHHIJKMOPVViivtHHEEEBBzzytttttvyzBBEEEHTJTT",
"iiusFFCxxwwuuussssssssssNssssuLLfesqFTFFFCCCAxxxwwxxRxwwwwwwwuLVaammwwwwwwwAAADDDFFFFHHIIJMOOPVViivtTEEBBBzzyvttrttvyzBBEEHHHJTV",
"iiusRRRQQNNNLLLKKUKKKKKKKULLLLLLffssSRVRRRRRQQQQQQVQQQNNNNNNNNLLaammVOVOONNPPQQRRRRSSTTTTVUUVVVViivtSSRQPPNOLMKUJKMMNPQQSSSSTTTT",
"iiusRRRQQNNNLLLKKKKKKKKKLLLLVLLNffssSSSRRRVVQQQQVQQQVQPNNNNNNNLLaammOOOOOOONPPQRRVRRSTTTUUUUVVVViivtSSQPPOLMMMKJJJKMNPQQRVSSTTTT",
"iiiiiihhggffeeddddddddddeeeefffffffffffeedddcccbbbbccbbbbaaaaaaaaaaaaaaaaaaaaabbccccddefgghiiiiiiiiiihgfeeddccbbbbcdeffgghiiiiii",
"iiiiiihgggfffeedddddeeeeeffffgggggggggffeedddcccbbbbbbbbbaaaaaaaaaaaaaaaaaaaaabbbcccddeffghiiiiiiiiiihgfeedddcbbbbcdeffgghhiiiii",
"ssiiDCRwwwQvutssssssssuuvwvwwRAAAAhhssqqpnnGmmmmllllllkkkkkkkkkkkkaalllllllmoooprrMrOttyyzBSEEHHHHiinnnmmlllkkkkkkkklmmmnnnqssss",
"ssiiDCAwwwwPuuuuuuuuuuvwwwwxAACCCCiiuussqqnnmmmmlllllkkkkkkkkkkkkkaammlllHmooooprrrrtttyyzBEEEEHHEiinnnmmllllkkkkkkkllmmmnnqqqss",
"RRiiCCMKJJJIIIIIIIIIIIJKUKMMLNNPVViiwuGGFFCxxwwuuusssssssqqqpnpqGGaaooyyyyyyzzBEEEEEHTIJJJMOVPPPVVihnnxwuQuuussqqqssNuuuuwxxCFFF",
"RRiiCCKKJJJJJJJJJKKKJJKKMLLLNNPPVViiwwGGGFFRxxwuuusssNsssqqqpnpqGGaaoHyyyyyyzzSEEEEEHHIJJJMOPPPPVViinnRwwuuuuusqqqsssuuuuwxxCCTF",
"RRiiCAKKUJJJJKKMLLLLMMMMLLLNNNVVVViiwwJGGGFFCxwwuuussssssqqqpnnnGGaaooyyyQyzzBBEEEEEHIIJJMOOPPPPVViinnxxwuuuuusLLsssssssuuwRxCCC",
"RRiiAAKKKKJJKKLVNNNNNNNLLNNNNNPPVViiwwJJJGGFCxxwwuuuusssqqqqpnnnGGaammyyyyyzzBBEEEEEHIJJJMOOOPPPVViinnxxwuuQuuussssqqqLssuuxRxCC",
"RRhhARKKKKKKKMNNPPPPPNNNNNNNNPPQVViiwwKKKJGFFCxxwwuuuussqqqqnnnnGGaallyyyyyzzBBSESEEHIJJJMOOOPPPVViinnxxwuuuuuNssssqqqqssuuwxxxC",
"RRhhAxKKKKKKMLNPQQQQQPNNNNNNPPQQVViixxKKKKGGFCxxxwuuuusNsqqqnnnnGGaallyyyyyzzBBBBESETHIJJJMOOOPPVViinKxwwuuuuussssqqqqqssuuwxRxx",
"QQhgwwKKKMMLLNNPQQQVQQPNNNPPPQQQVViixxKKUJGGFFCxxxwuuuussqqqnnnnGGaallyyyyyyzzzBBBBEEHHIJJJMMOOOVViinnxwuuuuusssqqqqqqqssuuwxxxx",
"QQggwwKKMMLNNNPPQQQVQQVPPPPQQQQQVViixxKKKJGGTFFCCxwwuuuussqqnnnnFFaallvyyyyyzzzzzzBSSEHHIJJJJMMOUUihnnxwuuuuussqqqqqqqqssuuwwxxx",
"QQgfvvJKMLNNNPPPQQQQQQQQQQQQVQQQVViixxKKKKGGGFFFCCxwuuuussqpnnnGFFaalltyyyyyyyyyyQBBEEEHHIJJJJMMUUhhnnxQuuuuNsqqKqqqqqqsuuuwwwxx",
"NNffvwKKLLNNPPQVQQRRRRQQQVQQQQQQVViixxKKJJGGGGGFFCxxwuuussqpnnnmFFaalltyyyyyyyyyyyzBBEEEHIIJJJMMUUhhnnQuuuussqqqnnnnqqssuuuuwwwx",
"NNffuwTUUUVVVVVVVVVVVVVVVVVVVVVVVViixxTTTTVTTTTTRRRQNNNLLKKGGGGFFFaallOOOOOOPPOOOPPQSSVSSSTTUVUUUUhhnnNLLLKKKKGGGGGGKKKLVLLNNNNN",
"NNfeuvUUUUVVVVVVVVVVVVVVVVVVVVVVVViixxTTVTTTTTTTTRRQQNNLLKKGGGGGFFaallOOOOPPPPOOOVPQSSSSSSTTUUUUUUhhnmNLLKKKJGGGGTGJKKLLLNNNNNNN",
"fffeffghiiiiiiiiiiiiiiiiiiiiiiiiiiiiiiiiiiiiiiiiihgeddcbbbaaaaaaaaaaaaaaaaaaaaaaaabbcccddeffghhhihhhgffeddccbbbbbbbbcddeefffffff",
"fffeffghiiiiiiiiiiiiiiiiiiiiiiiiiiiiiiiiiiiiiiiihhgeddcbbbaaaaaaaaaaaaaaaaaaaaaaaabbbccddeffghhhhhhhgffeddccbbbbbbbbccdeeeffffff",
"eerrttvyzzSBBEEEHHHTHHHHHHHHEEEEiiCxxxxwwuuuuuuuusqnJnmmllkxkkkkaakkkkkkkkkkkkkrkkkkkkkkkllmmooohhoommHlllkkkkkkkkkkkkDllllmmmml",
"eerrttvyzzzzzBBEEHHHHHHHHHHHHEEEiiCCxxwuuuNuuuussqqnnmmmlkkkkkkwaakkkkkrkkkkkkkkkkkkyzkkkllmmmomggommmHlllkkkkkwkkkkkkkkllllllll",
"dertHIJJJJJJJJMOPPPPPVQQQQQQQVVViiCCLKKGGGGGGGGFFCCxxwwuusqqKnGGaakkllllllllllmmooIooprrrtvyzzPOggmmvvvvvtrpppJoJooppprrrttvvvMM",
"ddrrHIJJJJJJJJMMVOOPPQQQQQQQQQVViiCCLKKGGGTTGGFTRxxxwwuussqqnnGGaakklllllllllmmmoooopprrtvvyyyOOggmmvvvvttrppoooooooppprrrttvvMM",
"ddrrHHJJJJJJJJJJMMOOPPQQSSSSQQVViiCCLKKJGGGGGFCCRxwwuuusLqqqqnGGaakklllFmmmmmmmoooppprrtvvvvvvOOggmmwvvttrrppooooooooppprrttttMM",
"ddrrHHUJJJJJJUJJJMMOPPQSSSSSSQVViiCCLKKKJGGGFRCxwwuuusssqqqqqqGGaakkllmmmmmooooooopprrtvvvvvvvOOggmmwvvtOrpppoooooooopJprrrtttMU",
"cdprHHHIJJJJUJUJJJMMOPQSSSSSSQVViiCCLVKKKGGGFCxwwuuussssqqqqqqGGaakkFmmmooooooooopprttvvvvvvvvOOggomwvvrrrpppoooooomIoppprrtttUJ",
"cdprHTHHIJJJUIIJJJJMOPQQSSSSSSVViiCCLKKKJGGFFCxwwuuussssssssssKJaakkmmmooooppppppprrtPvvQyvvvvOOggmmyvttrrpppooooommoopprrrrrrKJ",
"ddprEHHHIJUHHHHJJJJMOPPQQSSSSSVViiFCLLKKGGGFFCxwwuuuusssssssssKKaakkmoooopppppppprrttvvyzyyvvvOOggmmvvttrrppoIooommmoopprrOrrrJK",
"ddprEHHHIIHHHHUIJJUMMOPVVQSSSSVViiFFVLKJGGGFFCxxwwuuuuuuuuusssLLbbkvoopppppppprrrrttvvyzzzyvvvOOffmmvvttrMppoommmmmmooprrrrrrrJU",
"ddprEEHHHHHHHHHIJJJMMOPPQQSSSSVViiFFNLKKGGGFFCxRwwwuuNuuuuuuuuLLbbkkpppppppprrrtOtvvvvyzzzyvvvOOffmmvvttOrpoommmmmmmooprrrrrrrKM",
"ddrrEEEEHHHHHTHJJJJMMOVPPQSSSSVViiGFNLLKGGGGFCCxxwwwwuwwwwwwwwNNcckkprrMrrrrrrtvvvvvvvyyyyvvvvOOffmmPttrrppommmmmmmmoopprrrrrrKM",
"eerrSSSSSSVSSVTTTUUUUUVVVVVVVVVViiGGVVUTTTTRRRRQQNNNNNNNVNNNNNNNcckkJJJMMMMMMOOOOOOPVOOVOOOOOOOOffmlMMJJJIHHHTFTFFEFFHHIJUJJJKMM",
"eerrSSSSSSSSSVTTTUUUUUVVVVVVVVVVjjGGVVUTTTTVRRRQQQNNNNNQQQQNVNQQddkkUMMVVOOOOOOOOPPPPPOOMMMOOOOOffmlMJJJIIHHHFFFDDFFFHHIJJJJJMMM",
"eeeeedddcdddefghhiiiiiiiiiiiiiijjjiiiiiiihhgffeedddcccdddddddddddddeeeffgggggggggghhhggfeefffffffffedccbbbbbaaaaaaaaabbbbccccdde",
"eeeedddddddeefgghhiiiiiiiiiiiiiijiiiiiiiiihggfeeddddcdddeeddddeeeeeeeefggggggggggghhhgffeefffffffffedcccbbbbbaaaaaaaaabbbbcccddd",
"mmmmmmmmmmmmnnqqshiFHIIJJJJJMMMOOMMJJIUIHEDDAzyvvddkkklllllllmmmmmmmmmmnnnnnnnnnnhhOsrppppppppprrpppoommlllllkkkkaakkkkkklllFmmm",
"mmmmmmmmmmmnnnnqLghEHIIIJJJJJJMMMMJJIIIIHFDDAzyvvddkkklllmFmmmmmmmmmmmmnnnnnnnnnphhrrrpJppppppprrrpppommmlllllkkkaakkkkkkkklllmm",
"uuuuuwwwwwxxxxxRRghDFPPQSSSSSSSSSSSSQVPPPPOOMMJTTdckksNuuuwwwwwwwwwwwwxxxxxxxxCQRhgrrDDAAAADDDDEEEDDDAzyvvvvttrJJaakkqqqqqsssuuu",
"uuuuuuuwwwwwxxxQRfgSDPPPVSSQQSSSSSSQPPVPPPOOMJUTTdckksuuuwwwwwwwwwwwwwxxxxRxxxxQQggrrDDAAAAADDDDDDDDDAzzvvvvvttMMbbkkqqqqqssssuu",
"sssuuuuuwwwwwxxQQffADOPPPQPPVVQQQQQPPPPPPOOVMJJTTddkksuuuuuuuuuuuuwwwwxRxxxxxxRQQggrrDDAAAADDDDDDSSDDAAzyvvvvvvOMbbkkqqqqqssssss",
"sNssssuuwwwQwwxQQefzAOOPPPPPPPPPPPPPPPPPPOOOMJUTTddllNuuuuuuuuuuuuwwwxxxxxxxxxwQQfgrrDDAzAADDDDDDDDDDARzyvvvvPvOObbkkqqqqqssssss",
"sssssssuuuwwwwwNQeeyzMOOPPPPPPVPPPVVPPPPPOOMMJJTTedlluuuQQuuuNuuuuuwwxxxxxxxxwwNNffrrDAAzzADDDDDDDDDDAAzyvvvvvvOOcblksqqqqqsssss",
"qqqqqqssuuuuwwwNQeeyQMOOPPPOOOPPPPPPPPPPOOOMMJJTTedlluuuuuuuuuuuuuwwwxxxxxxxxwwNNffrpDSAQzAADDDDASDDDAAQyvvvvvvOOcblksqqqqqqsssq",
"qqqqqqqsNsuuuwwNNeeyzMOVOOOOOOOOOOOOOOOOOOMMUJJTTedlluuuuuuuuuQuuuwwwxxxxxRxxxwNNffrrDDAARRADDDSAADDAAAzzyvvvvvOOcblkqqqqqqqqqqq",
"qqqqqqqqqssuuwwNVefyzMMOOOOOOOOOOOOOVOOOOMUMJJJTTddlluuuuuuuuuuuuuwwwxxxxxxxxxwNNffrrDDDAAAASAAAAAAAAAAzzzyvvvvOOcbkkqqqqqqqqqqq",
"qqKqpnnpqLssuwwNQefzzMMMMOOOOOOOMMVOOOOMMMMJUJITTddlluuuuuuuuuuuuuuwwxwwQxxxxxwNNffrrEDDDAAAAAAAAAAAAAAAAzyvvvvOObbkkqqqqqqqqqqq",
"qqqpnnKnnqqsuuwQQefzzJMMMMMOOOOMMMMMOOMMMMMUJJITTddCluuuuuuuuuuuuuuwwwwwwxxxxxwNNffrrEEDDDDSAAAAAAAAAAAAAzzvvvvOObbkkqqqqqqKqqqq",
"JJGGGGGGGGKKLNNQQffzzUUUUUUUUUUUUUUVUUUUUUUUUTVTTddllLLLLLLLLLLLLLLNNNNQQQQQQQQNNffrrSSSSRRQQPPPVPPPPPPPPPPPOOOOMbbkkKKJGGGGGJJJ",
"JUJGGGGGGGJKLNNQQffzyUUUUUUUUUUUUUUUUUUUUUUUTTTTTddkkKKKKKLLLLVKKKLLNNNQQQQQQQQNNffrrSSSSSRQPPPPPPPPPPPPPPPPPOOMMbbkkKKGGGGGGGJU",
"aaaaaaaaaaabbcdeefffffffffffffgghhhhhhhhgggfeeeedddcccccccdddddcccdeefffggghhggffffgggggggfeedddddddddddddddccbbbbbbbbaaaaaaaaaa",
"aaaaaaaaaaabbcdeefffffffffffffgghhhhhhhhggffeeedddddcccccddddddcccdeefffgggghggffffgggggggfeddddddddddddddddccbbbbbbbbaaaaaaaaaa",
"aakkkkkykkkkElmoopppppppppKJprrthhuuuuussssMqppnnnnnnnnnnnnnpnnmccttvvwwzzzAAzzvvvwzzzzzzwvttsrrcdllllFlllllkkkkxxkkkkwkkkkkkkkk",
"aakkkkkkkkkkllmoopppppppppppprMthhuuuusssssqqppnJnnnnnnnnnppKpnnddtvvvwwzzQAAzzwQwwwwzzzzvvtsrrrccllllllllllkkkkkkkkkkkkkkkkkkkk",
"aakkppprrrrtttyzSBSEEEBSBBBEEESShhuuGHGGFFFFDCCRAAACCCRCCCCCCCQQddtvJJJKKKKKKKJJJJJJJJKKJJIHHFSSddllssuuuusssssqqqqqKnnnnnmmmmFF",
"aakzprrrrttNtvyzBBBBSEBBBBEEEESShhuuGGHGGFFFFDCCCRCCCCCCCSDDTCRQdevvJJJJKKKKKKJKJJJJJJKJKUIHGHSSddllsuuuuussLssqqqqqnnnnnmmGmmFF",
"aakkrrrtttttPyyzBBBBBBBBBBEEEESShhuuIIGHGGGGFFDCCCCCCDDDDDTFFDRReevvJJJJUJKKKKKJJJKJJKJKKJJHHGSTddlluuuNuusssssqqqqpnnnnmmmmmmFF",
"aakkrrttttvvyyzzBBBBBBBBBEEEEHSShhuwIIIGGGHHGFFFDDCDDDFFDDFFFFRReevvJJJJJKKKKKKKKKJKKJKKKUJIHHTTeemluuuuuussssqqqqpnnnnmmmmmmmFF",
"aakkrrttvyyyQzzBSBBBBBBBBSEEHHSShhuwUIIIIGGGHGFFFFDDFFFFDDFFFFRReevvIJJJJKKKKKKKKKUKKKKMMKJJHHTTeemmuuuuuussssqqqqnnnnmmmmmmmmFF",
"aakkrtttvyyyzzzBBBBBBEEEEEEEEESSgguuIIIGGGGGHGFFFFFFFFFFFDDFFDRReetvHIJJJUKKKKKKKKKKKUMMMMKJJJTTffmmwwwwuuusssqqqpnnnnmmmmmmmmFG",
"aakkttttvyyzzzBBBEEEEEEEEEEEEESSggsuGGGHGGGHHGFFFFFFFFFFFDDDDCRReettHHIJJKKKKKKKKKKKKMMMMMKKJJTTffmmwwwwwuusssqqqnnnnmmmmmmmmmFG",
"aakkttttvyyzzBBBBEEEEEEEEEEEEESSggssHHHHHHHHHGFFFFFFFTFFFDDCCCQQddttGHHJJKKKUKKKKKKMMMMMLMMUKKTTffnnxxxwwuNsssqqqnnnnmmmmmmmmmFG",
"aakktttvyyzzBBBBEEEEHHHHHHEEEESSggssGHHHHGGHHGFFFFFFFFFFFDCCCCQQddssHGHIJJJKKMKKKKMMMMMMLMUKKKUUggnKCxxxwwuussqqpnnnmGmmnmmmmmFG",
"aakltttvyyzBBBBEEEEHHHHHHHEEEESSggssHHGGIIIGHGGFFFFFFFFFDCCCCAQQddrrFHGHIJJJKKMMMMMMMUMMMMMKKKUUggnKCCxxxwuusLqqnKnnmmmmmmmmmnTG",
"abklMMLLNPPQQSSSSVVSSSVSSSSSSSSSggsuTTTTTTTTTTTSSVRRRRRRRRRQQQQPccrrSSSTTTTTUUUUUUUUUUUUUUUUUUUUggnqRRQQQNNLKKKGGGGGGFFFFFFFFGGG",
"bbklMMLVNPPQSSSSSSSSSSSSSSSSSSSSggsuTTTTUUTTTTTTTSRRRRRRRRRQQQPNbcrrSSSSVTTTTUUUUUUUUUUUUUUUUUUUhhqqRRRQQNNLKKJGGGGGGFFFFFFFFGGG",
"bbbbbbcccdeffggghhhhhhhhgggggffffgghhhiiiiihggggggffffffeeedddcbbbccdddddeeffgghhhhggggggggggghhhhhhhhhggfedcbbbbbbaaaaaaaaaaaab",
"bbbbbbbccddeffggghhhhhhggggfffffffgghhhhiihhggggggffffffeeedddccbcccddddeeffggghhhhhgggghhhghhhhhhhhhhhggfedcbbbbbbaaaaaaaaaaaab",
"llllmoooopprrffooppppppooooooooooooooJpprrppoggooooommmmmmllllllllllllllmmoooghzzzzzzzzAAAAzzAAAAABBBAzzyvtrpbbmmllllllkkklEllll",
"lllllmoooopprefoooooooooooooooommmooIooppppoofgoooommmmommmlllllllllllmmHooophhzzzzzzzABBBBAAAAAABBBBAAzyvtrpbbmHlllllkkkkllllll",
"vvvtvvyzzBBVSeeIozzzzzzzzzzzzyyyyyyyyzzBBBBPPffooAzyyyyyyyyyyyvvvvvyyyyzzABQShhzzKKKKKMONNOLMMMMMMLOLMKKJHHSRbbmmvvttttrrrtttvvv",
"vvvPtvyyzzzQQeeoozzzzzyyyyyyyyyvvvvyyzzBBBBQPffIozzyyQyQyyyyyyyyyyyQyyzzABBQShhzzKKKKMLNNNOLLMMMMMLMLMKUJHHSRbbomvvttttrMtttttvv",
"vvttttvyyzzQVdeoozzzyyyyvvvvvPvttvvyyzzzzzzQPffoozzyyyyyyyyyyyyyzzyyyyzzBBBQQggzzJKKMMLONOOLMMMMMMMLMMKJJHHSRcbooyvttttrrttttttv",
"vvttttvyyyQPQdeoozzzyyvvttttttttttvyyzzzzzzQPffoozyyyyyyQyvvyyzzAzzyyyzBBBBQQggzzKKKMLLMMLMMMMMMVMMMMKKJJHHSRcbooyvttttttttttttv",
"vvttttvvyyzPQdeoozzQyvvPttttttttttvyyyyQyzzPPffmmyyyyyyyyyPyyyzBBBzzyzzBBBBQQggzzKKMMLLLMMMMKKKKKKMMMKUJHHHSRcbooyvtttLttttttttv",
"vtttttvyyyzPQdeoozzyyvtttttPtttttttvyyyyyyyPPeemmyyvvvvyyyyyyzBBBBBAzzBBBBBQQggzzKKMMLLMMMMKUKKKKKKKKKJJHTESRcbooyvttttttttttttt",
"tttttvvyzzzQQdemmyyyPtttPttttttttttttvvvvvyOOedllvvvvvvPvyyyzzBBSBBBBBBBEEDSShgzzJKKMMMMMMVKJJKKKKKKKJJHHHESSccooyvttttttttttttt",
"tttPvvyQzzBQQddllyyvvPPttttttttttttttttttttOOddllttttttvvvyyQABSBBBDDDDEEEESShhzzKKKMMMMMMKKJKKKKKKKKJHHHEESSccooQvttLtttttttttt",
"tttvvyzzBBBQQddEltttttttttttPttttttttttttttMMddllttttttPvvyyzABBBBDEEEEEEEESShhzzKKMMKMMMKKJJJKUKKKJJJHHTETSSdcooyvttNtttttttttt",
"ttvvyyzBBBBQQcclltttttttttttttttttttttrrrrtMMcdllttttttttvvyzzBBBBDEEEEEEEESSiiBBMMMKKKKKKJJJJJKKKKKJJHHHEESSdcooyvttttttttttttt",
"LLNNPPQQQQQQQccllMMMMMMMMMMMMMMMMMMMMMUJJJJJMccllMMMMMMMMMOOPPQQSSSSSSSSSSSSSiiEEUUUVUTTTTTTTTUUVUUTTTTTTSSSSccooNVMMKKKMMMMMMML",
"NNNPPQQQSSQQQccklMMMMMMJJJMMMMOOVOOMMMJJUJJJMccllMMMMMMMMMOOOPQSSSSSSSSSSSSSSiiEEVUUUUTTTTTTTTUUUUUTTTTTTTSSSccooNLMKKKKKMMMMMLL",
"bbbbcccddddcccbbcccccccbbbccddddeddddccbbbbbccccccdddccbccddefghhhhhhhhhhhhhhiiiiiiihggfffffgghhhhggffffffeddccbbbbaaaaaaaaaaaab",
"bbbbbccddddcccbbccccccccbcccdddeeedddccbbbbccccccccdccccccdeefghhhhhhhhhhhhhhiiiiiiihggfffffgghhhhggfffffeeddccbbbbaaaaaaaaaaabb",
"bbmmmnnnnnnnnnnnnnnnppnnnnnpqqqqeennnnmmmmmmmmmmmmmmGmmmmnnpKqsuhhvtttttttttvvyAAAzQvvtrrrrrrttvhhtssrrqqppnoommmlllkkkkkkllllll",
"bbmmmmnnnnnnnnnnnnnnqqqqqqqqqqqseepnnnnmmmmmnnmmmmmmmmmmnJpqqssuhhvtttrrrrrttPyzAAzwvvOrrrrOrtOvhhtssrqqpppooommmllllkkklllllllm",
"bbmmwwwxxxxxxxxxxxxCRFFFFFFFFFRRffqpCCAAxxxRxxwwwwwwwwxxRCCFTGTThhvtHHFFEEFHHIIJMMJJIIIHHHHHHHSTggtsFFFDDCAAAzwwvvutsssssNtuvvNN",
"bbmmwwwwxxxxxxxxxxCCFFFFFFFFFFRTffqqCCCCCCAAxxwwwwwwwRxRCCCFGGTThhvtHHFEEEFHHIIJJJJJIIHHHHHHHHSSggsrFFFDDCAAAwwvvvutsssstttvvvON",
"cbnGwwwwxxRxxxxxxCCFFGGGGGGFFGRTffqqCCCCCCCAxxwwwwwwwxxACCFFGGTTiivvHHFEEEFHIIIIJJIIIIHHHHHHHHSTggssFFFDDCAAzwwvvvvttsNtttvvvwNN",
"cbnnxwwwxxxxxxxxCCCFGGGGGGGGGTTVffqqCCFFFFCARxwxxxwwwxxACCFGGGTTiivvHHFEEEFHIIIIIIIIUHHHHHHHHHTThgssFFFFDSAAwwwwvvvtttttttvvvwNN",
"ccnnxRxRxxxRxxCCCCFFGGGGGGGGGGTTffqqFFFFFFSAxxxxxxxwwxxCCCFGGJTUiivvHFFEDEFHIIUIIIIIHHHHHHHHHITThhtsFFFFFDCAzwwwQvvvuttuuvvvwwPP",
"ccnnxRxxxxxxxxCCRCFFGGGGGGGGGGTTffqqFFFFFFCCxxxxAxRxxxACCCFGHGTTiivvHHFEDEFHIIIIIIIHHHHHTHIIIITThhvtHGFFFSDAAAAzwwwvvvvvvvvvwwPP",
"ccnnxxxxxxxxRCCCCCFFGGGGGGGGGGTTffqqFFFFFFCCARxAAAAAACCCSCFGGGTTiivvHHFFEEFHHIIHHHHHHHHHHIIIUITThhvvHHHHFFDDCAAAAzzwwvvvvvvwwzPP",
"ccnnCxxxxxxCCCCCCCFFFGGGGGGGGGRRffqqFFFFFFCCAxxARACCCCCCCFFGGGTThhvvIHHFFFFHHHHTHHTHFFHHIIIIIITThhvvJJIHHFFFDDCCAAAAAzwvvvwwzAQQ",
"ddpqCCCCCCCCCCFFFFTFFTGGGGGGGGRReeqqFFFFFFSCAxxAACCCCCCCFFFGGGTVhhvvIHHHFFHHHHHFFFFFFFHHIIIIIITThhvwKJJHHTFFFTDDCCSCAAzwwwwzAAQQ",
"ddqqFFFFFFFFFFFFFFFFFGGGGGGGGFRReepqCCCFFCCAxxxxAACCCFFFFFGGGGTTggttIHHHHHHHHHFFFFFFFFHHIIIIJJTVhhwwKJJIHHHHGFFFEDDDCAAzwzAAAAQV",
"eessRRRRRRRRRRTTTTTTTVTTTVVRRRRReepnQQRRRRQVQQQQQQQRRRVSSSSSSSSSggttTTVSSVSSSSSSSSSSVSSSSTTUUUUThhwzUUTTTTTVTTSSVSSRRQQQQQQQQRRV",
"efssTTTTTTTVTTTTTTTTTTTVRRRRRRRReennQQQQRQQQQQPQPQQRRSSTTTTSSSRRggrtVTTTSVSSSSSSSSVSSSSVSTTUUUUUhiwzVUTTTTTTTVTSSSSSRRRQVQRRRSRR",
"fffggggffggggggggggggfffffeeeeeeeeddddddedddcccccdefgggghhggggfffgggggggggggggffffffffffgghiiiiiiiiiiiihhhhhihhgggfffeeeeeefffff",
"fgggggggggggggggggggfffffeeeeeeeedddddddddddccccccdffggggggggfffffgggggggggggfffffffffffgghiiiiihiiiiiihhhhhihhhgggffffffffffggf",
"vvyyzQvvvvvPvgguuuusssssqqqqqqqpKpppppqqKqqpnccmGmopqqqqqqqqqqpppppqqqqqqqpppffyzzyyyzzBBEEEHEEEEEEEEETEEEEEEhhzzyyvvttttttvvvvP",
"yyzQzyyvvvvvvffusssssssqqqqqqqqnnKpqqqqqqqqqpdcmmmoppqqqqqqqqpppppppppppppnnneeyzzyyyzzBEEEEEEEEEEEEEEEEEEEEEhhzzzyyvvvvtvvvvyyy",
"JJJMJUJIIIITVffssFFFFFFFFFFTFFCCACCCCCFFFFCRRdcmmwwACCCCCCCCCCCAAAAAAAAAAAxQPdeyyJJJJJMOOOPVPPOOOOOOOOPPPOOVUhhzzJJJJIIIIIIIJJJJ",
"MMMMMJJIIIISSffssFFFFFFFFFFFFFCCCCCCCCCFFFCRRccmlwwACCCCCCCCCCARAAAAAAAAAxwPNddyyJJJJMMOOPPPPVPOOOOOOPPPPPOVUhhzzUJJUJIUIIJJJMMM",
"OOOMMJJIIIHSSfeqqCCCFFFFFFFFFCSCCCCRRCSCFFCRRccllvwwAACCCCCCCAAAAAAAAAAxxxwNNddtvIIJJMOOOPPPPPPOOOOPPPPPPPOUUhgyzJJJJJJJJJJJMMMO",
"POOOMMJIHHHSSeeqpCCCCCFFFFFCCCCCCCCCACCCFTCRRccllvwwwxACCSCCRAAAxRAAAAxxxwwNNccttIIJJMOOOPPPPPPOOOOPPPVPPVOUUggyzJJJJJJJJJJMMOOO",
"PPPOOMJIUHHTSeeqnCCCCCCFFCCCCCCRCCCxxxCCCCCRQccllvwQwxACCCCCAAxxwwxxRxxwwwwNNccrrHIJJMOOOPPPPPPOOOOPPPPPPPOUUggzzJJJJJUJJMMMMOPP",
"PPPOOMJIIIITSeeqpRCCCCCCCCCCCCCCCAxxxRACCCCVQccFmvwwwxACCCAAAxwwwQwwwwwQwwwNNccrrHIIJMMOOPVPPPVOOOPPPPPPPPOUUhgzzJJMMMMJMMMMOOPP",
"PVPOOMJJIIITTfeqqCCCCCCCCxxxxxxxxxxxxxxACCCRRdcmmwwxAACCCCAxwwwvvvwwwwwwwQvNNccrrHIIJJMOOPPPPPPOOOPPPPPPPPOVVhhzyJJJMMJJJMMOOOPP",
"PPPOOVMJIIITTffsqCCCCCxxxwwwwwwwQwwwRxxxxxCRRddmmQxACCCCCCAwQvuuuNuuuuvwwvuLLbcrtIIIJJUOOPPPPPPPPPPPVPPPPOPVVhhyyJJUMJJJJJMOOOOP",
"OOOOOVMJJIITTffssFCCCxxwwwwuuuuQwwQwwwwwwxARRddmmxRCCCCCCCxwwPussNsuuuuvvuuLLbcttIIIJJMOOVPPPPPPPPPPPPPOOOOVVihzyJJMMJJJJJMVOOOO",
"OOOOOOMMJJITTffssFCCAxwwwuuNuuuuuuuuwwwwwwxQReennACCCCCCCAxwvussssssNuuvvvuLLbcttIIIJJJVOOPPPPPPPPPPPPOOOOOVVihzzJMMMMJJUMMOOOOO",
"UUUUUUUUUUUTTffssRRQQQNNNLLLLLLLLLLLLNNNNNQQReenpRRRRRRRQQQNNLKKKKKKLLNNVVNNNccttTTTTVUUUUVVVVVVVVVVVVUVUUUVVhhzzUUUUUUUUUUUUUUU",
"VUUUUUUUUUUTTgfssRRQQQNNNLLLLLLLKLLLLLNNNNQQReeppRRRRRRRQQQNNLKKKKKKLLNNNNNNNccttTTTTUUUUUVVVVVVVVVVVUUUUUUUVhhAAUUUVUUUUUUUUUUU"
};
