/* XPM */
static char *wood[] = {
/* columns rows colors chars-per-pixel */
"128 128 48 1 ",
"a c #8A5B33",
"b c #80532D",
"c c #7E512C",
"d c #7B502B",
"e c #7A4F2A",
"f c #794F2A",
"g c #784E2A",
"h c #774D29",
"i c #764D29",
"j c #764C29",
"k c #754C29",
"l c #744B28",
"m c #734B28",
"n c #734A28",
"o c #724A28",
"p c #714A27",
"q c #714927",
"r c #704927",
"s c #704827",
"t c #6F4827",
"u c #6E4826",
"v c #6E4726",
"w c #6D4726",
"x c #6D4626",
"y c #6C4625",
"z c #6B4625",
"A c #6B4525",
"B c #65452A",
"C c #6A4425",
"D c #694424",
"E c #684324",
"F c #674324",
"G c #674224",
"H c #664223",
"I c #654223",
"J c #644123",
"K c #634022",
"L c #624022",
"M c #613F22",
"N c #603E21",
"O c #5F3D21",
"P c #5E3D21",
"Q c #5D3C20",
"R c #5B3B20",
"S c #58391F",
"T c #53361D",
"U c #492F19",
"V c #301E10",
/* pixels */
"VbowGIAlgkyLPLAmktHPRQKwfbevygbRVboFQMzwHNSSTTTSQDtIQFoyPSRQLExTVbddqCvfbcivECmcbhAvddCLCotKJoeSVcrqqrvCIPRNCtDQTTRJFLSTTRMHEFLU",
"VbmvEICohkxKQNDokrENQPIrdbgwwfbRVboHQMAxHORSTTTSPDrFPFozPSRPKDvTVbcdqCtfcdlyFCncbiAtddAMEorJKqeSVdtqqswCJPRNDvDPTTSLHKRTTSNIEEKU",
"VajrCHFwljrHPQJvklyJNLChbbjxrcbQVboIRMAyHORSSTSSPCoCNEnyPSRMFwsTVacdsCrecgrDHCnddmAsdcuMKtoFLwgSVfvrqtwDJQRQHyCNSTSPIIPSTTRKEDIU",
"VagmwEIFvlmyLQNEojoDKHocbdpvkbbQVaoJRMCyIORSSSSSPCmxLDmyPSQJzrqTVabgvynedkyHICmegtCrdcnKPDlxLDiSVjyrqswDJQRQKCAIRTTSNIKQTTSNECHU",
"VaekrAIKFtloDMPLzkhvICgbckuqdbbRVarLRMAyHNRRSSSRPCktKEmyOSQHtnrTVackwvjdgrFKIykglyCrechEQLqoIJoRVqCtqrvDKQRRMFADMSTTRLHKQTTQEyFU",
"VaehmuELMDqkqEMNIrgqIwcbhrshbbcSVatMRKyxFNQRRRRQNAksKFoxNSPEqmvUVaeryrgdiyJLFthgoCDtidgvNQAkCLvRVvFwqrvDLQRRNICAFNSTSQIDIQSQDtEU",
"VadgjoyJNJyljrELLAhnItbdotlcbbdSVawMQIwvELPQQQPNLyisMIqyNSPDooyUVaiyAodckCKKDoggsDDvmhgnFQIkrKCSVyJAsrvEMQRQNJDyyHPSSRLCyHQQCpCU",
"VadfgksEMMDngjvHLFjlJqbgrqgbbbeTVaxMNFtsCJNOPNMLIvhtNKtyNROCnoAUVamCCndclDKJAlghuDDxrmklyNMnkHFSVzLDtrvEMQQPMJEyuzJQSRMCrvLPzlzU",
"VadegipCKMEoggoDJGkkIqbgrodbabfTVayLNErqAIMNNMLJFthvPLtyNRNyloAUVaoDCmddlELJykfiwEDzvqmlvMOrhDHSVyNFwqtDLPQOMJEytvEMRRMCooHNwiwU",
"VadegioAKLDnfgoDJFihGobeqofbbbhTVazMNEroyHKMMLKIErhvPMvwKQNykkwUValCCodclDLJykfkyFECwtomvMPwhAJTVzPKAssAJNPNMKFyrrAKQQLAmlDLsgvU",
"VadfgjqAJJAkegsHKDggEnbcorjcbdoTVbDMNFsovEIKLKJIEriwPPzrDNNDlgpTVagwDtgcgyKKAkflCHFCwtooxMQCitKUVvRPHwsyINONMLICrotFNQMAlhyJpevU",
"VaeghkqAIIwhdhxaBBegCmbbktogdgvUVcHNNHvorAFIJJJaBBkvORHqrFNJqfiTVacoDAlddpILDkgaBBFCwsooANQFlnHUVlRSMAtyIMNNNMJaBBoyJNMClfsHmdvU",
"VaghjlrAIHtfdkDBBBdhzmbbgttkejCUVdJNNIyoouAEHIJBBBluMRNwlrHLzgdSVabgyEvgchCLEkgBBBFAvrorDORJqkwUVdLSQDsyIMNNMMLBBBlrDLMEldmEldvU",
"VagikmtCHEqddnFBBBciynbbdrwldjDUVeKNMIAqlovAEHIBBBltIRQHoitIElcRVabcoDErgetKGkgBBBFytqosEPRLwklTVcCQREqwIMMLLLLBBBmmwHLFodhDlcuU",
"VagjlotCHDmccqHIwgcjxobacoxkchEUVhKMLICsllqwCFIIDsmrENQMwghyEpcNVabbgyHDoglHHkgwKKEyspotFPRNDoiSVetJQEowILLKJJKMMEtmrDJFqcfCmctT",
"VagklotCHDlccrHFrdcjwobabmxkbfDUViKLJHDulkntAFIIDsmqAKPNDidoCrcLVabbcrHIyiiDFkfyLLFwrootFOROHvkSVkqCOEmuILKIHHJNPKyoozHFsddAoctT",
"VagjlotCHDlccqFEqdcivocbblxkbeDUViJKIGDvljlsAFIIDtoqyINNDjckyscLVabbcoFJCkhAFkeyMLFysoorDNQPKAnRVoqvNFlsGKJHFFINQNDqowFFtdczqctT",
"VaehkmsAHEnccqGFrdchvqcbcozlcfCUVgJKJHDtkhkqyEIJEtoqyINNEickyrcLVabbcqHJCkhzHmetKMJCvqoqCMQQLDpSVrttMJooCHIFEEHMQNDqnwFHudcyrcrU",
"VacegjoyFFrddqHHvechwqcbduDodhCUVdHLLICrhfhnwEJKEtnowFMNFkckynbMVabbetHJAkhyJwgkDLLHAtqrALRRNEqSVsvtLNzmqyCDDEHLPMCpoyIIvddytcmU",
"VabcdglvEFvhfqHIygchyobbjCFrgkCUVcFLNKCofdglvEJKDrmovEMNIldlykbOVabbhwIJzkhwKHngmDJJFAtryKQRNEqSVrwtIQKvmmrvzDHLNKzoqCKIveeywdiU",
"VabbcdjtEHykgoEIAhbhymbctHEqhnCUVbEMNLCmedgmwFJIAqnqvELOJndmygbRVabclAIIykhtIKClglxHJFztwHPROEpSVpxsCMPKyolotCIMNJyotFMItegAAggT",
"VabbbchrEIAkekAHCjbhAkbgAHCnhnCUVbDLNLDofdhqAHJFwqqtyFLOKodoydbSVabgrDJIwkhoCJJyjdhvIKFwtCMQNDnSVmxrvEMPMEtnoyINNIwryKNHqeiCEmgT",
"VabbbcgqEJCkdgvECkbiChblDEvkgmCUVbDLNMEqggkuEJJEurtvAFLPMrdowccTVadmyHKIwkgktDHEtgcjDMKAtwIPMAlSVlysswELPOHtovINNHwvENPFnflEIviS",
"VbdcccgqEJCkcerDAkbkEhcqECqgflCUVcELOMFtjhnyHKJDutvyCFLPNudmvceTVahsDILIxkghmtyCyldduLMEtsDMLykSVlzursvDMQNCotIONHyyJQQFmgnFLDoS",
"VbidcdgrEJCicdqCyibmFhdvFCogflCUVcELPNHvljoyILKEvtwyAFLPNxdlvceUVajtDJLJAmggjmrwxodcnINHvowJKAkSVnCwtrtyJQQFrtIPNIACKRRHohoHNItS",
"VdngddhrEKChbdrCvgbqHjdvHFukglCUVcELPOJymjmyIMMHwtvxAFLPNydmyeeTVagpzHKKDohfgkovyreckFMFtmtHLDmSVqExtqryIQQHtvJQQJCCKRRJrkrIPLyT",
"VgtkgghqEJAfbfvAqdctIodqHKErjlyUVcCKPQMErklvHNOJyttyDINQMteqCgdTVadjrCHJFtieehqADteckEJAmktHMIrRVtFysorzKRQHvALRQKAALRRIrmwKQNDT",
"VlzojhhoCIydbhywicdyKxgjALMEpktUVcyHNQOJzolrENQMDttyFLQQIogwEjdTVacekqyEHzledgtEFsdcoFFqghvJNKxSVvIArosDNRNExEPSQJyCMSQErrDNRNFT",
"VqEumjinAIwcbmyodcgCMFmgoFOMAloTVcwDJNONIyqqyKQPHwtyHNQNCkkCEldSVacdeinvEEtgcgwHEocdtHzidjyKNMDSVvKCrnvIQQLCAJRSQIyEPSNzryJQRPIT",
"VsHyqlknAIvccqwhcclEMKykitKQIqlTVctxDILNMIyrtFNQMDtyIQQJtjqFEmeSVaccdegmyHCkcgyFxhcgyFrednCKNMFTVtMEqoAMROHzDNSSQHyHRRJwwHORRPJT",
"VrIAtmloAJvbctqcbcoEMNIxmnDPNwlTVdttvAFKNNHwsAMRQHwyJQODomyIEogSVaedddeitHHpdhzCncbkDDldfsFLNMHTVnNEpoEPQLDAHQSSPEyKSQEwDMRSSQKT",
"VqICuoloCJubctlbbdqELNMHwowMPClTVespquCINPMDtyKRRLyyKQMynqDJEqiSVbhdddehrHKvejzwgbboGChchwHLMLHTVjMFoqIQPJCCKRTSNDzLSOCyIQSSSQKT",
"VqIDvoloCJtbctjbbdrFLNNKAotLPDlTVesoosyHNQNEvyKRSMyxKQLwnsEJFskTVbjeddfhqFLwejytebbqIChdkyILMLHTVhMFoqJQPICDLSTSNDyLRNzyKQSSSQKT",
"VtKEvomrEJpbdukbbgtFLNNJzotKNCkSVftqqvCINQNEvyKRSMywJQKtkoDJFtkTVckgddehqFJrdkysdbcsIChdlAILMKHTVhLDloJQNHCENSTSNDzLRMyyJQSSSQLT",
"VzLEupsDKHgbfvlccivEKMLHwovKMziSVhwtvAFLPQLDwAKRRLwtHNIogkwHFvlSVdohedfjvHDicmAqdbdwJAheoDJLLKHTVkLyhoJOJCyFPTTSMCCNRKwyKQSSRQMU",
"VEMDtvFMMvcbkvlddlwEIJIDtqyJKyiSVlzwAFLPQNICyCKQRLvpDLFldfqEFzpSVgsiffhqCEqddrAmcbgCJyhgtFKMLJHTVnKseoJLDuxJRTTRKDFPQHtxKRSRRPMU",
"VFLzwHPNCgbdotkdfmxEHHExqsDJJxjRVqDyDKQRPKEzzDJPQKtlyJEkcdmCHEvTVlwkghpzDuebgyyicclHJvhjxILLKIFTVqJneuKHvrANSTSPHDJQODrwKRSRQPNU",
"VEIvCNQEjcemuridelxFHFArpvFJHwkRVvFAFNSRNFAyCFKOQKsjuIEmddnDJJDTVqCkglyEwgbcoCtebdtJIrgmCJLKIFCTVqImhDMEstFQSSQICDLPLyowLRSRQOMU",
"VyDtHQJmegpyyrhddjwFIEvopyHJFwkRVyHAHRSRJCyADHKOQJqhsHFqghrFMNJTVtEkgsEAkcbetymdchAJDlgqFKKIFDwSVoIooLODvAKRSQJAwELNHsmyMRSRQNKU",
"VrvsKPyggoyDCtidcguGJEtmqAHIDukRVzICJSTQHAyCEHLOPIogtIIvllwIPQNUVvFkhyFtdbbhtthcdmEIwhgtIKIFDyqSVoIrzRQDzFNRQLCstDKLColyNSSROLHT",
"VlqrLMrdgqAEDvkdcerFJEtloAHHCtkRVAIDLSTPEyADFILNNDkgvJIwoqCLQROUVvFkhzEocbckvrgcftHHsfgwIJFDAvmRVqHtFSQEDJOQOHvnqCJIylkzOSSQNJET",
"VgmqJKocdlwCCwldbdoEIEsklyFHCsjRVAHDMSTPEyyCFILNKwhjCLHunsENRRNUVtChhyEncbcoytgdiyKItgguHIECytmRVvJvISQECHNQPIvllwHIzlkyNSSQMHCT",
"VcjpHJqcbdlwCvkcbcmCHDpghvHJDskSVxFDMSSPDvvzDHLMItioHNHrlrENRQKTVnwggyEqdbetDvhelDMKzkgmAHFDzvqSVCLyHSREyCKQQMClhnDJFtltKRSQKEzT",
"VbhoEHtdbbdoyvjcbclAFAlderHKErlTVrDDMSSPEtrvCHKLFqlwMQHqkpENRPFTVhodgwEtfcgyHxhgrHNMFqggnyEEDAvTVINAFRRIwvEMQQIsggtJLDooEQSQIAyU",
"VagoAEyjbbbgtvibbcmCEyjcdqHJCooTVlEHNRSQErmqyGKKDqoDQQIqjoEORNASVdicgvEyidhCKyhiwJNNJzmeekvCEECTVLQDDQSMyrvFMPLCkejDNKvmyNRQGvxU",
"VagmvCArgbbcqwibbdrDFyicdrHHvnwUVkHKPRSQFqknxHLJzorHQRIrkqEPQKwSVbfcftECneiELyjnDLNMKEwkddjvFIFTVLRECNSQEtquDIKFtgeqKNDptKRQEsyU",
"VaglrvywqebboyjbbgxIIzicdtIEroEUVlLORSSQFoilyILHwotIQQHrkqEOQHsSVbdbdqDEthlHNAlvJNNLJHDthcdoEKHTVKRFyJRRKyolqwDEzleiDNIvtHRQDqyU",
"VafknrvywlcbmAkbclDLKAicdvIDqtKUVoPRRSRPFohlzJLFtnvJQPFqkoENNEqTVbcbcoDFxknJPCoCNPNKIHEzndclELITVIQEwFQRMCohhmvCCrffwMLztEQQDozU",
"VaejmquyyocboCkbdpFMKygcdwICqyNUVsQRSRRNEmhnCLMEtowJQNEpkoENMCoTVabbcoEHzlqLQCqENPMJHFEAqedlFMITVHPDvEORMCmggkrzCtgevMMCvEQQCozU",
"VaglquyAylccrDncdqFLJwebdwIAqyPUVtQRRRQMClhqFNMDrqAMQMCokqENKwlTVabbdqFICnqLQzoDNNJFEDAwlderINITVHNCuEOQJwkffktCCtggyNNCvEQQAnAU",
"VairyCCzrgbdwHvgenCJHtdbctHAowNUVrPQQQPLAljvKNJxotHPQKxmlvHLFoiTVabcgtHKEooKPwlCLKEzvtqkddkCLMFTVINzvHPNFrgegmyEEthkDPODvDPQAnAU",
"ValyEFCrgcckDJEohjtDEtebboHCltMUVoNNNNNKzllCNNErqDNROFslqAJJwhhTVacdkwHLIslHPvjyJHyqkgdcdlCJLJDTVIMywJPLAlfehqDIEtkoHQQFvANQCnCU",
"VapDIFtgccgvHLKCohktAvgbbkFDloKUVmMMMMMJyloHQLxqzLQQJyonvFKEmdiTVacgnxFLLylEPvhyIEshdbcdqFKKHDwTVHJvyLPItieglwFIErltJRQHvyMQCnCU",
"VarFHyjcchtEKMNKyiflwylbbgEFmmIUVkKLLLKHvktLQItwJQQLCqmrCJKzhdnUVadhowELNFmAPvhzHCndbbgvJLIDytqSVCEryMNDohgjrCHHzolvKRRIwvKPCmAU",
"VasFDoffoAHKLNNNFmegtCrdbgEIokFUVgIKKKJErjvPQEuEOQNEtmoxHMJugguUVaglqwDJPKqyQxhzHzkcbeuJLEwroliRVsynzMLxkghoxEHEtkkvKRRKyvINAkyU",
"VatEyifoELNMMNNNJqegsDxhcgDJphCUVdGJKKICoiyRQDyKQQJyolrDKNJrgiAUVakotwCIPNtwQyhzFyhccmFMFuoljgePVkrlCMJtihltDHHAohkvJQRLAtHNyjwU",
"VatEwhgvLPPNNNNNIoegtEAkdgDJpgxUVcDHIJHAniARRDCMROHtllsELNIqfkDUVamruyCIPOvwQzhzFxhcdtJMDqligecNVgmlENHqijoxFJHAnhkwJQRLAtFMxiwU",
"VawHAkhtKPPNNNNMEldhwFAkdgCJqesUVbyEHIFyljDSRDDNRNFtkksELNFoehyUVakqvAEKPMrvQzgxHCkcdtLNFslhecbMVckoINFpkltCIKIAojnCMRQKxtFLviyU",
"VaCKHtkoDLNNMMMKAidjyHCldeyKvelTVatCHHDtjmJSQEDNQNErjjrELMEndeoTVagnwDINOHlvNygsHHtfdqLRLylgdcbNVbkyONContCILLIymktIQRPFttIKrjDU",
"VbFMMErlqCHKLLLIvgelAHDoddsKCegTVanzGFylhtPSPDEMQNDphirELLEoecfTVackwHLNJuiwLzglDJEmelJSREnecccRVapKRLwpvEKNNLFtlnCNSRLyqyKHmlIU",
"VcJNPMEslowDIKKFrggoDJFtgcmJEgdSVajwFDqgjERSNDELPMDohisFLKEqgccRVacgwJNKykjAKCjgtHJzjjDRSKpdccgTVaDQRFtwHMPPNJAqltIRSQHtrELDjoLU",
"VeKNQPMFskltDJKEpghqDJIykdhEFgcSVagvEyieqLSRJDEMQNEqhjtHMLEvmgdPVadetKLAlhqFLFqgkyKJvlwPSNsdbeqTVcMSNAwFNQQPLFwooANSSMAqwJLwhvOU",
"VgKNPPPNEogkvHJDohiqCIJDodeyDgbRVaftDrdfyNRMEAFNRQItklwINLHCvoiQVcgcoJGoglyKNKzlirINIuvKSQvccjzUVlRRIyDMQRQNJDvrvHQSQHutDNKskCQU",
"ViKMNNPPKvgfoEJCohjqzHJFtedqzgbRVaerAmchDONIzxFPSRKvlnyJNMIFCyqSVdkckHzhgqFNPMFtkoFPNDvHQQxccnEUVySQEAIPRQPMJDwvCLRRNCrvIOJqmHRU",
"VkLMMNNOLxgdlDICoikqzHJHvfcnxgbRVadqzlciFOMFwvFPSSLwmoAKNMJHFCvSVdmbiFvggsHNQNIwloEQQHwEPPyccpHUVESPECKQRQPMJEywDNRRLyqwJPJqoIRU",
"VhKLMMNOLygdmDIAmiluEJLHufdryfbRVadqCmdiFPNHxvDNSRLynoyJNNKIFCwSVembiEvghtHNPMFtkoHRQGwEPPxccrIUVESPECJQRQQNKFzwCLRRLyotGNKsnHRU",
"VdFIJLMPNCieoFHvihqDKNMEqgizAebRVaetEsehDOPKCvyIQRNDqnvHNNLIFCvSVembiEvgiuHNNJylhtKRPEwEOPyddtJUVESODxFNQRQPMIDxyHNQNDomyKLymCQU",
"VbwCEHLOPFlgqHFoeguJQQKylitHzebRVagwHyhgyNRNFwtAKQPIvoqCLNMIFCvSVflbjEuhkwIMLDngjANRNCvENOyeewKUVESNCtAKPRRQPMIDxzINPItknDMFqsLU",
"VamrvCHNPJogqHDkdhyNRNEqkqEJvdcSVahyJDlgtLRRLCstDMPMDrovFLMJHDvSVejbjDrgkwILHtggrIPPJyvDNNzffxLUVESODtvEMQRRRQPLDvyHNMDnisJLAqDU",
"VaikmtCKPLreoFAgchCNOHskmAJHoccSVaiyJHqhoIRSPHvovHNNIwooyHKLJFxSVfibkCoehvIKClflCMNLDvtDMNyedvKUVDSQHwtAJORRSSSRLAtxINKyklCNJwvU",
"VblhhluFNMtdkDwdcgzKJvihqEJDkccSVahxJJwknFQSRLApoAJMJzokoAILLIzTVghbmCmdguIIvggtHLJFyrsCLMydcrJUVCSRLCwyHNQRRSSSQHuqAKNHtksKNFwT",
"VgrkhioCLMvdgAtcbewHCldgsFIyhcdSVahwJKCooDPSSPFrmtEJICohitFMNJATVghcqCkcgtHFqgjyIIEytoqyJLwdcmHUVySSOHAAFLPQRRSSRMAqtFNMCnnEPMCT",
"VlynhhlwIMycewtcbdrEyjcfrEHyhcdSVahwJLEsoCNSSQIuloyGHCphhrFNNJATVegcqAgcetHEnflCIHCwqmowILydbjFUVvSSQKDCEKNQQRRSSODqrDMNHrlANPHT",
"VoCqkhlvILwccstdbblCCmdeqEIAjccSVagvJMHuoyLRSQJvklvFHCohkwJNNHwSVcdcrwdbetFDmekAHHCwqllrEJzebgDUVoRSRLEADILNPQRSSQErrDNNHslyNQJT",
"VqFtkinAJIobbmtgbbeyFvggrFKDmccRVagqHLIwpxJQRQJvjitFHylkuINOKCqSVbccvtcbguECmfhwHIEyrkhkwHChcgyUVhPSRNFAzEIKMNQRSQGttFNNEqmyNQMT",
"VrIvkkuHJyebbgqaBBbqIDmhrFLHrdbQVaelDLJyqvHNPNJaBBqFHtksJQQLDslSVabfynbbhwEzmfgaBBIDulggoCDlcfvUVdMRRPICxAEHILNaBBHtvJPLymoCNRNU",
"VoKwkoEKDkbbbdkBBBbgEItjoDKJxhcNVbfhyLKAqvEKNNJBBBoFEmlFQRMDrljSVabkzibclyDyogeBBBKHymedixDqddrTVcJQRQLExxADFIMBBBItyMPHslqDNRQU",
"VmMykvLJqdbbbcfBBBbcwJzklyIJDodNVdigvKMDtvDJMNLBBBnHAhrNRMDrkhiTVaboxebdrCCwohdBBBKJCofcftDtdcnTVbHQRRNHywyADHLBBBJtANODonvFNRRU",
"VlNyjDNDidcccccgqrebmIDlktEJFvhPViogqKNFwwDJMNMHsgoIxhCQNDrkhhjTVabrtcbiyDCvohegoDKKErgcdoCtdbjTVbEORRPJAvvxAEKQSSJtAONyorAINRSU",
"VkPzjFNyhggecccdlwlbgHFoioAHHAmQVotgnJPJAzEILNNKxhqJviHPHtlihhjTVactqccoDEAtniggnCJKEthcdlyrcbgTVbDNRSQKCvtvyDJQSSKrAOLvqvEKNRSU",
"VkQCjHNwihhfdcbckwoceEIqimwFHDrRVryglHQLDADIKNNLAjqKvkJODqkhhhjTVactpccrEFCtokhhnAIJFvhcckwscbdTVbAMRSRLDwtvwCIPSSLryNLvqwEKNRSU",
"VkQCjFNyhfedcbbdlwncdDHqhkvEHEtRVrAjlHQNEyCFJMNKyhoJwkJPEqkhghjTVacurccoDFDwqkhhnAIJFwjccgvudbcTVbyKRSRMExvwyDIPSSKrAOLwqwEKPRSU",
"VmQCkDNAgdccbbcgrvhbeCEogjtDHEtRVrEnmFRQHywAFKLHtflIykHQHtkhghkTVactvebgvEFCtlhhoCIJHykcbdryjbcTVbvIQSRNFyyzDHLQSRFsEQLvqxFMQSTU",
"VrPzkCMDhcbbbcgowocbgCAkehrCHEtRVqHtpEQRKytvCHIDodjHAjCQLxmhghkTVacqAlcbguFHAohhqDJKIAmdbclyrdcSVcuEOSRMEACEJMQRRMyvKRKvqyIPRSSU",
"VwNwkyLFkbbbcemtqebblCvhdhrCFDsRVoIwqCPSNDrqwEHClciHDkwONDqjggjTVabmCwgbbhyIFqhitFKKICqebbhxzldRVkwANSRLDCEKORSRNDsANRItrCKQSTSU",
"VCMvkvJIocbbdlrogbbeuCrgdhrCFDtRVqIypwLSRHsmrCFAkckIIotMQIvkfehTVabjyDvhcdoHItgkwHKKIDthcbetDwkRVwDzNSRICCINRSSQHtrFPPFstENSTTSU",
"VDLvluHItdbbhrrgbbdoAymdcgtEHFwSVrJwmqIRSLuknyEzkdmKMvtKQMykddgTVabgtEFylehDKwgkyHJJHEyoecdqDDtSVEJANTRFzELQSSRLArxJOLCrvHQSTTRU",
"VEKvmtFHvdbcnwodbckwCwjccgtFJHySVuJvkmERSNvikvDykdqNPCvJQNCkccfTVabeoCIIClhyLygjyFIIHEDwkdenCHCSVHNDNTQDyFNRSRNHxvDLMHwryJRTTSQU",
"VEJumtEFtdbcrylcbeozCtgbbftFJHySVvJvilDQSNvhitDykesOQDwJQODkccfTVaceoCJLHrhyLyfjxFHHFEEymeemCIETVIPFPTQCyHNRRQKDwyHMLFvtCMSTTSQU",
"VFKtmtEFrcbduykcbgrAAsgbbeqCFEwSVtJwklCPSMtgjwExjgyQQDvIQNDldcgTVacgqDKLFohzLwfkyFHHFEDylefoEJFTVKQFQTQDCIORROJAvyINNHyvENSTTTRU",
"VILvltEFqcbfwyhbbgtAAticbdktAAvSVoKComyMQKrhoDFuilHRQDvENNFqfdhTVadhuFKIykhDKtelCHHHEDAtidgsHLFTVLPHRTQEELQRRNJAtvHPQLDzFOSTTSRU",
"VKNwlsEFqcbhzvebciuAztleccflrvtSVkLFtnvJNIohuIEokyNSODtzKNIuhfkTVaemAJJDogkFIneoDHHFECwogcgwKLETVLNISTPFINQRQPKDttFQSQIDIPSTTTSU",
"VLPwkrEEocblCtcbclvzyuohcbcekrtSVgLJyosFLHniAJyksKRRMCsuFMKykgnUVahrFKHviepIFiftFIGECzumechCMLCTVJLKSTNFKPRRQPNIytDQTSLFIPSTTTSU",
"VKQxiqEDmccqEqcbeqwyyvrkdbbcfmtTVdLLCoqDKHmiEIokEQRPJArqAJLClgoUVakyKMFqghyKCggwHHEDAytmedlFNJwTVEJMTTLEKPRQQQQNHyCPTSNHINRSTTSU",
"VIQxhoEDlcdvFocbhsyAzxtmdbbbcirTVcLNEqoCKIliHEiqLQPLFxqnuHLFohqUVaoFNNEojoFLwfiAIHDAywtoggqINFsTVwHNTSHAIOQQQRRRNECMTTPHINRSTTTU",
"VFQwgnEDlceyFmbcktyCCyvoebaabgqTVcLNHroAKIljIAhxNPMHCuolrEMHrjrUVarJQNDqnwKLtfkCIHDywvvrkivKNDpTVqFPTRDwGNPQRRSSRJDLSTQIHMQSSTTU",
"VEPvfmEEmcgCHmbcktyCCyvoebaabeqTVcLOHroAKIljIzhAOOKEytnlpEMIsksUVatKQNDrpALKrelDIFCyvvvtlkxLNDoTVoEPTRCuEMPQRRSSSMELSTQIHLQSSTTU",
"VCPvekDDmdfzIqcbgqwAAytmdbaabgsTVcMPHqoCJFjiHyhyNPLFztmkoDLHrjtUVatKQMAooyKKrejzIHDAyxwtlkwLOFrTVrENTRCvEMPQRRSSRKEMSTQJILQSSTSU",
"VyOyehyDoddtIAebcirwywrkcbabckvTVdNPEoqEJzegEygrLPNJDvmjmCJEnhtUVatJNHsjlzKJtfgsEIGEDCztkhrKQKyTVzFKSRDwFNQRRRSRNFENTTQJILPRSSSU",
"VrNAgetCreclEHqcbcgotvqicbabfozTVdNNCoxJHpcgCwgkENQNIynilAICkgtUVauJKAkgmCKJwhejvEHHHFDvkgmHQPFTVIHFRREwHNQRRRQNHCHRTTQKILOQSSSU",
"VkMDhdmAwjdgvHDlcbbemtricbbbhtCTVfPNxrFLChchzyjgtKQQLCohlAIzhguUVawJIsggqEKIzmfejtAEHHFzngjCPRLTVNKANRFwFNQRQPLFADMSTSQKIKMPRSSU",
"VeKEjciyCrgekyFCmcbbgqtlcbbcivDTVgQMvwLKtedmCDqhlEPRNEohlAIyhgwUVazJFnfjxHJHCrjedhowDHIEujhtKRPUVONwIQHtAKQRQLFyAJRSTSQKHIKNPRRU",
"VbFDkcgvDyohgmyFDodbdovodbbckwETVhQLtCOImdgrEFzmjvLRPFqhlzIzhgyUVaCKDkfnDIIEAvoiddhoyFJJCohnEPQUVNQtAOEnrFNRPIzwENSTTSOIEEILOQRU",
"VbCCkcetEDvlhiqCHDlcdnysgbbdkxEUVhRLuFQHlfkvFJFukpFPQIrhkyIAigyUVbDKCjgqEIFDywtogdekuEKLHtjkyLQUVJQstLDikzNROFwxIQSTSRNHACHLNQQU",
"VbCAjcfvFFyoihoAIHsddnzviccdlxFUVhRMvHQHlglwFJIzmnCNQKuiivHDkgwUVbCKDkgqEIFCywvqhddjtEKMJwkhtJPUVFQqoJAghvMROFwyJQSSSQLExAFKNPPU",
"VbCyhciCJHyojjqCJHrddoAzmecdjvEUVgRPyFQKqgitEJJComAMQKvjjvHEmgsUVawJFngoEIHDzwvpgddkvFLMHtijvJNUVDNomIAggtKQOFvvFPSSSQKCtwEJNPOU",
"VbDvfdqJNJynkmwHJDlcdoDEthdcgrDUVgRRDDPNyhgmAIJCqmzMPJtilyIFqhmUVaoHJthoEJIFCytmecemyILJAmhoEMKTVAIkoICigrIOOIxryJRSSRKyqsCINPNU",
"VcDqdgAOQIvlluFKHtfcerEHAmecemAUVeRSJALQHofhvHJCqnAMNFojrEJFtkkTVahALAkoEKKHEztkdcgrEJJCohlALLzRVrwhqIEmhoDLNLEtqzLRSRKxmoxHMPNU",
"VdDmdkHQPFrmsELKAkcchvHJEqgcdkyUVdQTOAFNLyhfqFJCooDNMAlmzIJFwokSVbgqKFmnDKKIEzrhcciyIJDqhjwKNEjPVekgtHEqhlwHMNLEtqCMRRLwkluFNPNU",
"VhCkdqLQMAooAKMFoedfmzIKFthddkwUVdPTRDAKNHngoHKAopFPLvltHLJFztpSVhkiHJokzIKIEyqgcdnDJEriisHMHodQVbfjxHEsijrDLPQMDssDNQMykktFNQNU",
"VkCigyNPItmsFMJwhdektDJKHuieelyUVfPTSIwELKwhoILAnqIQKtoCMNKFDCyTVqtgCLqhtFJIEyphdgtFHvjhqELJtedSVagqDIEthhqCKOQPKyptHOMAlktHOQNU",
"VoAhhDPNDqmvILEofejqyEKLHvkfgmAUVhPTTLwyILDlqKMAnsJQKtrHPNKHFFFTVrCgvLsgoCHIEyqhejyHDngkyJLCidgTValyHJEthhqDKNPPMDpoCMMCnlvIPQNU",
"VqzhkFPLznlwIJzkegltAHKLHwlghoDUViQTTLvwHLEnsLNAotKRKttIPNLIIIIUVqFgrLtelyGIFyqiglCIAkgoELJtecjTVaoCJKEshitFMOPNLCnlyLLAonyKQRNT",
"VovglHNJwlkvGIxidgmvDILMHvlhktGUVkQTTJtvFLDmrLNCotJRLtqENOLJJJJUVqHhoLxehvEHEyohgqFKClgnDKHpcchTVaoCJKEtikvHMNONJylkyLKynoCNRRLT",
"VgngrJNHsjirDFwkegnyHLNLEtljnyLUVnRTSHqtEKCkqLNDrwKQMxowJNMKJJJUVpHjmKDgdmAFDvlgjwKLDngkvFEmbbdSVakyIJFvlmvEJMNMIvkkALKymoDPSQHT",
"VbhjyLMDphhoyDynggoCKNNKCqmntFPUVsSTRDorDJAjqLNDtyKQNDooAJLKKKJUVqIllIHjcgtDDrhgoFNNEqgelyAlbabSVahvHKHxnntCFJLLHtjlCLKznoERSNCT",
"VagqFMKAmgglvDCtignDMQNHwqqtCKRUVwSSNylqDIAjrMNDvCLQPItlqAHKLLKUVrImjEJqcclCCoehyLPMEqgcfqwncabRVahuIMJzootyEIKKErilCMMDqpFSSKyT",
"ValAKMIxkggluDEymhmDNQLCrqvCINRUVASRJtlrEKCktNNDwDLPPLCokqCILMKUVvJohyJyebgyCldlFNNJCpgccktqdbbRVakwJNLCqotzEILKEqjnDMNFtrHSSHCU",
"VbyIMLFtheglvDFDqilEQQItmrAHLOPUVCSPEqmvINDlvONCyELNNMHvlltEKNLUVyJqhtIEkcdvCicoHLIDvmgcchtuicbSVcqyLQMCqqvDHLMLErkqENPIwrHSREJU",
"VcHMNLEqgdgmwEHEukmFRQEmjrDKNNLUVAQKyooCMPFlwPNDAFKMNMJCojqDKNMUVCJqhrFFqcctCgcqFHCwqkeccjwyoeeTVfvCMQLAqryFKNNMFtmsGPQKytITRENU",
"VfKNNLDpgdgoyFIFwloHRQCkirEKMKFTVyNGtmrEPRHmyQNDCHKMMLJDpkqDLOMUVDIogqEFrcctDgcqEDxrlgdccnDDqhkTVgyFNPIwqtCIMPPMFtovIQQLCtITRFQU",
"VeJMNKDogeirCIJFvlrJSQCjhrDJJFySVvKAomwJRRFoCRPECFJLMLIAoluHNPLUVCFkfoEEocctCgcoEEyqidccfwHDmhrUVdCKOMDrovDKNPPLDtqAMRRLCxLTQFQU",
"VdFKLJCogglyHLKErltLSRDjgoAHHAoRVsFrkqFPROCtHRRHzCHLMLFtloCMPNKTVyzgdoDClccrAhcmFHCridbcnHIvilEUVeJONHwoqyHMOPMHxrvHQSQICEQTNEOU",
"VcCHJICoghqEMNKAolwNSREkejvDDtgOVmwklANRPHwyLSRKAxDKNKAnlwJPPMHTVrrddqDxhbcqykciDJFuhcchCLDlkALUVmPPJArotDKNOMHytvFPRQKEFNSSKDNU",
"VbyEIHCohiuIPPJwlmCNSRHldeoAzmcMVgojuLQNHyyFPSSNDvzJNJtkqHOQNJDTVllcdsCsfbdqyndfvIIvgcdtKIrjwKKTVyOJCtpryINPNHytwHPRQJDFNSTRHCMU",
"VbtDIICohkwKQPHtkoEPSRJodckyxibNVcknFPNFyyFMRSSRJwwINHolANRQMFATVghcgvymdberAsgdkCHwecjELClrJLwRVvHzsoqvDLQPJztxIQSRJCENSTTNEDLU",
"VbrAHIAngkxKPNEpkrFPSRKtdcgwwgbOVblvMPHxyFNRSTTSMAuIPFnqJRRQLFyTVceckywiccgtCwicdtFwdcrJIsnDMDiRViwrooryFNQOFtvHQSSNEDLSTTRKEELU",
"VbqyHIAmgkyKPLCmktHPRRLwebfvygbQVbmDPNCvEMRSTTTSPDtIQFnwNRRQLFyTVbddoCvgbchuDzlcckDvddyKDorJLtfSVdrooqtAINRNCsANSTRKEIRTTSOIEFLU"
};
